P3
400 225
255
204 226 255
204 226 255
204 226 255
204 226 255
204 226 255
204 226 255
204 226 255
204 226 255
204 226 255
204 226 255
204 226 255
204 226 255
204 226 255
204 226 255
204 226 255
203 226 255
203 226 255
203 226 255
203 226 255
203 226 255
203 226 255
203 226 255
203 226 255
203 225 255
203 225 255
203 225 255
203 225 255
203 225 255
203 225 255
203 225 255
203 225 255
203 225 255
202 225 255
202 225 255
202 225 255
202 225 255
202 225 255
202 225 255
202 225 255
202 225 255
202 225 255
202 225 255
202 225 255
202 225 255
202 225 255
202 225 255
202 225 255
202 225 255
201 225 255
201 225 255
201 225 255
201 225 255
201 224 255
201 224 255
201 224 255
201 224 255
201 224 255
201 224 255
201 224 255
201 224 255
201 224 255
201 224 255
201 224 255
200 224 255
200 224 255
200 224 255
200 224 255
200 224 255
200 224 255
200 224 255
200 224 255
200 224 255
200 224 255
200 224 255
200 224 255
200 224 255
200 224 255
200 224 255
199 224 255
199 224 255
199 223 255
199 223 255
199 223 255
199 223 255
199 223 255
199 223 255
199 223 255
199 223 255
199 223 255
199 223 255
199 223 255
199 223 255
198 223 255
198 223 255
198 223 255
198 223 255
198 223 255
198 223 255
198 223 255
198 223 255
198 223 255
198 223 255
198 223 255
198 223 255
198 223 255
198 223 255
197 223 255
197 222 255
197 222 255
197 222 255
197 222 255
197 222 255
197 222 255
197 222 255
197 222 255
197 222 255
197 222 255
197 222 255
197 222 255
197 222 255
197 222 255
196 222 255
196 222 255
196 222 255
196 222 255
196 222 255
196 222 255
196 222 255
196 222 255
196 222 255
196 222 255
196 222 255
196 222 255
196 222 255
196 222 255
196 221 255
196 221 255
195 221 255
195 221 255
195 221 255
195 221 255
195 221 255
195 221 255
195 221 255
195 221 255
195 221 255
195 221 255
195 221 255
195 221 255
195 221 255
195 221 255
195 221 255
195 221 255
195 221 255
195 221 255
194 221 255
194 221 255
194 221 255
194 221 255
194 221 255
194 221 255
194 221 255
194 221 255
194 221 255
194 221 255
194 221 255
194 221 255
194 221 255
194 221 255
194 221 255
194 221 255
194 221 255
194 221 255
194 221 255
194 221 255
194 221 255
194 221 255
194 220 255
194 220 255
194 220 255
194 220 255
194 220 255
194 220 255
194 220 255
194 220 255
194 220 255
193 220 255
193 220 255
193 220 255
193 220 255
193 220 255
193 220 255
193 220 255
193 220 255
193 220 255
193 220 255
193 220 255
193 220 255
193 220 255
193 220 255
193 220 255
193 220 255
193 220 255
193 220 255
193 220 255
193 220 255
193 220 255
193 220 255
193 220 255
193 220 255
193 220 255
193 220 255
193 220 255
193 220 255
194 220 255
194 220 255
194 220 255
194 220 255
194 220 255
194 220 255
194 220 255
194 220 255
194 221 255
194 221 255
194 221 255
194 221 255
194 221 255
194 221 255
194 221 255
194 221 255
194 221 255
194 221 255
194 221 255
194 221 255
194 221 255
194 221 255
194 221 255
194 221 255
194 221 255
194 221 255
194 221 255
194 221 255
194 221 255
194 221 255
194 221 255
195 221 255
195 221 255
195 221 255
195 221 255
195 221 255
195 221 255
195 221 255
195 221 255
195 221 255
195 221 255
195 221 255
195 221 255
195 221 255
195 221 255
195 221 255
195 221 255
195 221 255
195 221 255
196 221 255
196 221 255
196 222 255
196 222 255
196 222 255
196 222 255
196 222 255
196 222 255
196 222 255
196 222 255
196 222 255
196 222 255
196 222 255
196 222 255
196 222 255
196 222 255
197 222 255
197 222 255
197 222 255
197 222 255
197 222 255
197 222 255
197 222 255
197 222 255
197 222 255
197 222 255
197 222 255
197 222 255
197 222 255
197 222 255
197 223 255
198 223 255
198 223 255
198 223 255
198 223 255
198 223 255
198 223 255
198 223 255
198 223 255
198 223 255
198 223 255
198 223 255
198 223 255
198 223 255
198 223 255
199 223 255
199 223 255
199 223 255
199 223 255
199 223 255
199 223 255
199 223 255
199 223 255
199 223 255
199 223 255
199 223 255
199 223 255
199 224 255
199 224 255
199 224 255
200 224 255
200 224 255
200 224 255
200 224 255
200 224 255
200 224 255
200 224 255
200 224 255
200 224 255
200 224 255
200 224 255
200 224 255
200 224 255
200 224 255
201 224 255
201 224 255
201 224 255
201 224 255
201 224 255
201 224 255
201 224 255
201 224 255
201 224 255
201 224 255
201 225 255
201 225 255
201 225 255
201 225 255
201 225 255
202 225 255
202 225 255
202 225 255
202 225 255
202 225 255
202 225 255
202 225 255
202 225 255
202 225 255
202 225 255
202 225 255
202 225 255
202 225 255
202 225 255
202 225 255
202 225 255
203 225 255
203 225 255
203 225 255
203 225 255
203 225 255
203 225 255
203 225 255
203 225 255
203 225 255
203 226 255
203 226 255
203 226 255
203 226 255
203 226 255
203 226 255
203 226 255
203 226 255
204 226 255
204 226 255
204 226 255
204 226 255
204 226 255
204 226 255
204 226 255
204 226 255
204 226 255
204 226 255
204 226 255
204 226 255
204 226 255
204 226 255
204 226 255
204 226 255
204 226 255
204 226 255
204 226 255
204 226 255
204 226 255
204 226 255
204 226 255
204 226 255
204 226 255
204 226 255
204 226 255
204 226 255
204 226 255
204 226 255
204 226 255
204 226 255
204 226 255
203 226 255
203 226 255
203 226 255
203 226 255
203 226 255
203 226 255
203 226 255
203 225 255
203 225 255
203 225 255
203 225 255
203 225 255
203 225 255
203 225 255
203 225 255
203 225 255
202 225 255
202 225 255
202 225 255
202 225 255
202 225 255
202 225 255
202 225 255
202 225 255
202 225 255
202 225 255
202 225 255
202 225 255
202 225 255
202 225 255
202 225 255
202 225 255
201 225 255
201 225 255
201 225 255
201 225 255
201 225 255
201 224 255
201 224 255
201 224 255
201 224 255
201 224 255
201 224 255
201 224 255
201 224 255
201 224 255
201 224 255
200 224 255
200 224 255
200 224 255
200 224 255
200 224 255
200 224 255
200 224 255
200 224 255
200 224 255
200 224 255
200 224 255
200 224 255
200 224 255
200 224 255
200 224 255
199 224 255
199 224 255
199 223 255
199 223 255
199 223 255
199 223 255
199 223 255
199 223 255
199 223 255
199 223 255
199 223 255
199 223 255
199 223 255
199 223 255
198 223 255
198 223 255
198 223 255
198 223 255
198 223 255
198 223 255
198 223 255
198 223 255
198 223 255
198 223 255
198 223 255
198 223 255
198 223 255
198 223 255
197 223 255
197 222 255
197 222 255
197 222 255
197 222 255
197 222 255
197 222 255
197 222 255
197 222 255
197 222 255
197 222 255
197 222 255
197 222 255
197 222 255
197 222 255
196 222 255
196 222 255
196 222 255
196 222 255
196 222 255
196 222 255
196 222 255
196 222 255
196 222 255
196 222 255
196 222 255
196 222 255
196 222 255
196 222 255
196 222 255
196 221 255
195 221 255
195 221 255
195 221 255
195 221 255
195 221 255
195 221 255
195 221 255
195 221 255
195 221 255
195 221 255
195 221 255
195 221 255
195 221 255
195 221 255
195 221 255
195 221 255
195 221 255
195 221 255
195 221 255
194 221 255
194 221 255
194 221 255
194 221 255
194 221 255
194 221 255
194 221 255
194 221 255
194 221 255
194 221 255
194 221 255
194 221 255
194 221 255
194 221 255
194 221 255
194 221 255
194 221 255
194 221 255
194 221 255
194 221 255
194 221 255
194 221 255
194 221 255
194 221 255
194 221 255
194 220 255
194 220 255
194 220 255
194 220 255
194 220 255
194 220 255
194 220 255
194 220 255
194 220 255
194 220 255
194 220 255
194 220 255
194 220 255
194 220 255
194 220 255
194 220 255
194 220 255
194 220 255
194 220 255
194 220 255
194 220 255
194 220 255
194 220 255
194 220 255
194 220 255
194 220 255
194 220 255
194 220 255
194 220 255
194 220 255
194 220 255
194 220 255
194 220 255
194 220 255
194 221 255
194 221 255
194 221 255
194 221 255
194 221 255
194 221 255
194 221 255
194 221 255
194 221 255
194 221 255
194 221 255
194 221 255
194 221 255
194 221 255
194 221 255
194 221 255
194 221 255
194 221 255
194 221 255
194 221 255
194 221 255
194 221 255
194 221 255
194 221 255
195 221 255
195 221 255
195 221 255
195 221 255
195 221 255
195 221 255
195 221 255
195 221 255
195 221 255
195 221 255
195 221 255
195 221 255
195 221 255
195 221 255
195 221 255
195 221 255
195 221 255
195 221 255
195 221 255
195 221 255
196 221 255
196 222 255
196 222 255
196 222 255
196 222 255
196 222 255
196 222 255
196 222 255
196 222 255
196 222 255
196 222 255
196 222 255
196 222 255
196 222 255
196 222 255
196 222 255
197 222 255
197 222 255
197 222 255
197 222 255
197 222 255
197 222 255
197 222 255
197 222 255
197 222 255
197 222 255
197 222 255
197 222 255
197 222 255
197 222 255
197 223 255
198 223 255
198 223 255
198 223 255
198 223 255
198 223 255
198 223 255
198 223 255
198 223 255
198 223 255
198 223 255
198 223 255
198 223 255
198 223 255
198 223 255
199 223 255
199 223 255
199 223 255
199 223 255
199 223 255
199 223 255
199 223 255
199 223 255
199 223 255
199 223 255
199 223 255
199 223 255
199 224 255
199 224 255
199 224 255
200 224 255
200 224 255
200 224 255
200 224 255
200 224 255
200 224 255
200 224 255
200 224 255
200 224 255
200 224 255
200 224 255
200 224 255
200 224 255
200 224 255
201 224 255
201 224 255
201 224 255
201 224 255
201 224 255
201 224 255
201 224 255
201 224 255
201 224 255
201 224 255
201 225 255
201 225 255
201 225 255
201 225 255
201 225 255
202 225 255
202 225 255
202 225 255
202 225 255
202 225 255
202 225 255
202 225 255
202 225 255
202 225 255
202 225 255
202 225 255
202 225 255
202 225 255
202 225 255
202 225 255
202 225 255
203 225 255
203 225 255
203 225 255
203 225 255
203 225 255
203 225 255
203 225 255
203 225 255
203 225 255
203 226 255
203 226 255
203 226 255
203 226 255
203 226 255
203 226 255
203 226 255
204 226 255
204 226 255
204 226 255
204 226 255
204 226 255
204 226 255
204 226 255
204 226 255
204 226 255
204 226 255
204 226 255
204 226 255
204 226 255
204 226 255
204 226 255
204 226 255
204 226 255
204 226 255
205 226 255
205 226 255
204 226 255
204 226 255
204 226 255
204 226 255
204 226 255
204 226 255
204 226 255
204 226 255
204 226 255
204 226 255
204 226 255
204 226 255
204 226 255
204 226 255
204 226 255
204 226 255
204 226 255
204 226 255
203 226 255
203 226 255
203 226 255
203 226 255
203 226 255
203 226 255
203 226 255
203 225 255
203 225 255
203 225 255
203 225 255
203 225 255
203 225 255
203 225 255
203 225 255
203 225 255
202 225 255
202 225 255
202 225 255
202 225 255
202 225 255
202 225 255
202 225 255
202 225 255
202 225 255
202 225 255
202 225 255
202 225 255
202 225 255
202 225 255
202 225 255
202 225 255
201 225 255
201 225 255
201 225 255
201 225 255
201 225 255
201 224 255
201 224 255
201 224 255
201 224 255
201 224 255
201 224 255
201 224 255
201 224 255
201 224 255
201 224 255
200 224 255
200 224 255
200 224 255
200 224 255
200 224 255
200 224 255
200 224 255
200 224 255
200 224 255
200 224 255
200 224 255
200 224 255
200 224 255
200 224 255
200 224 255
199 224 255
199 224 255
199 223 255
199 223 255
199 223 255
199 223 255
199 223 255
199 223 255
199 223 255
199 223 255
199 223 255
199 223 255
199 223 255
199 223 255
198 223 255
198 223 255
198 223 255
198 223 255
198 223 255
198 223 255
198 223 255
198 223 255
198 223 255
198 223 255
198 223 255
198 223 255
198 223 255
198 223 255
197 223 255
197 222 255
197 222 255
197 222 255
197 222 255
197 222 255
197 222 255
197 222 255
197 222 255
197 222 255
197 222 255
197 222 255
197 222 255
197 222 255
197 222 255
196 222 255
196 222 255
196 222 255
196 222 255
196 222 255
196 222 255
196 222 255
196 222 255
196 222 255
196 222 255
196 222 255
196 222 255
196 222 255
196 222 255
196 222 255
196 221 255
195 221 255
195 221 255
195 221 255
195 221 255
195 221 255
195 221 255
195 221 255
195 221 255
195 221 255
195 221 255
195 221 255
195 221 255
195 221 255
195 221 255
195 221 255
195 221 255
195 221 255
195 221 255
195 221 255
195 221 255
194 221 255
194 221 255
194 221 255
194 221 255
194 221 255
194 221 255
194 221 255
194 221 255
194 221 255
194 221 255
194 221 255
194 221 255
194 221 255
194 221 255
194 221 255
194 221 255
194 221 255
194 221 255
194 221 255
194 221 255
194 221 255
194 221 255
194 221 255
194 221 255
194 221 255
194 221 255
194 221 255
194 221 255
194 221 255
194 221 255
194 221 255
194 220 255
194 220 255
194 220 255
194 220 255
194 220 255
194 220 255
194 220 255
194 220 255
194 220 255
194 220 255
194 220 255
194 220 255
194 220 255
194 220 255
194 220 255
194 220 255
194 221 255
194 221 255
194 221 255
194 221 255
194 221 255
194 221 255
194 221 255
194 221 255
194 221 255
194 221 255
194 221 255
194 221 255
194 221 255
194 221 255
194 221 255
194 221 255
194 221 255
194 221 255
194 221 255
194 221 255
194 221 255
194 221 255
194 221 255
194 221 255
194 221 255
194 221 255
194 221 255
194 221 255
194 221 255
194 221 255
195 221 255
195 221 255
195 221 255
195 221 255
195 221 255
195 221 255
195 221 255
195 221 255
195 221 255
195 221 255
195 221 255
195 221 255
195 221 255
195 221 255
195 221 255
195 221 255
195 221 255
195 221 255
195 221 255
195 221 255
196 221 255
196 221 255
196 222 255
196 222 255
196 222 255
196 222 255
196 222 255
196 222 255
196 222 255
196 222 255
196 222 255
196 222 255
196 222 255
196 222 255
196 222 255
196 222 255
196 222 255
197 222 255
197 222 255
197 222 255
197 222 255
197 222 255
197 222 255
197 222 255
197 222 255
197 222 255
197 222 255
197 222 255
197 222 255
197 222 255
197 222 255
197 223 255
198 223 255
198 223 255
198 223 255
198 223 255
198 223 255
198 223 255
198 223 255
198 223 255
198 223 255
198 223 255
198 223 255
198 223 255
198 223 255
198 223 255
199 223 255
199 223 255
199 223 255
199 223 255
199 223 255
199 223 255
199 223 255
199 223 255
199 223 255
199 223 255
199 223 255
199 223 255
199 224 255
199 224 255
200 224 255
200 224 255
200 224 255
200 224 255
200 224 255
200 224 255
200 224 255
200 224 255
200 224 255
200 224 255
200 224 255
200 224 255
200 224 255
200 224 255
200 224 255
201 224 255
201 224 255
201 224 255
201 224 255
201 224 255
201 224 255
201 224 255
201 224 255
201 224 255
201 224 255
201 225 255
201 225 255
201 225 255
201 225 255
201 225 255
202 225 255
202 225 255
202 225 255
202 225 255
202 225 255
202 225 255
202 225 255
202 225 255
202 225 255
202 225 255
202 225 255
202 225 255
202 225 255
202 225 255
202 225 255
203 225 255
203 225 255
203 225 255
203 225 255
203 225 255
203 225 255
203 225 255
203 225 255
203 225 255
203 225 255
203 226 255
203 226 255
203 226 255
203 226 255
203 226 255
203 226 255
203 226 255
204 226 255
204 226 255
204 226 255
204 226 255
204 226 255
204 226 255
204 226 255
204 226 255
204 226 255
204 226 255
204 226 255
204 226 255
204 226 255
204 226 255
204 226 255
204 226 255
204 226 255
204 226 255
205 226 255
205 226 255
205 226 255
205 226 255
205 226 255
205 226 255
204 226 255
204 226 255
204 226 255
204 226 255
204 226 255
204 226 255
204 226 255
204 226 255
204 226 255
204 226 255
204 226 255
204 226 255
204 226 255
204 226 255
204 226 255
204 226 255
204 226 255
204 226 255
203 226 255
203 226 255
203 226 255
203 226 255
203 226 255
203 226 255
203 226 255
203 226 255
203 225 255
203 225 255
203 225 255
203 225 255
203 225 255
203 225 255
203 225 255
203 225 255
203 225 255
202 225 255
202 225 255
202 225 255
202 225 255
202 225 255
202 225 255
202 225 255
202 225 255
202 225 255
202 225 255
202 225 255
202 225 255
202 225 255
202 225 255
202 225 255
201 225 255
201 225 255
201 225 255
201 225 255
201 225 255
201 224 255
201 224 255
201 224 255
201 224 255
201 224 255
201 224 255
201 224 255
201 224 255
201 224 255
201 224 255
200 224 255
200 224 255
200 224 255
200 224 255
200 224 255
200 224 255
200 224 255
200 224 255
200 224 255
200 224 255
200 224 255
200 224 255
200 224 255
200 224 255
200 224 255
199 224 255
199 224 255
199 223 255
199 223 255
199 223 255
199 223 255
199 223 255
199 223 255
199 223 255
199 223 255
199 223 255
199 223 255
199 223 255
199 223 255
198 223 255
198 223 255
198 223 255
198 223 255
198 223 255
198 223 255
198 223 255
198 223 255
198 223 255
198 223 255
198 223 255
198 223 255
198 223 255
198 223 255
197 223 255
197 222 255
197 222 255
197 222 255
197 222 255
197 222 255
197 222 255
197 222 255
197 222 255
197 222 255
197 222 255
197 222 255
197 222 255
197 222 255
197 222 255
196 222 255
196 222 255
196 222 255
196 222 255
196 222 255
196 222 255
196 222 255
196 222 255
196 222 255
196 222 255
196 222 255
196 222 255
196 222 255
196 222 255
196 222 255
196 221 255
196 221 255
195 221 255
195 221 255
195 221 255
195 221 255
195 221 255
195 221 255
195 221 255
195 221 255
195 221 255
195 221 255
195 221 255
195 221 255
195 221 255
195 221 255
195 221 255
195 221 255
195 221 255
195 221 255
195 221 255
195 221 255
195 221 255
194 221 255
194 221 255
194 221 255
194 221 255
194 221 255
194 221 255
194 221 255
194 221 255
194 221 255
194 221 255
194 221 255
194 221 255
194 221 255
194 221 255
194 221 255
194 221 255
194 221 255
194 221 255
194 221 255
194 221 255
194 221 255
194 221 255
194 221 255
194 221 255
194 221 255
194 221 255
194 221 255
194 221 255
194 221 255
194 221 255
194 221 255
194 221 255
194 221 255
194 221 255
194 221 255
194 221 255
194 221 255
194 221 255
194 221 255
194 221 255
194 221 255
194 221 255
194 221 255
194 221 255
194 221 255
194 221 255
194 221 255
194 221 255
194 221 255
194 221 255
194 221 255
194 221 255
194 221 255
194 221 255
194 221 255
194 221 255
194 221 255
194 221 255
194 221 255
194 221 255
194 221 255
194 221 255
194 221 255
194 221 255
194 221 255
194 221 255
194 221 255
194 221 255
194 221 255
194 221 255
195 221 255
195 221 255
195 221 255
195 221 255
195 221 255
195 221 255
195 221 255
195 221 255
195 221 255
195 221 255
195 221 255
195 221 255
195 221 255
195 221 255
195 221 255
195 221 255
195 221 255
195 221 255
195 221 255
195 221 255
195 221 255
196 221 255
196 221 255
196 222 255
196 222 255
196 222 255
196 222 255
196 222 255
196 222 255
196 222 255
196 222 255
196 222 255
196 222 255
196 222 255
196 222 255
196 222 255
196 222 255
196 222 255
197 222 255
197 222 255
197 222 255
197 222 255
197 222 255
197 222 255
197 222 255
197 222 255
197 222 255
197 222 255
197 222 255
197 222 255
197 222 255
197 222 255
197 223 255
198 223 255
198 223 255
198 223 255
198 223 255
198 223 255
198 223 255
198 223 255
198 223 255
198 223 255
198 223 255
198 223 255
198 223 255
198 223 255
198 223 255
199 223 255
199 223 255
199 223 255
199 223 255
199 223 255
199 223 255
199 223 255
199 223 255
199 223 255
199 223 255
199 223 255
199 223 255
199 224 255
199 224 255
200 224 255
200 224 255
200 224 255
200 224 255
200 224 255
200 224 255
200 224 255
200 224 255
200 224 255
200 224 255
200 224 255
200 224 255
200 224 255
200 224 255
200 224 255
201 224 255
201 224 255
201 224 255
201 224 255
201 224 255
201 224 255
201 224 255
201 224 255
201 224 255
201 224 255
201 225 255
201 225 255
201 225 255
201 225 255
201 225 255
202 225 255
202 225 255
202 225 255
202 225 255
202 225 255
202 225 255
202 225 255
202 225 255
202 225 255
202 225 255
202 225 255
202 225 255
202 225 255
202 225 255
202 225 255
203 225 255
203 225 255
203 225 255
203 225 255
203 225 255
203 225 255
203 225 255
203 225 255
203 225 255
203 226 255
203 226 255
203 226 255
203 226 255
203 226 255
203 226 255
203 226 255
203 226 255
204 226 255
204 226 255
204 226 255
204 226 255
204 226 255
204 226 255
204 226 255
204 226 255
204 226 255
204 226 255
204 226 255
204 226 255
204 226 255
204 226 255
204 226 255
204 226 255
204 226 255
204 226 255
205 226 255
205 226 255
205 226 255
205 226 255
205 226 255
205 226 255
205 226 255
205 226 255
205 226 255
205 226 255
205 226 255
204 226 255
204 226 255
204 226 255
204 226 255
204 226 255
204 226 255
204 226 255
204 226 255
204 226 255
204 226 255
204 226 255
204 226 255
204 226 255
204 226 255
204 226 255
204 226 255
204 226 255
204 226 255
203 226 255
203 226 255
203 226 255
203 226 255
203 226 255
203 226 255
203 226 255
203 225 255
203 225 255
203 225 255
203 225 255
203 225 255
203 225 255
203 225 255
203 225 255
203 225 255
202 225 255
202 225 255
202 225 255
202 225 255
202 225 255
202 225 255
202 225 255
202 225 255
202 225 255
202 225 255
202 225 255
202 225 255
202 225 255
202 225 255
202 225 255
201 225 255
201 225 255
201 225 255
201 225 255
201 225 255
201 224 255
201 224 255
201 224 255
201 224 255
201 224 255
201 224 255
201 224 255
201 224 255
201 224 255
201 224 255
200 224 255
200 224 255
200 224 255
200 224 255
200 224 255
200 224 255
200 224 255
200 224 255
200 224 255
200 224 255
200 224 255
200 224 255
200 224 255
200 224 255
200 224 255
199 224 255
199 224 255
199 223 255
199 223 255
199 223 255
199 223 255
199 223 255
199 223 255
199 223 255
199 223 255
199 223 255
199 223 255
199 223 255
199 223 255
198 223 255
198 223 255
198 223 255
198 223 255
198 223 255
198 223 255
198 223 255
198 223 255
198 223 255
198 223 255
198 223 255
198 223 255
198 223 255
198 223 255
197 223 255
197 222 255
197 222 255
197 222 255
197 222 255
197 222 255
197 222 255
197 222 255
197 222 255
197 222 255
197 222 255
197 222 255
197 222 255
197 222 255
197 222 255
197 222 255
196 222 255
196 222 255
196 222 255
196 222 255
196 222 255
196 222 255
196 222 255
196 222 255
196 222 255
196 222 255
196 222 255
196 222 255
196 222 255
196 222 255
196 222 255
196 221 255
196 221 255
195 221 255
195 221 255
195 221 255
195 221 255
195 221 255
195 221 255
195 221 255
195 221 255
195 221 255
195 221 255
195 221 255
195 221 255
195 221 255
195 221 255
195 221 255
195 221 255
195 221 255
195 221 255
195 221 255
195 221 255
195 221 255
195 221 255
194 221 255
194 221 255
194 221 255
194 221 255
194 221 255
194 221 255
194 221 255
194 221 255
194 221 255
194 221 255
194 221 255
194 221 255
194 221 255
194 221 255
194 221 255
194 221 255
194 221 255
194 221 255
194 221 255
194 221 255
194 221 255
194 221 255
194 221 255
194 221 255
194 221 255
194 221 255
194 221 255
194 221 255
194 221 255
194 221 255
194 221 255
194 221 255
194 221 255
194 221 255
194 221 255
194 221 255
194 221 255
194 221 255
194 221 255
194 221 255
194 221 255
194 221 255
194 221 255
194 221 255
194 221 255
194 221 255
194 221 255
194 221 255
194 221 255
194 221 255
194 221 255
194 221 255
194 221 255
194 221 255
194 221 255
194 221 255
194 221 255
194 221 255
194 221 255
194 221 255
194 221 255
194 221 255
195 221 255
195 221 255
195 221 255
195 221 255
195 221 255
195 221 255
195 221 255
195 221 255
195 221 255
195 221 255
195 221 255
195 221 255
195 221 255
195 221 255
195 221 255
195 221 255
195 221 255
195 221 255
195 221 255
195 221 255
195 221 255
195 221 255
196 221 255
196 221 255
196 222 255
196 222 255
196 222 255
196 222 255
196 222 255
196 222 255
196 222 255
196 222 255
196 222 255
196 222 255
196 222 255
196 222 255
196 222 255
196 222 255
196 222 255
197 222 255
197 222 255
197 222 255
197 222 255
197 222 255
197 222 255
197 222 255
197 222 255
197 222 255
197 222 255
197 222 255
197 222 255
197 222 255
197 222 255
197 222 255
198 223 255
198 223 255
198 223 255
198 223 255
198 223 255
198 223 255
198 223 255
198 223 255
198 223 255
198 223 255
198 223 255
198 223 255
198 223 255
198 223 255
198 223 255
199 223 255
199 223 255
199 223 255
199 223 255
199 223 255
199 223 255
199 223 255
199 223 255
199 223 255
199 223 255
199 223 255
199 223 255
199 224 255
199 224 255
200 224 255
200 224 255
200 224 255
200 224 255
200 224 255
200 224 255
200 224 255
200 224 255
200 224 255
200 224 255
200 224 255
200 224 255
200 224 255
200 224 255
200 224 255
201 224 255
201 224 255
201 224 255
201 224 255
201 224 255
201 224 255
201 224 255
201 224 255
201 224 255
201 224 255
201 225 255
201 225 255
201 225 255
201 225 255
201 225 255
202 225 255
202 225 255
202 225 255
202 225 255
202 225 255
202 225 255
202 225 255
202 225 255
202 225 255
202 225 255
202 225 255
202 225 255
202 225 255
202 225 255
202 225 255
203 225 255
203 225 255
203 225 255
203 225 255
203 225 255
203 225 255
203 225 255
203 225 255
203 225 255
203 226 255
203 226 255
203 226 255
203 226 255
203 226 255
203 226 255
203 226 255
203 226 255
204 226 255
204 226 255
204 226 255
204 226 255
204 226 255
204 226 255
204 226 255
204 226 255
204 226 255
204 226 255
204 226 255
204 226 255
204 226 255
204 226 255
204 226 255
204 226 255
204 226 255
205 226 255
205 226 255
205 226 255
205 226 255
205 226 255
205 226 255
205 226 255
205 227 255
205 227 255
205 226 255
205 226 255
205 226 255
205 226 255
205 226 255
205 226 255
205 226 255
204 226 255
204 226 255
204 226 255
204 226 255
204 226 255
204 226 255
204 226 255
204 226 255
204 226 255
204 226 255
204 226 255
204 226 255
204 226 255
204 226 255
204 226 255
204 226 255
204 226 255
204 226 255
203 226 255
203 226 255
203 226 255
203 226 255
203 226 255
203 226 255
203 226 255
203 225 255
203 225 255
203 225 255
203 225 255
203 225 255
203 225 255
203 225 255
203 225 255
203 225 255
202 225 255
202 225 255
202 225 255
202 225 255
202 225 255
202 225 255
202 225 255
202 225 255
202 225 255
202 225 255
202 225 255
202 225 255
202 225 255
202 225 255
202 225 255
201 225 255
201 225 255
201 225 255
201 225 255
201 225 255
201 224 255
201 224 255
201 224 255
201 224 255
201 224 255
201 224 255
201 224 255
201 224 255
201 224 255
201 224 255
200 224 255
200 224 255
200 224 255
200 224 255
200 224 255
200 224 255
200 224 255
200 224 255
200 224 255
200 224 255
200 224 255
200 224 255
200 224 255
200 224 255
200 224 255
199 224 255
199 224 255
199 223 255
199 223 255
199 223 255
199 223 255
199 223 255
199 223 255
199 223 255
199 223 255
199 223 255
199 223 255
199 223 255
199 223 255
198 223 255
198 223 255
198 223 255
198 223 255
198 223 255
198 223 255
198 223 255
198 223 255
198 223 255
198 223 255
198 223 255
198 223 255
198 223 255
198 223 255
198 223 255
197 222 255
197 222 255
197 222 255
197 222 255
197 222 255
197 222 255
197 222 255
197 222 255
197 222 255
197 222 255
197 222 255
197 222 255
197 222 255
197 222 255
197 222 255
196 222 255
196 222 255
196 222 255
196 222 255
196 222 255
196 222 255
196 222 255
196 222 255
196 222 255
196 222 255
196 222 255
196 222 255
196 222 255
196 222 255
196 222 255
196 222 255
196 221 255
195 221 255
195 221 255
195 221 255
195 221 255
195 221 255
195 221 255
195 221 255
195 221 255
195 221 255
195 221 255
195 221 255
195 221 255
195 221 255
195 221 255
195 221 255
195 221 255
195 221 255
195 221 255
195 221 255
195 221 255
195 221 255
195 221 255
195 221 255
195 221 255
194 221 255
194 221 255
194 221 255
194 221 255
194 221 255
194 221 255
194 221 255
194 221 255
194 221 255
194 221 255
194 221 255
194 221 255
194 221 255
194 221 255
194 221 255
194 221 255
194 221 255
194 221 255
194 221 255
194 221 255
194 221 255
194 221 255
194 221 255
194 221 255
194 221 255
194 221 255
194 221 255
194 221 255
194 221 255
194 221 255
194 221 255
194 221 255
194 221 255
194 221 255
194 221 255
194 221 255
194 221 255
194 221 255
194 221 255
194 221 255
194 221 255
194 221 255
194 221 255
194 221 255
194 221 255
194 221 255
194 221 255
194 221 255
194 221 255
194 221 255
194 221 255
194 221 255
194 221 255
194 221 255
195 221 255
195 221 255
195 221 255
195 221 255
195 221 255
195 221 255
195 221 255
195 221 255
195 221 255
195 221 255
195 221 255
195 221 255
195 221 255
195 221 255
195 221 255
195 221 255
195 221 255
195 221 255
195 221 255
195 221 255
195 221 255
195 221 255
195 221 255
196 221 255
196 221 255
196 222 255
196 222 255
196 222 255
196 222 255
196 222 255
196 222 255
196 222 255
196 222 255
196 222 255
196 222 255
196 222 255
196 222 255
196 222 255
196 222 255
196 222 255
196 222 255
197 222 255
197 222 255
197 222 255
197 222 255
197 222 255
197 222 255
197 222 255
197 222 255
197 222 255
197 222 255
197 222 255
197 222 255
197 222 255
197 222 255
197 222 255
198 223 255
198 223 255
198 223 255
198 223 255
198 223 255
198 223 255
198 223 255
198 223 255
198 223 255
198 223 255
198 223 255
198 223 255
198 223 255
198 223 255
198 223 255
199 223 255
199 223 255
199 223 255
199 223 255
199 223 255
199 223 255
199 223 255
199 223 255
199 223 255
199 223 255
199 223 255
199 223 255
199 224 255
199 224 255
200 224 255
200 224 255
200 224 255
200 224 255
200 224 255
200 224 255
200 224 255
200 224 255
200 224 255
200 224 255
200 224 255
200 224 255
200 224 255
200 224 255
201 224 255
201 224 255
201 224 255
201 224 255
201 224 255
201 224 255
201 224 255
201 224 255
201 224 255
201 224 255
201 224 255
201 225 255
201 225 255
201 225 255
201 225 255
202 225 255
202 225 255
202 225 255
202 225 255
202 225 255
202 225 255
202 225 255
202 225 255
202 225 255
202 225 255
202 225 255
202 225 255
202 225 255
202 225 255
202 225 255
202 225 255
203 225 255
203 225 255
203 225 255
203 225 255
203 225 255
203 225 255
203 225 255
203 225 255
203 225 255
203 226 255
203 226 255
203 226 255
203 226 255
203 226 255
203 226 255
203 226 255
204 226 255
204 226 255
204 226 255
204 226 255
204 226 255
204 226 255
204 226 255
204 226 255
204 226 255
204 226 255
204 226 255
204 226 255
204 226 255
204 226 255
204 226 255
204 226 255
204 226 255
204 226 255
205 226 255
205 226 255
205 226 255
205 226 255
205 226 255
205 226 255
205 226 255
205 227 255
205 227 255
205 227 255
205 227 255
205 227 255
205 227 255
205 226 255
205 226 255
205 226 255
205 226 255
205 226 255
205 226 255
205 226 255
205 226 255
204 226 255
204 226 255
204 226 255
204 226 255
204 226 255
204 226 255
204 226 255
204 226 255
204 226 255
204 226 255
204 226 255
204 226 255
204 226 255
204 226 255
204 226 255
204 226 255
204 226 255
203 226 255
203 226 255
203 226 255
203 226 255
203 226 255
203 226 255
203 226 255
203 225 255
203 225 255
203 225 255
203 225 255
203 225 255
203 225 255
203 225 255
203 225 255
203 225 255
202 225 255
202 225 255
202 225 255
202 225 255
202 225 255
202 225 255
202 225 255
202 225 255
202 225 255
202 225 255
202 225 255
202 225 255
202 225 255
202 225 255
202 225 255
202 225 255
201 225 255
201 225 255
201 225 255
201 225 255
201 224 255
201 224 255
201 224 255
201 224 255
201 224 255
201 224 255
201 224 255
201 224 255
201 224 255
201 224 255
201 224 255
200 224 255
200 224 255
200 224 255
200 224 255
200 224 255
200 224 255
200 224 255
200 224 255
200 224 255
200 224 255
200 224 255
200 224 255
200 224 255
200 224 255
199 224 255
199 224 255
199 223 255
199 223 255
199 223 255
199 223 255
199 223 255
199 223 255
199 223 255
199 223 255
199 223 255
199 223 255
199 223 255
199 223 255
198 223 255
198 223 255
198 223 255
198 223 255
198 223 255
198 223 255
198 223 255
198 223 255
198 223 255
198 223 255
198 223 255
198 223 255
198 223 255
198 223 255
198 223 255
197 222 255
197 222 255
197 222 255
197 222 255
197 222 255
197 222 255
197 222 255
197 222 255
197 222 255
197 222 255
197 222 255
197 222 255
197 222 255
197 222 255
197 222 255
196 222 255
196 222 255
196 222 255
196 222 255
196 222 255
196 222 255
196 222 255
196 222 255
196 222 255
196 222 255
196 222 255
196 222 255
196 222 255
196 222 255
196 222 255
196 222 255
196 221 255
196 221 255
195 221 255
195 221 255
195 221 255
195 221 255
195 221 255
195 221 255
195 221 255
195 221 255
195 221 255
195 221 255
195 221 255
195 221 255
195 221 255
195 221 255
195 221 255
195 221 255
195 221 255
195 221 255
195 221 255
195 221 255
195 221 255
195 221 255
195 221 255
195 221 255
195 221 255
195 221 255
194 221 255
194 221 255
194 221 255
194 221 255
194 221 255
194 221 255
194 221 255
194 221 255
194 221 255
194 221 255
194 221 255
194 221 255
194 221 255
194 221 255
194 221 255
194 221 255
194 221 255
194 221 255
194 221 255
194 221 255
194 221 255
194 221 255
194 221 255
194 221 255
194 221 255
194 221 255
194 221 255
194 221 255
194 221 255
194 221 255
194 221 255
194 221 255
194 221 255
194 221 255
194 221 255
194 221 255
194 221 255
194 221 255
194 221 255
194 221 255
194 221 255
194 221 255
194 221 255
194 221 255
195 221 255
195 221 255
195 221 255
195 221 255
195 221 255
195 221 255
195 221 255
195 221 255
195 221 255
195 221 255
195 221 255
195 221 255
195 221 255
195 221 255
195 221 255
195 221 255
195 221 255
195 221 255
195 221 255
195 221 255
195 221 255
195 221 255
195 221 255
195 221 255
195 221 255
195 221 255
196 221 255
196 222 255
196 222 255
196 222 255
196 222 255
196 222 255
196 222 255
196 222 255
196 222 255
196 222 255
196 222 255
196 222 255
196 222 255
196 222 255
196 222 255
196 222 255
196 222 255
196 222 255
197 222 255
197 222 255
197 222 255
197 222 255
197 222 255
197 222 255
197 222 255
197 222 255
197 222 255
197 222 255
197 222 255
197 222 255
197 222 255
197 222 255
197 222 255
198 223 255
198 223 255
198 223 255
198 223 255
198 223 255
198 223 255
198 223 255
198 223 255
198 223 255
198 223 255
198 223 255
198 223 255
198 223 255
198 223 255
198 223 255
199 223 255
199 223 255
199 223 255
199 223 255
199 223 255
199 223 255
199 223 255
199 223 255
199 223 255
199 223 255
199 223 255
199 223 255
199 224 255
199 224 255
200 224 255
200 224 255
200 224 255
200 224 255
200 224 255
200 224 255
200 224 255
200 224 255
200 224 255
200 224 255
200 224 255
200 224 255
200 224 255
200 224 255
200 224 255
201 224 255
201 224 255
201 224 255
201 224 255
201 224 255
201 224 255
201 224 255
201 224 255
201 224 255
201 224 255
201 225 255
201 225 255
201 225 255
201 225 255
202 225 255
202 225 255
202 225 255
202 225 255
202 225 255
202 225 255
202 225 255
202 225 255
202 225 255
202 225 255
202 225 255
202 225 255
202 225 255
202 225 255
202 225 255
202 225 255
203 225 255
203 225 255
203 225 255
203 225 255
203 225 255
203 225 255
203 225 255
203 225 255
203 225 255
203 226 255
203 226 255
203 226 255
203 226 255
203 226 255
203 226 255
203 226 255
204 226 255
204 226 255
204 226 255
204 226 255
204 226 255
204 226 255
204 226 255
204 226 255
204 226 255
204 226 255
204 226 255
204 226 255
204 226 255
204 226 255
204 226 255
204 226 255
204 226 255
205 226 255
205 226 255
205 226 255
205 226 255
205 226 255
205 226 255
205 226 255
205 226 255
205 227 255
205 227 255
205 227 255
205 227 255
205 227 255
205 227 255
205 227 255
205 227 255
205 227 255
205 227 255
205 227 255
205 226 255
205 226 255
205 226 255
205 226 255
205 226 255
205 226 255
205 226 255
204 226 255
204 226 255
204 226 255
204 226 255
204 226 255
204 226 255
204 226 255
204 226 255
204 226 255
204 226 255
204 226 255
204 226 255
204 226 255
204 226 255
204 226 255
204 226 255
204 226 255
203 226 255
203 226 255
203 226 255
203 226 255
203 226 255
203 226 255
203 226 255
203 226 255
203 225 255
203 225 255
203 225 255
203 225 255
203 225 255
203 225 255
203 225 255
203 225 255
203 225 255
202 225 255
202 225 255
202 225 255
202 225 255
202 225 255
202 225 255
202 225 255
202 225 255
202 225 255
202 225 255
202 225 255
202 225 255
202 225 255
202 225 255
202 225 255
201 225 255
201 225 255
201 225 255
201 225 255
201 224 255
201 224 255
201 224 255
201 224 255
201 224 255
201 224 255
201 224 255
201 224 255
201 224 255
201 224 255
201 224 255
200 224 255
200 224 255
200 224 255
200 224 255
200 224 255
200 224 255
200 224 255
200 224 255
200 224 255
200 224 255
200 224 255
200 224 255
200 224 255
200 224 255
199 224 255
199 224 255
199 223 255
199 223 255
199 223 255
199 223 255
199 223 255
199 223 255
199 223 255
199 223 255
199 223 255
199 223 255
199 223 255
199 223 255
199 223 255
198 223 255
198 223 255
198 223 255
198 223 255
198 223 255
198 223 255
198 223 255
198 223 255
198 223 255
198 223 255
198 223 255
198 223 255
198 223 255
198 223 255
197 223 255
197 222 255
197 222 255
197 222 255
197 222 255
197 222 255
197 222 255
197 222 255
197 222 255
197 222 255
197 222 255
197 222 255
197 222 255
197 222 255
197 222 255
197 222 255
196 222 255
196 222 255
196 222 255
196 222 255
196 222 255
196 222 255
196 222 255
196 222 255
196 222 255
196 222 255
196 222 255
196 222 255
196 222 255
196 222 255
196 222 255
196 222 255
196 222 255
196 221 255
195 221 255
195 221 255
195 221 255
195 221 255
195 221 255
195 221 255
195 221 255
195 221 255
195 221 255
195 221 255
195 221 255
195 221 255
195 221 255
195 221 255
195 221 255
195 221 255
195 221 255
195 221 255
195 221 255
195 221 255
195 221 255
195 221 255
195 221 255
195 221 255
195 221 255
195 221 255
195 221 255
195 221 255
195 221 255
195 221 255
194 221 255
194 221 255
194 221 255
194 221 255
194 221 255
194 221 255
194 221 255
194 221 255
194 221 255
194 221 255
194 221 255
194 221 255
194 221 255
194 221 255
194 221 255
194 221 255
194 221 255
194 221 255
194 221 255
194 221 255
194 221 255
194 221 255
194 221 255
194 221 255
194 221 255
194 221 255
194 221 255
194 221 255
194 221 255
194 221 255
195 221 255
195 221 255
195 221 255
195 221 255
195 221 255
195 221 255
195 221 255
195 221 255
195 221 255
195 221 255
195 221 255
195 221 255
195 221 255
195 221 255
195 221 255
195 221 255
195 221 255
195 221 255
195 221 255
195 221 255
195 221 255
195 221 255
195 221 255
195 221 255
195 221 255
195 221 255
195 221 255
195 221 255
195 221 255
195 221 255
196 221 255
196 222 255
196 222 255
196 222 255
196 222 255
196 222 255
196 222 255
196 222 255
196 222 255
196 222 255
196 222 255
196 222 255
196 222 255
196 222 255
196 222 255
196 222 255
196 222 255
196 222 255
197 222 255
197 222 255
197 222 255
197 222 255
197 222 255
197 222 255
197 222 255
197 222 255
197 222 255
197 222 255
197 222 255
197 222 255
197 222 255
197 222 255
197 222 255
197 222 255
198 223 255
198 223 255
198 223 255
198 223 255
198 223 255
198 223 255
198 223 255
198 223 255
198 223 255
198 223 255
198 223 255
198 223 255
198 223 255
198 223 255
198 223 255
199 223 255
199 223 255
199 223 255
199 223 255
199 223 255
199 223 255
199 223 255
199 223 255
199 223 255
199 223 255
199 223 255
199 223 255
199 224 255
199 224 255
200 224 255
200 224 255
200 224 255
200 224 255
200 224 255
200 224 255
200 224 255
200 224 255
200 224 255
200 224 255
200 224 255
200 224 255
200 224 255
200 224 255
201 224 255
201 224 255
201 224 255
201 224 255
201 224 255
201 224 255
201 224 255
201 224 255
201 224 255
201 224 255
201 224 255
201 225 255
201 225 255
201 225 255
201 225 255
202 225 255
202 225 255
202 225 255
202 225 255
202 225 255
202 225 255
202 225 255
202 225 255
202 225 255
202 225 255
202 225 255
202 225 255
202 225 255
202 225 255
202 225 255
203 225 255
203 225 255
203 225 255
203 225 255
203 225 255
203 225 255
203 225 255
203 225 255
203 225 255
203 226 255
203 226 255
203 226 255
203 226 255
203 226 255
203 226 255
203 226 255
203 226 255
204 226 255
204 226 255
204 226 255
204 226 255
204 226 255
204 226 255
204 226 255
204 226 255
204 226 255
204 226 255
204 226 255
204 226 255
204 226 255
204 226 255
204 226 255
204 226 255
204 226 255
205 226 255
205 226 255
205 226 255
205 226 255
205 226 255
205 226 255
205 226 255
205 227 255
205 227 255
205 227 255
205 227 255
205 227 255
205 227 255
205 227 255
205 227 255
205 227 255
205 227 255
205 227 255
205 227 255
205 227 255
205 227 255
205 227 255
205 227 255
205 226 255
205 226 255
205 226 255
205 226 255
205 226 255
205 226 255
205 226 255
204 226 255
204 226 255
204 226 255
204 226 255
204 226 255
204 226 255
204 226 255
204 226 255
204 226 255
204 226 255
204 226 255
204 226 255
204 226 255
204 226 255
204 226 255
204 226 255
204 226 255
204 226 255
203 226 255
203 226 255
203 226 255
203 226 255
203 226 255
203 226 255
203 226 255
203 225 255
203 225 255
203 225 255
203 225 255
203 225 255
203 225 255
203 225 255
203 225 255
203 225 255
202 225 255
202 225 255
202 225 255
202 225 255
202 225 255
202 225 255
202 225 255
202 225 255
202 225 255
202 225 255
202 225 255
202 225 255
202 225 255
202 225 255
202 225 255
201 225 255
201 225 255
201 225 255
201 225 255
201 225 255
201 224 255
201 224 255
201 224 255
201 224 255
201 224 255
201 224 255
201 224 255
201 224 255
201 224 255
201 224 255
200 224 255
200 224 255
200 224 255
200 224 255
200 224 255
200 224 255
200 224 255
200 224 255
200 224 255
200 224 255
200 224 255
200 224 255
200 224 255
200 224 255
199 224 255
199 224 255
199 224 255
199 223 255
199 223 255
199 223 255
199 223 255
199 223 255
199 223 255
199 223 255
199 223 255
199 223 255
199 223 255
199 223 255
199 223 255
198 223 255
198 223 255
198 223 255
198 223 255
198 223 255
198 223 255
198 223 255
198 223 255
198 223 255
198 223 255
198 223 255
198 223 255
198 223 255
198 223 255
197 223 255
197 222 255
197 222 255
197 222 255
197 222 255
197 222 255
197 222 255
197 222 255
197 222 255
197 222 255
197 222 255
197 222 255
197 222 255
197 222 255
197 222 255
197 222 255
196 222 255
196 222 255
196 222 255
196 222 255
196 222 255
196 222 255
196 222 255
196 222 255
196 222 255
196 222 255
196 222 255
196 222 255
196 222 255
196 222 255
196 222 255
196 222 255
196 222 255
196 222 255
196 221 255
195 221 255
195 221 255
195 221 255
195 221 255
195 221 255
195 221 255
195 221 255
195 221 255
195 221 255
195 221 255
195 221 255
195 221 255
195 221 255
195 221 255
195 221 255
195 221 255
195 221 255
195 221 255
195 221 255
195 221 255
195 221 255
195 221 255
195 221 255
195 221 255
195 221 255
195 221 255
195 221 255
195 221 255
195 221 255
195 221 255
195 221 255
195 221 255
195 221 255
195 221 255
195 221 255
195 221 255
195 221 255
195 221 255
195 221 255
195 221 255
195 221 255
195 221 255
195 221 255
195 221 255
195 221 255
195 221 255
195 221 255
195 221 255
195 221 255
195 221 255
195 221 255
195 221 255
195 221 255
195 221 255
195 221 255
195 221 255
195 221 255
195 221 255
195 221 255
195 221 255
195 221 255
195 221 255
195 221 255
195 221 255
195 221 255
195 221 255
195 221 255
195 221 255
195 221 255
195 221 255
195 221 255
195 221 255
195 221 255
195 221 255
195 221 255
195 221 255
195 221 255
195 221 255
195 221 255
195 221 255
195 221 255
195 221 255
195 221 255
195 221 255
196 221 255
196 222 255
196 222 255
196 222 255
196 222 255
196 222 255
196 222 255
196 222 255
196 222 255
196 222 255
196 222 255
196 222 255
196 222 255
196 222 255
196 222 255
196 222 255
196 222 255
196 222 255
197 222 255
197 222 255
197 222 255
197 222 255
197 222 255
197 222 255
197 222 255
197 222 255
197 222 255
197 222 255
197 222 255
197 222 255
197 222 255
197 222 255
197 222 255
197 222 255
197 223 255
198 223 255
198 223 255
198 223 255
198 223 255
198 223 255
198 223 255
198 223 255
198 223 255
198 223 255
198 223 255
198 223 255
198 223 255
198 223 255
198 223 255
199 223 255
199 223 255
199 223 255
199 223 255
199 223 255
199 223 255
199 223 255
199 223 255
199 223 255
199 223 255
199 223 255
199 223 255
199 224 255
199 224 255
199 224 255
200 224 255
200 224 255
200 224 255
200 224 255
200 224 255
200 224 255
200 224 255
200 224 255
200 224 255
200 224 255
200 224 255
200 224 255
200 224 255
200 224 255
201 224 255
201 224 255
201 224 255
201 224 255
201 224 255
201 224 255
201 224 255
201 224 255
201 224 255
201 224 255
201 225 255
201 225 255
201 225 255
201 225 255
201 225 255
202 225 255
202 225 255
202 225 255
202 225 255
202 225 255
202 225 255
202 225 255
202 225 255
202 225 255
202 225 255
202 225 255
202 225 255
202 225 255
202 225 255
202 225 255
203 225 255
203 225 255
203 225 255
203 225 255
203 225 255
203 225 255
203 225 255
203 225 255
203 225 255
203 226 255
203 226 255
203 226 255
203 226 255
203 226 255
203 226 255
203 226 255
204 226 255
204 226 255
204 226 255
204 226 255
204 226 255
204 226 255
204 226 255
204 226 255
204 226 255
204 226 255
204 226 255
204 226 255
204 226 255
204 226 255
204 226 255
204 226 255
204 226 255
204 226 255
205 226 255
205 226 255
205 226 255
205 226 255
205 226 255
205 226 255
205 226 255
205 227 255
205 227 255
205 227 255
205 227 255
205 227 255
205 227 255
205 227 255
205 227 255
205 227 255
205 227 255
205 227 255
205 227 255
205 227 255
205 227 255
205 227 255
205 227 255
205 227 255
205 227 255
205 227 255
205 227 255
205 227 255
205 226 255
205 226 255
205 226 255
205 226 255
205 226 255
205 226 255
205 226 255
204 226 255
204 226 255
204 226 255
204 226 255
204 226 255
204 226 255
204 226 255
204 226 255
204 226 255
204 226 255
204 226 255
204 226 255
204 226 255
204 226 255
204 226 255
204 226 255
204 226 255
203 226 255
203 226 255
203 226 255
203 226 255
203 226 255
203 226 255
203 226 255
203 225 255
203 225 255
203 225 255
203 225 255
203 225 255
203 225 255
203 225 255
203 225 255
203 225 255
202 225 255
202 225 255
202 225 255
202 225 255
202 225 255
202 225 255
202 225 255
202 225 255
202 225 255
202 225 255
202 225 255
202 225 255
202 225 255
202 225 255
202 225 255
201 225 255
201 225 255
201 225 255
201 225 255
201 225 255
201 224 255
201 224 255
201 224 255
201 224 255
201 224 255
201 224 255
201 224 255
201 224 255
201 224 255
201 224 255
200 224 255
200 224 255
200 224 255
200 224 255
200 224 255
200 224 255
200 224 255
200 224 255
200 224 255
200 224 255
200 224 255
200 224 255
200 224 255
200 224 255
199 224 255
199 224 255
199 224 255
199 223 255
199 223 255
199 223 255
199 223 255
199 223 255
199 223 255
199 223 255
199 223 255
199 223 255
199 223 255
199 223 255
199 223 255
198 223 255
198 223 255
198 223 255
198 223 255
198 223 255
198 223 255
198 223 255
198 223 255
198 223 255
198 223 255
198 223 255
198 223 255
198 223 255
198 223 255
198 223 255
197 222 255
197 222 255
197 222 255
197 222 255
197 222 255
197 222 255
197 222 255
197 222 255
197 222 255
197 222 255
197 222 255
197 222 255
197 222 255
197 222 255
197 222 255
197 222 255
196 222 255
196 222 255
196 222 255
196 222 255
196 222 255
196 222 255
196 222 255
196 222 255
196 222 255
196 222 255
196 222 255
196 222 255
196 222 255
196 222 255
196 222 255
196 222 255
196 222 255
196 222 255
196 221 255
196 221 255
195 221 255
195 221 255
195 221 255
195 221 255
195 221 255
195 221 255
195 221 255
195 221 255
195 221 255
195 221 255
195 221 255
195 221 255
195 221 255
195 221 255
195 221 255
195 221 255
195 221 255
195 221 255
195 221 255
195 221 255
195 221 255
195 221 255
195 221 255
195 221 255
195 221 255
195 221 255
195 221 255
195 221 255
195 221 255
195 221 255
195 221 255
195 221 255
195 221 255
195 221 255
195 221 255
195 221 255
195 221 255
195 221 255
195 221 255
195 221 255
195 221 255
195 221 255
195 221 255
195 221 255
195 221 255
195 221 255
195 221 255
195 221 255
195 221 255
195 221 255
195 221 255
195 221 255
195 221 255
195 221 255
195 221 255
195 221 255
195 221 255
195 221 255
195 221 255
195 221 255
195 221 255
195 221 255
195 221 255
195 221 255
195 221 255
195 221 255
195 221 255
195 221 255
195 221 255
195 221 255
195 221 255
195 221 255
195 221 255
195 221 255
195 221 255
195 221 255
196 221 255
196 221 255
196 222 255
196 222 255
196 222 255
196 222 255
196 222 255
196 222 255
196 222 255
196 222 255
196 222 255
196 222 255
196 222 255
196 222 255
196 222 255
196 222 255
196 222 255
196 222 255
196 222 255
196 222 255
197 222 255
197 222 255
197 222 255
197 222 255
197 222 255
197 222 255
197 222 255
197 222 255
197 222 255
197 222 255
197 222 255
197 222 255
197 222 255
197 222 255
197 222 255
197 222 255
198 223 255
198 223 255
198 223 255
198 223 255
198 223 255
198 223 255
198 223 255
198 223 255
198 223 255
198 223 255
198 223 255
198 223 255
198 223 255
198 223 255
198 223 255
199 223 255
199 223 255
199 223 255
199 223 255
199 223 255
199 223 255
199 223 255
199 223 255
199 223 255
199 223 255
199 223 255
199 223 255
199 224 255
199 224 255
199 224 255
200 224 255
200 224 255
200 224 255
200 224 255
200 224 255
200 224 255
200 224 255
200 224 255
200 224 255
200 224 255
200 224 255
200 224 255
200 224 255
200 224 255
201 224 255
201 224 255
201 224 255
201 224 255
201 224 255
201 224 255
201 224 255
201 224 255
201 224 255
201 224 255
201 225 255
201 225 255
201 225 255
201 225 255
201 225 255
202 225 255
202 225 255
202 225 255
202 225 255
202 225 255
202 225 255
202 225 255
202 225 255
202 225 255
202 225 255
202 225 255
202 225 255
202 225 255
202 225 255
202 225 255
203 225 255
203 225 255
203 225 255
203 225 255
203 225 255
203 225 255
203 225 255
203 225 255
203 225 255
203 226 255
203 226 255
203 226 255
203 226 255
203 226 255
203 226 255
203 226 255
204 226 255
204 226 255
204 226 255
204 226 255
204 226 255
204 226 255
204 226 255
204 226 255
204 226 255
204 226 255
204 226 255
204 226 255
204 226 255
204 226 255
204 226 255
204 226 255
204 226 255
205 226 255
205 226 255
205 226 255
205 226 255
205 226 255
205 226 255
205 226 255
205 227 255
205 227 255
205 227 255
205 227 255
205 227 255
205 227 255
205 227 255
205 227 255
205 227 255
205 227 255
205 227 255
205 227 255
206 227 255
206 227 255
206 227 255
205 227 255
205 227 255
205 227 255
205 227 255
205 227 255
205 227 255
205 227 255
205 227 255
205 227 255
205 227 255
205 227 255
205 226 255
205 226 255
205 226 255
205 226 255
205 226 255
205 226 255
205 226 255
204 226 255
204 226 255
204 226 255
204 226 255
204 226 255
204 226 255
204 226 255
204 226 255
204 226 255
204 226 255
204 226 255
204 226 255
204 226 255
204 226 255
204 226 255
204 226 255
204 226 255
203 226 255
203 226 255
203 226 255
203 226 255
203 226 255
203 226 255
203 226 255
203 226 255
203 225 255
203 225 255
203 225 255
203 225 255
203 225 255
203 225 255
203 225 255
203 225 255
202 225 255
202 225 255
202 225 255
202 225 255
202 225 255
202 225 255
202 225 255
202 225 255
202 225 255
202 225 255
202 225 255
202 225 255
202 225 255
202 225 255
202 225 255
202 225 255
201 225 255
201 225 255
201 225 255
201 225 255
201 224 255
201 224 255
201 224 255
201 224 255
201 224 255
201 224 255
201 224 255
201 224 255
201 224 255
201 224 255
200 224 255
200 224 255
200 224 255
200 224 255
200 224 255
200 224 255
200 224 255
200 224 255
200 224 255
200 224 255
200 224 255
200 224 255
200 224 255
200 224 255
200 224 255
199 224 255
199 224 255
199 223 255
199 223 255
199 223 255
199 223 255
199 223 255
199 223 255
199 223 255
199 223 255
199 223 255
199 223 255
199 223 255
199 223 255
198 223 255
198 223 255
198 223 255
198 223 255
198 223 255
198 223 255
198 223 255
198 223 255
198 223 255
198 223 255
198 223 255
198 223 255
198 223 255
198 223 255
198 223 255
197 223 255
197 222 255
197 222 255
197 222 255
197 222 255
197 222 255
197 222 255
197 222 255
197 222 255
197 222 255
197 222 255
197 222 255
197 222 255
197 222 255
197 222 255
197 222 255
197 222 255
196 222 255
196 222 255
196 222 255
196 222 255
196 222 255
196 222 255
196 222 255
196 222 255
196 222 255
196 222 255
196 222 255
196 222 255
196 222 255
196 222 255
196 222 255
196 222 255
196 222 255
196 222 255
196 221 255
196 221 255
196 221 255
195 221 255
195 221 255
195 221 255
195 221 255
195 221 255
195 221 255
195 221 255
195 221 255
195 221 255
195 221 255
195 221 255
195 221 255
195 221 255
195 221 255
195 221 255
195 221 255
195 221 255
195 221 255
195 221 255
195 221 255
195 221 255
195 221 255
195 221 255
195 221 255
195 221 255
195 221 255
195 221 255
195 221 255
195 221 255
195 221 255
195 221 255
195 221 255
195 221 255
195 221 255
195 221 255
195 221 255
195 221 255
195 221 255
195 221 255
195 221 255
195 221 255
195 221 255
195 221 255
195 221 255
195 221 255
195 221 255
195 221 255
195 221 255
195 221 255
195 221 255
195 221 255
195 221 255
195 221 255
195 221 255
195 221 255
195 221 255
195 221 255
195 221 255
195 221 255
195 221 255
195 221 255
195 221 255
195 221 255
195 221 255
195 221 255
195 221 255
195 221 255
195 221 255
196 221 255
196 221 255
196 221 255
196 222 255
196 222 255
196 222 255
196 222 255
196 222 255
196 222 255
196 222 255
196 222 255
196 222 255
196 222 255
196 222 255
196 222 255
196 222 255
196 222 255
196 222 255
196 222 255
196 222 255
196 222 255
197 222 255
197 222 255
197 222 255
197 222 255
197 222 255
197 222 255
197 222 255
197 222 255
197 222 255
197 222 255
197 222 255
197 222 255
197 222 255
197 222 255
197 222 255
197 222 255
197 223 255
198 223 255
198 223 255
198 223 255
198 223 255
198 223 255
198 223 255
198 223 255
198 223 255
198 223 255
198 223 255
198 223 255
198 223 255
198 223 255
198 223 255
198 223 255
199 223 255
199 223 255
199 223 255
199 223 255
199 223 255
199 223 255
199 223 255
199 223 255
199 223 255
199 223 255
199 223 255
199 223 255
199 224 255
199 224 255
200 224 255
200 224 255
200 224 255
200 224 255
200 224 255
200 224 255
200 224 255
200 224 255
200 224 255
200 224 255
200 224 255
200 224 255
200 224 255
200 224 255
200 224 255
201 224 255
201 224 255
201 224 255
201 224 255
201 224 255
201 224 255
201 224 255
201 224 255
201 224 255
201 224 255
201 225 255
201 225 255
201 225 255
201 225 255
202 225 255
202 225 255
202 225 255
202 225 255
202 225 255
202 225 255
202 225 255
202 225 255
202 225 255
202 225 255
202 225 255
202 225 255
202 225 255
202 225 255
202 225 255
202 225 255
203 225 255
203 225 255
203 225 255
203 225 255
203 225 255
203 225 255
203 225 255
203 225 255
203 226 255
203 226 255
203 226 255
203 226 255
203 226 255
203 226 255
203 226 255
203 226 255
204 226 255
204 226 255
204 226 255
204 226 255
204 226 255
204 226 255
204 226 255
204 226 255
204 226 255
204 226 255
204 226 255
204 226 255
204 226 255
204 226 255
204 226 255
204 226 255
204 226 255
205 226 255
205 226 255
205 226 255
205 226 255
205 226 255
205 226 255
205 226 255
205 227 255
205 227 255
205 227 255
205 227 255
205 227 255
205 227 255
205 227 255
205 227 255
205 227 255
205 227 255
205 227 255
206 227 255
206 227 255
206 227 255
206 227 255
206 227 255
206 227 255
206 227 255
206 227 255
205 227 255
205 227 255
205 227 255
205 227 255
205 227 255
205 227 255
205 227 255
205 227 255
205 227 255
205 227 255
205 227 255
205 226 255
205 226 255
205 226 255
205 226 255
205 226 255
205 226 255
205 226 255
205 226 255
204 226 255
204 226 255
204 226 255
204 226 255
204 226 255
204 226 255
204 226 255
204 226 255
204 226 255
204 226 255
204 226 255
204 226 255
204 226 255
204 226 255
204 226 255
204 226 255
204 226 255
203 226 255
203 226 255
203 226 255
203 226 255
203 226 255
203 226 255
203 226 255
203 225 255
203 225 255
203 225 255
203 225 255
203 225 255
203 225 255
203 225 255
203 225 255
203 225 255
202 225 255
202 225 255
202 225 255
202 225 255
202 225 255
202 225 255
202 225 255
202 225 255
202 225 255
202 225 255
202 225 255
202 225 255
202 225 255
202 225 255
202 225 255
201 225 255
201 225 255
201 225 255
201 225 255
201 224 255
201 224 255
201 224 255
201 224 255
201 224 255
201 224 255
201 224 255
201 224 255
201 224 255
201 224 255
201 224 255
200 224 255
200 224 255
200 224 255
200 224 255
200 224 255
200 224 255
200 224 255
200 224 255
200 224 255
200 224 255
200 224 255
200 224 255
200 224 255
200 224 255
199 224 255
199 224 255
199 223 255
199 223 255
199 223 255
199 223 255
199 223 255
199 223 255
199 223 255
199 223 255
199 223 255
199 223 255
199 223 255
199 223 255
198 223 255
198 223 255
198 223 255
198 223 255
198 223 255
198 223 255
198 223 255
198 223 255
198 223 255
198 223 255
198 223 255
198 223 255
198 223 255
198 223 255
198 223 255
198 223 255
197 222 255
197 222 255
197 222 255
197 222 255
197 222 255
197 222 255
197 222 255
197 222 255
197 222 255
197 222 255
197 222 255
197 222 255
197 222 255
197 222 255
197 222 255
197 222 255
197 222 255
196 222 255
196 222 255
196 222 255
196 222 255
196 222 255
196 222 255
196 222 255
196 222 255
196 222 255
196 222 255
196 222 255
196 222 255
196 222 255
196 222 255
196 222 255
196 222 255
196 222 255
196 222 255
196 222 255
196 222 255
196 221 255
196 221 255
195 221 255
195 221 255
195 221 255
195 221 255
195 221 255
195 221 255
195 221 255
195 221 255
195 221 255
195 221 255
195 221 255
195 221 255
195 221 255
195 221 255
195 221 255
195 221 255
195 221 255
195 221 255
195 221 255
195 221 255
195 221 255
195 221 255
195 221 255
195 221 255
195 221 255
195 221 255
195 221 255
195 221 255
195 221 255
195 221 255
195 221 255
195 221 255
195 221 255
195 221 255
195 221 255
195 221 255
195 221 255
195 221 255
195 221 255
195 221 255
195 221 255
195 221 255
195 221 255
195 221 255
195 221 255
195 221 255
195 221 255
195 221 255
195 221 255
195 221 255
195 221 255
195 221 255
195 221 255
195 221 255
195 221 255
195 221 255
195 221 255
195 221 255
195 221 255
195 221 255
196 221 255
196 221 255
196 222 255
196 222 255
196 222 255
196 222 255
196 222 255
196 222 255
196 222 255
196 222 255
196 222 255
196 222 255
196 222 255
196 222 255
196 222 255
196 222 255
196 222 255
196 222 255
196 222 255
196 222 255
196 222 255
196 222 255
197 222 255
197 222 255
197 222 255
197 222 255
197 222 255
197 222 255
197 222 255
197 222 255
197 222 255
197 222 255
197 222 255
197 222 255
197 222 255
197 222 255
197 222 255
197 222 255
197 222 255
198 223 255
198 223 255
198 223 255
198 223 255
198 223 255
198 223 255
198 223 255
198 223 255
198 223 255
198 223 255
198 223 255
198 223 255
198 223 255
198 223 255
198 223 255
198 223 255
199 223 255
199 223 255
199 223 255
199 223 255
199 223 255
199 223 255
199 223 255
199 223 255
199 223 255
199 223 255
199 223 255
199 223 255
199 224 255
199 224 255
200 224 255
200 224 255
200 224 255
200 224 255
200 224 255
200 224 255
200 224 255
200 224 255
200 224 255
200 224 255
200 224 255
200 224 255
200 224 255
200 224 255
200 224 255
201 224 255
201 224 255
201 224 255
201 224 255
201 224 255
201 224 255
201 224 255
201 224 255
201 224 255
201 224 255
201 225 255
201 225 255
201 225 255
201 225 255
202 225 255
202 225 255
202 225 255
202 225 255
202 225 255
202 225 255
202 225 255
202 225 255
202 225 255
202 225 255
202 225 255
202 225 255
202 225 255
202 225 255
202 225 255
203 225 255
203 225 255
203 225 255
203 225 255
203 225 255
203 225 255
203 225 255
203 225 255
203 225 255
203 226 255
203 226 255
203 226 255
203 226 255
203 226 255
203 226 255
203 226 255
204 226 255
204 226 255
204 226 255
204 226 255
204 226 255
204 226 255
204 226 255
204 226 255
204 226 255
204 226 255
204 226 255
204 226 255
204 226 255
204 226 255
204 226 255
204 226 255
204 226 255
205 226 255
205 226 255
205 226 255
205 226 255
205 226 255
205 226 255
205 226 255
205 227 255
205 227 255
205 227 255
205 227 255
205 227 255
205 227 255
205 227 255
205 227 255
205 227 255
205 227 255
205 227 255
206 227 255
206 227 255
206 227 255
206 227 255
206 227 255
206 227 255
206 227 255
206 227 255
206 227 255
206 227 255
206 227 255
206 227 255
206 227 255
206 227 255
205 227 255
205 227 255
205 227 255
205 227 255
205 227 255
205 227 255
205 227 255
205 227 255
205 227 255
205 227 255
205 227 255
205 226 255
205 226 255
205 226 255
205 226 255
205 226 255
205 226 255
205 226 255
204 226 255
204 226 255
204 226 255
204 226 255
204 226 255
204 226 255
204 226 255
204 226 255
204 226 255
204 226 255
204 226 255
204 226 255
204 226 255
204 226 255
204 226 255
204 226 255
204 226 255
203 226 255
203 226 255
203 226 255
203 226 255
203 226 255
203 226 255
203 226 255
203 225 255
203 225 255
203 225 255
203 225 255
203 225 255
203 225 255
203 225 255
203 225 255
203 225 255
202 225 255
202 225 255
202 225 255
202 225 255
202 225 255
202 225 255
202 225 255
202 225 255
202 225 255
202 225 255
202 225 255
202 225 255
202 225 255
202 225 255
202 225 255
201 225 255
201 225 255
201 225 255
201 225 255
201 224 255
201 224 255
201 224 255
201 224 255
201 224 255
201 224 255
201 224 255
201 224 255
201 224 255
201 224 255
201 224 255
200 224 255
200 224 255
200 224 255
200 224 255
200 224 255
200 224 255
200 224 255
200 224 255
200 224 255
200 224 255
200 224 255
200 224 255
200 224 255
200 224 255
199 224 255
199 224 255
199 223 255
199 223 255
199 223 255
199 223 255
199 223 255
199 223 255
199 223 255
199 223 255
199 223 255
199 223 255
199 223 255
199 223 255
199 223 255
198 223 255
198 223 255
198 223 255
198 223 255
198 223 255
198 223 255
198 223 255
198 223 255
198 223 255
198 223 255
198 223 255
198 223 255
198 223 255
198 223 255
198 223 255
197 223 255
197 222 255
197 222 255
197 222 255
197 222 255
197 222 255
197 222 255
197 222 255
197 222 255
197 222 255
197 222 255
197 222 255
197 222 255
197 222 255
197 222 255
197 222 255
197 222 255
197 222 255
196 222 255
196 222 255
196 222 255
196 222 255
196 222 255
196 222 255
196 222 255
196 222 255
196 222 255
196 222 255
196 222 255
196 222 255
196 222 255
196 222 255
196 222 255
196 222 255
196 222 255
196 222 255
196 222 255
196 222 255
196 222 255
196 221 255
196 221 255
196 221 255
195 221 255
195 221 255
195 221 255
195 221 255
195 221 255
195 221 255
195 221 255
195 221 255
195 221 255
195 221 255
195 221 255
195 221 255
195 221 255
195 221 255
195 221 255
195 221 255
195 221 255
195 221 255
195 221 255
195 221 255
195 221 255
195 221 255
195 221 255
195 221 255
195 221 255
195 221 255
195 221 255
195 221 255
195 221 255
195 221 255
195 221 255
195 221 255
195 221 255
195 221 255
195 221 255
195 221 255
195 221 255
195 221 255
195 221 255
195 221 255
195 221 255
195 221 255
195 221 255
195 221 255
195 221 255
195 221 255
195 221 255
195 221 255
195 221 255
195 221 255
196 221 255
196 221 255
196 221 255
196 222 255
196 222 255
196 222 255
196 222 255
196 222 255
196 222 255
196 222 255
196 222 255
196 222 255
196 222 255
196 222 255
196 222 255
196 222 255
196 222 255
196 222 255
196 222 255
196 222 255
196 222 255
196 222 255
196 222 255
196 222 255
197 222 255
197 222 255
197 222 255
197 222 255
197 222 255
197 222 255
197 222 255
197 222 255
197 222 255
197 222 255
197 222 255
197 222 255
197 222 255
197 222 255
197 222 255
197 222 255
197 222 255
197 223 255
198 223 255
198 223 255
198 223 255
198 223 255
198 223 255
198 223 255
198 223 255
198 223 255
198 223 255
198 223 255
198 223 255
198 223 255
198 223 255
198 223 255
198 223 255
199 223 255
199 223 255
199 223 255
199 223 255
199 223 255
199 223 255
199 223 255
199 223 255
199 223 255
199 223 255
199 223 255
199 223 255
199 223 255
199 224 255
199 224 255
200 224 255
200 224 255
200 224 255
200 224 255
200 224 255
200 224 255
200 224 255
200 224 255
200 224 255
200 224 255
200 224 255
200 224 255
200 224 255
200 224 255
201 224 255
201 224 255
201 224 255
201 224 255
201 224 255
201 224 255
201 224 255
201 224 255
201 224 255
201 224 255
201 224 255
201 225 255
201 225 255
201 225 255
201 225 255
202 225 255
202 225 255
202 225 255
202 225 255
202 225 255
202 225 255
202 225 255
202 225 255
202 225 255
202 225 255
202 225 255
202 225 255
202 225 255
202 225 255
202 225 255
203 225 255
203 225 255
203 225 255
203 225 255
203 225 255
203 225 255
203 225 255
203 225 255
203 225 255
203 226 255
203 226 255
203 226 255
203 226 255
203 226 255
203 226 255
203 226 255
204 226 255
204 226 255
204 226 255
204 226 255
204 226 255
204 226 255
204 226 255
204 226 255
204 226 255
204 226 255
204 226 255
204 226 255
204 226 255
204 226 255
204 226 255
204 226 255
204 226 255
205 226 255
205 226 255
205 226 255
205 226 255
205 226 255
205 226 255
205 226 255
205 227 255
205 227 255
205 227 255
205 227 255
205 227 255
205 227 255
205 227 255
205 227 255
205 227 255
205 227 255
205 227 255
206 227 255
206 227 255
206 227 255
206 227 255
206 227 255
206 227 255
206 227 255
206 227 255
206 227 255
206 227 255
206 227 255
206 227 255
206 227 255
206 227 255
206 227 255
206 227 255
206 227 255
206 227 255
206 227 255
205 227 255
205 227 255
205 227 255
205 227 255
205 227 255
205 227 255
205 227 255
205 227 255
205 227 255
205 227 255
205 227 255
205 226 255
205 226 255
205 226 255
205 226 255
205 226 255
205 226 255
205 226 255
204 226 255
204 226 255
204 226 255
204 226 255
204 226 255
204 226 255
204 226 255
204 226 255
204 226 255
204 226 255
204 226 255
204 226 255
204 226 255
204 226 255
204 226 255
204 226 255
204 226 255
203 226 255
203 226 255
203 226 255
203 226 255
203 226 255
203 226 255
203 226 255
203 225 255
203 225 255
203 225 255
203 225 255
203 225 255
203 225 255
203 225 255
203 225 255
202 225 255
202 225 255
202 225 255
202 225 255
202 225 255
202 225 255
202 225 255
202 225 255
202 225 255
202 225 255
202 225 255
202 225 255
202 225 255
202 225 255
202 225 255
201 225 255
201 225 255
201 225 255
201 225 255
201 225 255
201 224 255
201 224 255
201 224 255
201 224 255
201 224 255
201 224 255
201 224 255
201 224 255
201 224 255
201 224 255
200 224 255
200 224 255
200 224 255
200 224 255
200 224 255
200 224 255
200 224 255
200 224 255
200 224 255
200 224 255
200 224 255
200 224 255
200 224 255
200 224 255
200 224 255
199 224 255
199 224 255
199 223 255
199 223 255
199 223 255
199 223 255
199 223 255
199 223 255
199 223 255
199 223 255
199 223 255
199 223 255
199 223 255
199 223 255
198 223 255
198 223 255
198 223 255
198 223 255
198 223 255
198 223 255
198 223 255
198 223 255
198 223 255
198 223 255
198 223 255
198 223 255
198 223 255
198 223 255
198 223 255
198 223 255
197 222 255
197 222 255
197 222 255
197 222 255
197 222 255
197 222 255
197 222 255
197 222 255
197 222 255
197 222 255
197 222 255
197 222 255
197 222 255
197 222 255
197 222 255
197 222 255
197 222 255
197 222 255
196 222 255
196 222 255
196 222 255
196 222 255
196 222 255
196 222 255
196 222 255
196 222 255
196 222 255
196 222 255
196 222 255
196 222 255
196 222 255
196 222 255
196 222 255
196 222 255
196 222 255
196 222 255
196 222 255
196 222 255
196 222 255
196 222 255
196 222 255
196 221 255
196 221 255
196 221 255
196 221 255
195 221 255
195 221 255
195 221 255
195 221 255
195 221 255
195 221 255
195 221 255
195 221 255
195 221 255
195 221 255
195 221 255
195 221 255
195 221 255
195 221 255
195 221 255
195 221 255
195 221 255
195 221 255
195 221 255
195 221 255
195 221 255
195 221 255
195 221 255
195 221 255
195 221 255
195 221 255
195 221 255
195 221 255
195 221 255
195 221 255
195 221 255
195 221 255
195 221 255
195 221 255
195 221 255
195 221 255
195 221 255
195 221 255
196 221 255
196 221 255
196 221 255
196 222 255
196 222 255
196 222 255
196 222 255
196 222 255
196 222 255
196 222 255
196 222 255
196 222 255
196 222 255
196 222 255
196 222 255
196 222 255
196 222 255
196 222 255
196 222 255
196 222 255
196 222 255
196 222 255
196 222 255
196 222 255
196 222 255
196 222 255
196 222 255
197 222 255
197 222 255
197 222 255
197 222 255
197 222 255
197 222 255
197 222 255
197 222 255
197 222 255
197 222 255
197 222 255
197 222 255
197 222 255
197 222 255
197 222 255
197 222 255
197 222 255
197 222 255
198 223 255
198 223 255
198 223 255
198 223 255
198 223 255
198 223 255
198 223 255
198 223 255
198 223 255
198 223 255
198 223 255
198 223 255
198 223 255
198 223 255
198 223 255
198 223 255
199 223 255
199 223 255
199 223 255
199 223 255
199 223 255
199 223 255
199 223 255
199 223 255
199 223 255
199 223 255
199 223 255
199 223 255
199 224 255
199 224 255
199 224 255
200 224 255
200 224 255
200 224 255
200 224 255
200 224 255
200 224 255
200 224 255
200 224 255
200 224 255
200 224 255
200 224 255
200 224 255
200 224 255
200 224 255
201 224 255
201 224 255
201 224 255
201 224 255
201 224 255
201 224 255
201 224 255
201 224 255
201 224 255
201 224 255
201 225 255
201 225 255
201 225 255
201 225 255
201 225 255
202 225 255
202 225 255
202 225 255
202 225 255
202 225 255
202 225 255
202 225 255
202 225 255
202 225 255
202 225 255
202 225 255
202 225 255
202 225 255
202 225 255
202 225 255
203 225 255
203 225 255
203 225 255
203 225 255
203 225 255
203 225 255
203 225 255
203 225 255
203 226 255
203 226 255
203 226 255
203 226 255
203 226 255
203 226 255
203 226 255
204 226 255
204 226 255
204 226 255
204 226 255
204 226 255
204 226 255
204 226 255
204 226 255
204 226 255
204 226 255
204 226 255
204 226 255
204 226 255
204 226 255
204 226 255
204 226 255
204 226 255
205 226 255
205 226 255
205 226 255
205 226 255
205 226 255
205 226 255
205 226 255
205 227 255
205 227 255
205 227 255
205 227 255
205 227 255
205 227 255
205 227 255
205 227 255
205 227 255
205 227 255
205 227 255
206 227 255
206 227 255
206 227 255
206 227 255
206 227 255
206 227 255
206 227 255
206 227 255
206 227 255
206 227 255
206 227 255
206 227 255
206 227 255
206 227 255
206 227 255
206 227 255
206 227 255
206 227 255
206 227 255
206 227 255
206 227 255
206 227 255
206 227 255
206 227 255
205 227 255
205 227 255
205 227 255
205 227 255
205 227 255
205 227 255
205 227 255
205 227 255
205 227 255
205 227 255
205 227 255
205 226 255
205 226 255
205 226 255
205 226 255
205 226 255
205 226 255
205 226 255
204 226 255
204 226 255
204 226 255
204 226 255
204 226 255
204 226 255
204 226 255
204 226 255
204 226 255
204 226 255
204 226 255
204 226 255
204 226 255
204 226 255
204 226 255
204 226 255
204 226 255
203 226 255
203 226 255
203 226 255
203 226 255
203 226 255
203 226 255
203 226 255
203 225 255
203 225 255
203 225 255
203 225 255
203 225 255
203 225 255
203 225 255
203 225 255
203 225 255
202 225 255
202 225 255
202 225 255
202 225 255
202 225 255
202 225 255
202 225 255
202 225 255
202 225 255
202 225 255
202 225 255
202 225 255
202 225 255
202 225 255
202 225 255
201 225 255
201 225 255
201 225 255
201 225 255
201 224 255
201 224 255
201 224 255
201 224 255
201 224 255
201 224 255
201 224 255
201 224 255
201 224 255
201 224 255
200 224 255
200 224 255
200 224 255
200 224 255
200 224 255
200 224 255
200 224 255
200 224 255
200 224 255
200 224 255
200 224 255
200 224 255
200 224 255
200 224 255
200 224 255
199 224 255
199 224 255
199 223 255
199 223 255
199 223 255
199 223 255
199 223 255
199 223 255
199 223 255
199 223 255
199 223 255
199 223 255
199 223 255
199 223 255
199 223 255
198 223 255
198 223 255
198 223 255
198 223 255
198 223 255
198 223 255
198 223 255
198 223 255
198 223 255
198 223 255
198 223 255
198 223 255
198 223 255
198 223 255
198 223 255
197 223 255
197 222 255
197 222 255
197 222 255
197 222 255
197 222 255
197 222 255
197 222 255
197 222 255
197 222 255
197 222 255
197 222 255
197 222 255
197 222 255
197 222 255
197 222 255
197 222 255
197 222 255
197 222 255
196 222 255
196 222 255
196 222 255
196 222 255
196 222 255
196 222 255
196 222 255
196 222 255
196 222 255
196 222 255
196 222 255
196 222 255
196 222 255
196 222 255
196 222 255
196 222 255
196 222 255
196 222 255
196 222 255
196 222 255
196 222 255
196 222 255
196 222 255
196 222 255
196 222 255
196 222 255
196 222 255
196 221 255
196 221 255
196 221 255
196 221 255
196 221 255
196 221 255
195 221 255
195 221 255
195 221 255
195 221 255
195 221 255
195 221 255
195 221 255
195 221 255
195 221 255
195 221 255
195 221 255
195 221 255
195 221 255
195 221 255
195 221 255
195 221 255
195 221 255
195 221 255
195 221 255
195 221 255
196 221 255
196 221 255
196 221 255
196 221 255
196 221 255
196 221 255
196 222 255
196 222 255
196 222 255
196 222 255
196 222 255
196 222 255
196 222 255
196 222 255
196 222 255
196 222 255
196 222 255
196 222 255
196 222 255
196 222 255
196 222 255
196 222 255
196 222 255
196 222 255
196 222 255
196 222 255
196 222 255
196 222 255
196 222 255
196 222 255
196 222 255
196 222 255
196 222 255
197 222 255
197 222 255
197 222 255
197 222 255
197 222 255
197 222 255
197 222 255
197 222 255
197 222 255
197 222 255
197 222 255
197 222 255
197 222 255
197 222 255
197 222 255
197 222 255
197 222 255
197 222 255
197 223 255
198 223 255
198 223 255
198 223 255
198 223 255
198 223 255
198 223 255
198 223 255
198 223 255
198 223 255
198 223 255
198 223 255
198 223 255
198 223 255
198 223 255
198 223 255
198 223 255
199 223 255
199 223 255
199 223 255
199 223 255
199 223 255
199 223 255
199 223 255
199 223 255
199 223 255
199 223 255
199 223 255
199 223 255
199 224 255
199 224 255
200 224 255
200 224 255
200 224 255
200 224 255
200 224 255
200 224 255
200 224 255
200 224 255
200 224 255
200 224 255
200 224 255
200 224 255
200 224 255
200 224 255
200 224 255
201 224 255
201 224 255
201 224 255
201 224 255
201 224 255
201 224 255
201 224 255
201 224 255
201 224 255
201 224 255
201 225 255
201 225 255
201 225 255
201 225 255
202 225 255
202 225 255
202 225 255
202 225 255
202 225 255
202 225 255
202 225 255
202 225 255
202 225 255
202 225 255
202 225 255
202 225 255
202 225 255
202 225 255
202 225 255
203 225 255
203 225 255
203 225 255
203 225 255
203 225 255
203 225 255
203 225 255
203 225 255
203 225 255
203 226 255
203 226 255
203 226 255
203 226 255
203 226 255
203 226 255
203 226 255
204 226 255
204 226 255
204 226 255
204 226 255
204 226 255
204 226 255
204 226 255
204 226 255
204 226 255
204 226 255
204 226 255
204 226 255
204 226 255
204 226 255
204 226 255
204 226 255
204 226 255
205 226 255
205 226 255
205 226 255
205 226 255
205 226 255
205 226 255
205 226 255
205 227 255
205 227 255
205 227 255
205 227 255
205 227 255
205 227 255
205 227 255
205 227 255
205 227 255
205 227 255
205 227 255
206 227 255
206 227 255
206 227 255
206 227 255
206 227 255
206 227 255
206 227 255
206 227 255
206 227 255
206 227 255
206 227 255
206 227 255
206 227 255
206 227 255
206 227 255
206 227 255
206 227 255
206 227 255
206 227 255
206 227 255
206 227 255
206 227 255
206 227 255
206 227 255
206 227 255
206 227 255
206 227 255
206 227 255
206 227 255
205 227 255
205 227 255
205 227 255
205 227 255
205 227 255
205 227 255
205 227 255
205 227 255
205 227 255
205 227 255
205 227 255
205 226 255
205 226 255
205 226 255
205 226 255
205 226 255
205 226 255
205 226 255
204 226 255
204 226 255
204 226 255
204 226 255
204 226 255
204 226 255
204 226 255
204 226 255
204 226 255
204 226 255
204 226 255
204 226 255
204 226 255
204 226 255
204 226 255
204 226 255
203 226 255
203 226 255
203 226 255
203 226 255
203 226 255
203 226 255
203 226 255
203 225 255
203 225 255
203 225 255
203 225 255
203 225 255
203 225 255
203 225 255
203 225 255
203 225 255
202 225 255
202 225 255
202 225 255
202 225 255
202 225 255
202 225 255
202 225 255
202 225 255
202 225 255
202 225 255
202 225 255
202 225 255
202 225 255
202 225 255
202 225 255
201 225 255
201 225 255
201 225 255
201 225 255
201 224 255
201 224 255
201 224 255
201 224 255
201 224 255
201 224 255
201 224 255
201 224 255
201 224 255
201 224 255
200 224 255
200 224 255
200 224 255
200 224 255
200 224 255
200 224 255
200 224 255
200 224 255
200 224 255
200 224 255
200 224 255
200 224 255
200 224 255
200 224 255
200 224 255
199 224 255
199 224 255
199 223 255
199 223 255
199 223 255
199 223 255
199 223 255
199 223 255
199 223 255
199 223 255
199 223 255
199 223 255
199 223 255
199 223 255
199 223 255
198 223 255
198 223 255
198 223 255
198 223 255
198 223 255
198 223 255
198 223 255
198 223 255
198 223 255
198 223 255
198 223 255
198 223 255
198 223 255
198 223 255
198 223 255
198 223 255
197 223 255
197 222 255
197 222 255
197 222 255
197 222 255
197 222 255
197 222 255
197 222 255
197 222 255
197 222 255
197 222 255
197 222 255
197 222 255
197 222 255
197 222 255
197 222 255
197 222 255
197 222 255
197 222 255
197 222 255
196 222 255
196 222 255
196 222 255
196 222 255
196 222 255
196 222 255
196 222 255
196 222 255
196 222 255
196 222 255
196 222 255
196 222 255
196 222 255
196 222 255
196 222 255
196 222 255
196 222 255
196 222 255
196 222 255
196 222 255
196 222 255
196 222 255
196 222 255
196 222 255
196 222 255
196 222 255
196 222 255
196 222 255
196 222 255
196 222 255
196 222 255
196 222 255
196 222 255
196 222 255
196 222 255
196 222 255
196 222 255
196 222 255
196 222 255
196 222 255
196 222 255
196 222 255
196 222 255
196 222 255
196 222 255
196 222 255
196 222 255
196 222 255
196 222 255
196 222 255
196 222 255
196 222 255
196 222 255
196 222 255
196 222 255
196 222 255
196 222 255
196 222 255
196 222 255
196 222 255
196 222 255
196 222 255
196 222 255
196 222 255
196 222 255
196 222 255
196 222 255
196 222 255
196 222 255
196 222 255
196 222 255
196 222 255
196 222 255
196 222 255
196 222 255
196 222 255
196 222 255
196 222 255
197 222 255
197 222 255
197 222 255
197 222 255
197 222 255
197 222 255
197 222 255
197 222 255
197 222 255
197 222 255
197 222 255
197 222 255
197 222 255
197 222 255
197 222 255
197 222 255
197 222 255
197 222 255
197 222 255
197 223 255
198 223 255
198 223 255
198 223 255
198 223 255
198 223 255
198 223 255
198 223 255
198 223 255
198 223 255
198 223 255
198 223 255
198 223 255
198 223 255
198 223 255
198 223 255
198 223 255
199 223 255
199 223 255
199 223 255
199 223 255
199 223 255
199 223 255
199 223 255
199 223 255
199 223 255
199 223 255
199 223 255
199 223 255
199 224 255
199 224 255
199 224 255
200 224 255
200 224 255
200 224 255
200 224 255
200 224 255
200 224 255
200 224 255
200 224 255
200 224 255
200 224 255
200 224 255
200 224 255
200 224 255
200 224 255
200 224 255
201 224 255
201 224 255
201 224 255
201 224 255
201 224 255
201 224 255
201 224 255
201 224 255
201 224 255
201 224 255
201 225 255
201 225 255
201 225 255
201 225 255
202 225 255
202 225 255
202 225 255
202 225 255
202 225 255
202 225 255
202 225 255
202 225 255
202 225 255
202 225 255
202 225 255
202 225 255
202 225 255
202 225 255
202 225 255
203 225 255
203 225 255
203 225 255
203 225 255
203 225 255
203 225 255
203 225 255
203 225 255
203 225 255
203 226 255
203 226 255
203 226 255
203 226 255
203 226 255
203 226 255
203 226 255
204 226 255
204 226 255
204 226 255
204 226 255
204 226 255
204 226 255
204 226 255
204 226 255
204 226 255
204 226 255
204 226 255
204 226 255
204 226 255
204 226 255
204 226 255
204 226 255
205 226 255
205 226 255
205 226 255
205 226 255
205 226 255
205 226 255
205 226 255
205 227 255
205 227 255
205 227 255
205 227 255
205 227 255
205 227 255
205 227 255
205 227 255
205 227 255
205 227 255
205 227 255
206 227 255
206 227 255
206 227 255
206 227 255
206 227 255
206 227 255
206 227 255
206 227 255
206 227 255
206 227 255
206 227 255
206 227 255
206 227 255
206 227 255
206 227 255
206 227 255
206 227 255
206 227 255
206 227 255
206 227 255
206 227 255
206 227 255
206 227 255
206 227 255
206 227 255
206 227 255
206 227 255
206 227 255
206 227 255
206 227 255
206 227 255
206 227 255
206 227 255
206 227 255
205 227 255
205 227 255
205 227 255
205 227 255
205 227 255
205 227 255
205 227 255
205 227 255
205 227 255
205 227 255
205 227 255
205 226 255
205 226 255
205 226 255
205 226 255
205 226 255
205 226 255
205 226 255
204 226 255
204 226 255
204 226 255
204 226 255
204 226 255
204 226 255
204 226 255
204 226 255
204 226 255
204 226 255
204 226 255
204 226 255
204 226 255
204 226 255
204 226 255
204 226 255
204 226 255
203 226 255
203 226 255
203 226 255
203 226 255
203 226 255
203 226 255
203 226 255
203 225 255
203 225 255
203 225 255
203 225 255
203 225 255
203 225 255
203 225 255
203 225 255
202 225 255
202 225 255
202 225 255
202 225 255
202 225 255
202 225 255
202 225 255
202 225 255
202 225 255
202 225 255
202 225 255
202 225 255
202 225 255
202 225 255
202 225 255
201 225 255
201 225 255
201 225 255
201 225 255
201 225 255
201 224 255
201 224 255
201 224 255
201 224 255
201 224 255
201 224 255
201 224 255
201 224 255
201 224 255
201 224 255
200 224 255
200 224 255
200 224 255
200 224 255
200 224 255
200 224 255
200 224 255
200 224 255
200 224 255
200 224 255
200 224 255
200 224 255
200 224 255
200 224 255
199 224 255
199 224 255
199 224 255
199 223 255
199 223 255
199 223 255
199 223 255
199 223 255
199 223 255
199 223 255
199 223 255
199 223 255
199 223 255
199 223 255
199 223 255
199 223 255
198 223 255
198 223 255
198 223 255
198 223 255
198 223 255
198 223 255
198 223 255
198 223 255
198 223 255
198 223 255
198 223 255
198 223 255
198 223 255
198 223 255
198 223 255
198 223 255
197 223 255
197 222 255
197 222 255
197 222 255
197 222 255
197 222 255
197 222 255
197 222 255
197 222 255
197 222 255
197 222 255
197 222 255
197 222 255
197 222 255
197 222 255
197 222 255
197 222 255
197 222 255
197 222 255
197 222 255
196 222 255
196 222 255
196 222 255
196 222 255
196 222 255
196 222 255
196 222 255
196 222 255
196 222 255
196 222 255
196 222 255
196 222 255
196 222 255
196 222 255
196 222 255
196 222 255
196 222 255
196 222 255
196 222 255
196 222 255
196 222 255
196 222 255
196 222 255
196 222 255
196 222 255
196 222 255
196 222 255
196 222 255
196 222 255
196 222 255
196 222 255
196 222 255
196 222 255
196 222 255
196 222 255
196 222 255
196 222 255
196 222 255
196 222 255
196 222 255
196 222 255
196 222 255
196 222 255
196 222 255
196 222 255
196 222 255
196 222 255
196 222 255
196 222 255
196 222 255
196 222 255
196 222 255
196 222 255
196 222 255
196 222 255
196 222 255
196 222 255
196 222 255
196 222 255
196 222 255
196 222 255
196 222 255
196 222 255
196 222 255
196 222 255
196 222 255
196 222 255
196 222 255
196 222 255
196 222 255
196 222 255
196 222 255
197 222 255
197 222 255
197 222 255
197 222 255
197 222 255
197 222 255
197 222 255
197 222 255
197 222 255
197 222 255
197 222 255
197 222 255
197 222 255
197 222 255
197 222 255
197 222 255
197 222 255
197 222 255
197 222 255
197 223 255
198 223 255
198 223 255
198 223 255
198 223 255
198 223 255
198 223 255
198 223 255
198 223 255
198 223 255
198 223 255
198 223 255
198 223 255
198 223 255
198 223 255
198 223 255
198 223 255
199 223 255
199 223 255
199 223 255
199 223 255
199 223 255
199 223 255
199 223 255
199 223 255
199 223 255
199 223 255
199 223 255
199 223 255
199 223 255
199 224 255
199 224 255
200 224 255
200 224 255
200 224 255
200 224 255
200 224 255
200 224 255
200 224 255
200 224 255
200 224 255
200 224 255
200 224 255
200 224 255
200 224 255
200 224 255
200 224 255
201 224 255
201 224 255
201 224 255
201 224 255
201 224 255
201 224 255
201 224 255
201 224 255
201 224 255
201 224 255
201 225 255
201 225 255
201 225 255
201 225 255
201 225 255
202 225 255
202 225 255
202 225 255
202 225 255
202 225 255
202 225 255
202 225 255
202 225 255
202 225 255
202 225 255
202 225 255
202 225 255
202 225 255
202 225 255
202 225 255
203 225 255
203 225 255
203 225 255
203 225 255
203 225 255
203 225 255
203 225 255
203 225 255
203 226 255
203 226 255
203 226 255
203 226 255
203 226 255
203 226 255
203 226 255
204 226 255
204 226 255
204 226 255
204 226 255
204 226 255
204 226 255
204 226 255
204 226 255
204 226 255
204 226 255
204 226 255
204 226 255
204 226 255
204 226 255
204 226 255
204 226 255
204 226 255
205 226 255
205 226 255
205 226 255
205 226 255
205 226 255
205 226 255
205 226 255
205 227 255
205 227 255
205 227 255
205 227 255
205 227 255
205 227 255
205 227 255
205 227 255
205 227 255
205 227 255
205 227 255
206 227 255
206 227 255
206 227 255
206 227 255
206 227 255
206 227 255
206 227 255
206 227 255
206 227 255
206 227 255
206 227 255
206 227 255
206 227 255
206 227 255
206 227 255
206 227 255
206 227 255
206 227 255
207 227 255
207 227 255
206 227 255
206 227 255
206 227 255
206 227 255
206 227 255
206 227 255
206 227 255
206 227 255
206 227 255
206 227 255
206 227 255
206 227 255
206 227 255
206 227 255
206 227 255
206 227 255
206 227 255
206 227 255
206 227 255
205 227 255
205 227 255
205 227 255
205 227 255
205 227 255
205 227 255
205 227 255
205 227 255
205 227 255
205 227 255
205 227 255
205 226 255
205 226 255
205 226 255
205 226 255
205 226 255
205 226 255
205 226 255
204 226 255
204 226 255
204 226 255
204 226 255
204 226 255
204 226 255
204 226 255
204 226 255
204 226 255
204 226 255
204 226 255
204 226 255
204 226 255
204 226 255
204 226 255
204 226 255
203 226 255
203 226 255
203 226 255
203 226 255
203 226 255
203 226 255
203 226 255
203 225 255
203 225 255
203 225 255
203 225 255
203 225 255
203 225 255
203 225 255
203 225 255
203 225 255
202 225 255
202 225 255
202 225 255
202 225 255
202 225 255
202 225 255
202 225 255
202 225 255
202 225 255
202 225 255
202 225 255
202 225 255
202 225 255
202 225 255
201 225 255
201 225 255
201 225 255
201 225 255
201 225 255
201 224 255
201 224 255
201 224 255
201 224 255
201 224 255
201 224 255
201 224 255
201 224 255
201 224 255
201 224 255
200 224 255
200 224 255
200 224 255
200 224 255
200 224 255
200 224 255
200 224 255
200 224 255
200 224 255
200 224 255
200 224 255
200 224 255
200 224 255
200 224 255
200 224 255
199 224 255
199 224 255
199 223 255
199 223 255
199 223 255
199 223 255
199 223 255
199 223 255
199 223 255
199 223 255
199 223 255
199 223 255
199 223 255
199 223 255
199 223 255
198 223 255
198 223 255
198 223 255
198 223 255
198 223 255
198 223 255
198 223 255
198 223 255
198 223 255
198 223 255
198 223 255
198 223 255
198 223 255
198 223 255
198 223 255
198 223 255
198 223 255
197 223 255
197 222 255
197 222 255
197 222 255
197 222 255
197 222 255
197 222 255
197 222 255
197 222 255
197 222 255
197 222 255
197 222 255
197 222 255
197 222 255
197 222 255
197 222 255
197 222 255
197 222 255
197 222 255
197 222 255
197 222 255
197 222 255
196 222 255
196 222 255
196 222 255
196 222 255
196 222 255
196 222 255
196 222 255
196 222 255
196 222 255
196 222 255
196 222 255
196 222 255
196 222 255
196 222 255
196 222 255
196 222 255
196 222 255
196 222 255
196 222 255
196 222 255
196 222 255
196 222 255
196 222 255
196 222 255
196 222 255
196 222 255
196 222 255
196 222 255
196 222 255
196 222 255
196 222 255
196 222 255
196 222 255
196 222 255
196 222 255
196 222 255
196 222 255
196 222 255
196 222 255
196 222 255
196 222 255
196 222 255
196 222 255
196 222 255
196 222 255
196 222 255
196 222 255
196 222 255
196 222 255
196 222 255
196 222 255
196 222 255
196 222 255
196 222 255
196 222 255
196 222 255
196 222 255
196 222 255
196 222 255
196 222 255
196 222 255
196 222 255
197 222 255
197 222 255
197 222 255
197 222 255
197 222 255
197 222 255
197 222 255
197 222 255
197 222 255
197 222 255
197 222 255
197 222 255
197 222 255
197 222 255
197 222 255
197 222 255
197 222 255
197 222 255
197 222 255
197 222 255
197 222 255
197 223 255
198 223 255
198 223 255
198 223 255
198 223 255
198 223 255
198 223 255
198 223 255
198 223 255
198 223 255
198 223 255
198 223 255
198 223 255
198 223 255
198 223 255
198 223 255
198 223 255
198 223 255
199 223 255
199 223 255
199 223 255
199 223 255
199 223 255
199 223 255
199 223 255
199 223 255
199 223 255
199 223 255
199 223 255
199 223 255
199 223 255
199 224 255
199 224 255
200 224 255
200 224 255
200 224 255
200 224 255
200 224 255
200 224 255
200 224 255
200 224 255
200 224 255
200 224 255
200 224 255
200 224 255
200 224 255
200 224 255
200 224 255
201 224 255
201 224 255
201 224 255
201 224 255
201 224 255
201 224 255
201 224 255
201 224 255
201 224 255
201 224 255
201 225 255
201 225 255
201 225 255
201 225 255
202 225 255
202 225 255
202 225 255
202 225 255
202 225 255
202 225 255
202 225 255
202 225 255
202 225 255
202 225 255
202 225 255
202 225 255
202 225 255
202 225 255
202 225 255
203 225 255
203 225 255
203 225 255
203 225 255
203 225 255
203 225 255
203 225 255
203 225 255
203 225 255
203 226 255
203 226 255
203 226 255
203 226 255
203 226 255
203 226 255
203 226 255
204 226 255
204 226 255
204 226 255
204 226 255
204 226 255
204 226 255
204 226 255
204 226 255
204 226 255
204 226 255
204 226 255
204 226 255
204 226 255
204 226 255
204 226 255
204 226 255
205 226 255
205 226 255
205 226 255
205 226 255
205 226 255
205 226 255
205 226 255
205 227 255
205 227 255
205 227 255
205 227 255
205 227 255
205 227 255
205 227 255
205 227 255
205 227 255
205 227 255
205 227 255
206 227 255
206 227 255
206 227 255
206 227 255
206 227 255
206 227 255
206 227 255
206 227 255
206 227 255
206 227 255
206 227 255
206 227 255
206 227 255
206 227 255
206 227 255
206 227 255
206 227 255
206 227 255
206 227 255
207 227 255
207 227 255
207 227 255
207 227 255
207 227 255
207 227 255
207 227 255
206 227 255
206 227 255
206 227 255
206 227 255
206 227 255
206 227 255
206 227 255
206 227 255
206 227 255
206 227 255
206 227 255
206 227 255
206 227 255
206 227 255
206 227 255
206 227 255
206 227 255
206 227 255
206 227 255
205 227 255
205 227 255
205 227 255
205 227 255
205 227 255
205 227 255
205 227 255
205 227 255
205 227 255
205 227 255
205 226 255
205 226 255
205 226 255
205 226 255
205 226 255
205 226 255
205 226 255
204 226 255
204 226 255
204 226 255
204 226 255
204 226 255
204 226 255
204 226 255
204 226 255
204 226 255
204 226 255
204 226 255
204 226 255
204 226 255
204 226 255
204 226 255
204 226 255
204 226 255
203 226 255
203 226 255
203 226 255
203 226 255
203 226 255
203 226 255
203 225 255
203 225 255
203 225 255
203 225 255
203 225 255
203 225 255
203 225 255
203 225 255
203 225 255
202 225 255
202 225 255
202 225 255
202 225 255
202 225 255
202 225 255
202 225 255
202 225 255
202 225 255
202 225 255
202 225 255
202 225 255
202 225 255
202 225 255
202 225 255
201 225 255
201 225 255
201 225 255
201 225 255
201 224 255
201 224 255
201 224 255
201 224 255
201 224 255
201 224 255
201 224 255
201 224 255
201 224 255
201 224 255
201 224 255
200 224 255
200 224 255
200 224 255
200 224 255
200 224 255
200 224 255
200 224 255
200 224 255
200 224 255
200 224 255
200 224 255
200 224 255
200 224 255
200 224 255
199 224 255
199 224 255
199 224 255
199 223 255
199 223 255
199 223 255
199 223 255
199 223 255
199 223 255
199 223 255
199 223 255
199 223 255
199 223 255
199 223 255
199 223 255
199 223 255
198 223 255
198 223 255
198 223 255
198 223 255
198 223 255
198 223 255
198 223 255
198 223 255
198 223 255
198 223 255
198 223 255
198 223 255
198 223 255
198 223 255
198 223 255
198 223 255
198 223 255
197 223 255
197 222 255
197 222 255
197 222 255
197 222 255
197 222 255
197 222 255
197 222 255
197 222 255
197 222 255
197 222 255
197 222 255
197 222 255
197 222 255
197 222 255
197 222 255
197 222 255
197 222 255
197 222 255
197 222 255
197 222 255
197 222 255
197 222 255
197 222 255
196 222 255
196 222 255
196 222 255
196 222 255
196 222 255
196 222 255
196 222 255
196 222 255
196 222 255
196 222 255
196 222 255
196 222 255
196 222 255
196 222 255
196 222 255
196 222 255
196 222 255
196 222 255
196 222 255
196 222 255
196 222 255
196 222 255
196 222 255
196 222 255
196 222 255
196 222 255
196 222 255
196 222 255
196 222 255
196 222 255
196 222 255
196 222 255
196 222 255
196 222 255
196 222 255
196 222 255
196 222 255
196 222 255
196 222 255
196 222 255
196 222 255
196 222 255
196 222 255
196 222 255
196 222 255
196 222 255
196 222 255
196 222 255
196 222 255
196 222 255
196 222 255
196 222 255
197 222 255
197 222 255
197 222 255
197 222 255
197 222 255
197 222 255
197 222 255
197 222 255
197 222 255
197 222 255
197 222 255
197 222 255
197 222 255
197 222 255
197 222 255
197 222 255
197 222 255
197 222 255
197 222 255
197 222 255
197 222 255
197 222 255
197 222 255
197 223 255
198 223 255
198 223 255
198 223 255
198 223 255
198 223 255
198 223 255
198 223 255
198 223 255
198 223 255
198 223 255
198 223 255
198 223 255
198 223 255
198 223 255
198 223 255
198 223 255
198 223 255
199 223 255
199 223 255
199 223 255
199 223 255
199 223 255
199 223 255
199 223 255
199 223 255
199 223 255
199 223 255
199 223 255
199 223 255
199 223 255
199 224 255
199 224 255
199 224 255
200 224 255
200 224 255
200 224 255
200 224 255
200 224 255
200 224 255
200 224 255
200 224 255
200 224 255
200 224 255
200 224 255
200 224 255
200 224 255
200 224 255
201 224 255
201 224 255
201 224 255
201 224 255
201 224 255
201 224 255
201 224 255
201 224 255
201 224 255
201 224 255
201 224 255
201 225 255
201 225 255
201 225 255
201 225 255
202 225 255
202 225 255
202 225 255
202 225 255
202 225 255
202 225 255
202 225 255
202 225 255
202 225 255
202 225 255
202 225 255
202 225 255
202 225 255
202 225 255
202 225 255
203 225 255
203 225 255
203 225 255
203 225 255
203 225 255
203 225 255
203 225 255
203 225 255
203 225 255
203 226 255
203 226 255
203 226 255
203 226 255
203 226 255
203 226 255
203 226 255
204 226 255
204 226 255
204 226 255
204 226 255
204 226 255
204 226 255
204 226 255
204 226 255
204 226 255
204 226 255
204 226 255
204 226 255
204 226 255
204 226 255
204 226 255
204 226 255
205 226 255
205 226 255
205 226 255
205 226 255
205 226 255
205 226 255
205 226 255
205 227 255
205 227 255
205 227 255
205 227 255
205 227 255
205 227 255
205 227 255
205 227 255
205 227 255
205 227 255
206 227 255
206 227 255
206 227 255
206 227 255
206 227 255
206 227 255
206 227 255
206 227 255
206 227 255
206 227 255
206 227 255
206 227 255
206 227 255
206 227 255
206 227 255
206 227 255
206 227 255
206 227 255
206 227 255
206 227 255
207 227 255
207 227 255
207 227 255
207 227 255
207 228 255
207 228 255
207 227 255
207 227 255
207 227 255
207 227 255
207 227 255
206 227 255
206 227 255
206 227 255
206 227 255
206 227 255
206 227 255
206 227 255
206 227 255
206 227 255
206 227 255
206 227 255
206 227 255
206 227 255
206 227 255
206 227 255
206 227 255
206 227 255
206 227 255
206 227 255
205 227 255
205 227 255
205 227 255
205 227 255
205 227 255
205 227 255
205 227 255
205 227 255
205 227 255
205 227 255
205 227 255
205 226 255
205 226 255
205 226 255
205 226 255
205 226 255
205 226 255
205 226 255
204 226 255
204 226 255
204 226 255
204 226 255
204 226 255
204 226 255
204 226 255
204 226 255
204 226 255
204 226 255
204 226 255
204 226 255
204 226 255
204 226 255
204 226 255
204 226 255
203 226 255
203 226 255
203 226 255
203 226 255
203 226 255
203 226 255
203 226 255
203 225 255
203 225 255
203 225 255
203 225 255
203 225 255
203 225 255
203 225 255
203 225 255
203 225 255
202 225 255
202 225 255
202 225 255
202 225 255
202 225 255
202 225 255
202 225 255
202 225 255
202 225 255
202 225 255
202 225 255
202 225 255
202 225 255
202 225 255
202 225 255
201 225 255
201 225 255
201 225 255
201 225 255
201 224 255
201 224 255
201 224 255
201 224 255
201 224 255
201 224 255
201 224 255
201 224 255
201 224 255
201 224 255
200 224 255
200 224 255
200 224 255
200 224 255
200 224 255
200 224 255
200 224 255
200 224 255
200 224 255
200 224 255
200 224 255
200 224 255
200 224 255
200 224 255
200 224 255
199 224 255
199 224 255
199 223 255
199 223 255
199 223 255
199 223 255
199 223 255
199 223 255
199 223 255
199 223 255
199 223 255
199 223 255
199 223 255
199 223 255
199 223 255
199 223 255
198 223 255
198 223 255
198 223 255
198 223 255
198 223 255
198 223 255
198 223 255
198 223 255
198 223 255
198 223 255
198 223 255
198 223 255
198 223 255
198 223 255
198 223 255
198 223 255
198 223 255
198 223 255
197 222 255
197 222 255
197 222 255
197 222 255
197 222 255
197 222 255
197 222 255
197 222 255
197 222 255
197 222 255
197 222 255
197 222 255
197 222 255
197 222 255
197 222 255
197 222 255
197 222 255
197 222 255
197 222 255
197 222 255
197 222 255
197 222 255
197 222 255
197 222 255
197 222 255
197 222 255
196 222 255
196 222 255
196 222 255
196 222 255
196 222 255
196 222 255
196 222 255
196 222 255
196 222 255
196 222 255
196 222 255
196 222 255
196 222 255
196 222 255
196 222 255
196 222 255
196 222 255
196 222 255
196 222 255
196 222 255
196 222 255
196 222 255
196 222 255
196 222 255
196 222 255
196 222 255
196 222 255
196 222 255
196 222 255
196 222 255
196 222 255
196 222 255
196 222 255
196 222 255
196 222 255
196 222 255
196 222 255
196 222 255
196 222 255
196 222 255
197 222 255
197 222 255
197 222 255
197 222 255
197 222 255
197 222 255
197 222 255
197 222 255
197 222 255
197 222 255
197 222 255
197 222 255
197 222 255
197 222 255
197 222 255
197 222 255
197 222 255
197 222 255
197 222 255
197 222 255
197 222 255
197 222 255
197 222 255
197 222 255
197 222 255
197 222 255
198 223 255
198 223 255
198 223 255
198 223 255
198 223 255
198 223 255
198 223 255
198 223 255
198 223 255
198 223 255
198 223 255
198 223 255
198 223 255
198 223 255
198 223 255
198 223 255
198 223 255
198 223 255
199 223 255
199 223 255
199 223 255
199 223 255
199 223 255
199 223 255
199 223 255
199 223 255
199 223 255
199 223 255
199 223 255
199 223 255
199 223 255
199 223 255
199 224 255
199 224 255
200 224 255
200 224 255
200 224 255
200 224 255
200 224 255
200 224 255
200 224 255
200 224 255
200 224 255
200 224 255
200 224 255
200 224 255
200 224 255
200 224 255
200 224 255
201 224 255
201 224 255
201 224 255
201 224 255
201 224 255
201 224 255
201 224 255
201 224 255
201 224 255
201 224 255
201 225 255
201 225 255
201 225 255
201 225 255
201 225 255
202 225 255
202 225 255
202 225 255
202 225 255
202 225 255
202 225 255
202 225 255
202 225 255
202 225 255
202 225 255
202 225 255
202 225 255
202 225 255
202 225 255
202 225 255
203 225 255
203 225 255
203 225 255
203 225 255
203 225 255
203 225 255
203 225 255
203 225 255
203 226 255
203 226 255
203 226 255
203 226 255
203 226 255
203 226 255
203 226 255
204 226 255
204 226 255
204 226 255
204 226 255
204 226 255
204 226 255
204 226 255
204 226 255
204 226 255
204 226 255
204 226 255
204 226 255
204 226 255
204 226 255
204 226 255
204 226 255
205 226 255
205 226 255
205 226 255
205 226 255
205 226 255
205 226 255
205 226 255
205 227 255
205 227 255
205 227 255
205 227 255
205 227 255
205 227 255
205 227 255
205 227 255
205 227 255
205 227 255
205 227 255
206 227 255
206 227 255
206 227 255
206 227 255
206 227 255
206 227 255
206 227 255
206 227 255
206 227 255
206 227 255
206 227 255
206 227 255
206 227 255
206 227 255
206 227 255
206 227 255
206 227 255
206 227 255
206 227 255
207 227 255
207 227 255
207 227 255
207 227 255
207 228 255
207 228 255
207 228 255
207 228 255
207 228 255
207 228 255
207 228 255
207 228 255
207 227 255
207 227 255
207 227 255
207 227 255
207 227 255
206 227 255
206 227 255
206 227 255
206 227 255
206 227 255
206 227 255
206 227 255
206 227 255
206 227 255
206 227 255
206 227 255
206 227 255
206 227 255
206 227 255
206 227 255
206 227 255
206 227 255
206 227 255
206 227 255
205 227 255
205 227 255
205 227 255
205 227 255
205 227 255
205 227 255
205 227 255
205 227 255
205 227 255
205 227 255
205 227 255
205 226 255
205 226 255
205 226 255
205 226 255
205 226 255
205 226 255
204 226 255
204 226 255
204 226 255
204 226 255
204 226 255
204 226 255
204 226 255
204 226 255
204 226 255
204 226 255
204 226 255
204 226 255
204 226 255
204 226 255
204 226 255
204 226 255
204 226 255
203 226 255
203 226 255
203 226 255
203 226 255
203 226 255
203 226 255
203 226 255
203 225 255
203 225 255
203 225 255
203 225 255
203 225 255
203 225 255
203 225 255
203 225 255
202 225 255
202 225 255
202 225 255
202 225 255
202 225 255
202 225 255
202 225 255
202 225 255
202 225 255
202 225 255
202 225 255
202 225 255
202 225 255
202 225 255
202 225 255
201 225 255
201 225 255
201 225 255
201 225 255
201 224 255
201 224 255
201 224 255
201 224 255
201 224 255
201 224 255
201 224 255
201 224 255
201 224 255
201 224 255
200 224 255
200 224 255
200 224 255
200 224 255
200 224 255
200 224 255
200 224 255
200 224 255
200 224 255
200 224 255
200 224 255
200 224 255
200 224 255
200 224 255
200 224 255
200 224 255
199 224 255
199 224 255
199 223 255
199 223 255
199 223 255
199 223 255
199 223 255
199 223 255
199 223 255
199 223 255
199 223 255
199 223 255
199 223 255
199 223 255
199 223 255
199 223 255
198 223 255
198 223 255
198 223 255
198 223 255
198 223 255
198 223 255
198 223 255
198 223 255
198 223 255
198 223 255
198 223 255
198 223 255
198 223 255
198 223 255
198 223 255
198 223 255
198 223 255
198 223 255
197 223 255
197 222 255
197 222 255
197 222 255
197 222 255
197 222 255
197 222 255
197 222 255
197 222 255
197 222 255
197 222 255
197 222 255
197 222 255
197 222 255
197 222 255
197 222 255
197 222 255
197 222 255
197 222 255
197 222 255
197 222 255
197 222 255
197 222 255
197 222 255
197 222 255
197 222 255
197 222 255
197 222 255
197 222 255
197 222 255
197 222 255
197 222 255
196 222 255
196 222 255
196 222 255
196 222 255
196 222 255
196 222 255
196 222 255
196 222 255
196 222 255
196 222 255
196 222 255
196 222 255
196 222 255
196 222 255
196 222 255
196 222 255
196 222 255
196 222 255
196 222 255
196 222 255
196 222 255
196 222 255
197 222 255
197 222 255
197 222 255
197 222 255
197 222 255
197 222 255
197 222 255
197 222 255
197 222 255
197 222 255
197 222 255
197 222 255
197 222 255
197 222 255
197 222 255
197 222 255
197 222 255
197 222 255
197 222 255
197 222 255
197 222 255
197 222 255
197 222 255
197 222 255
197 222 255
197 222 255
197 222 255
197 222 255
197 222 255
197 222 255
197 222 255
197 223 255
198 223 255
198 223 255
198 223 255
198 223 255
198 223 255
198 223 255
198 223 255
198 223 255
198 223 255
198 223 255
198 223 255
198 223 255
198 223 255
198 223 255
198 223 255
198 223 255
198 223 255
198 223 255
198 223 255
199 223 255
199 223 255
199 223 255
199 223 255
199 223 255
199 223 255
199 223 255
199 223 255
199 223 255
199 223 255
199 223 255
199 223 255
199 223 255
199 224 255
199 224 255
200 224 255
200 224 255
200 224 255
200 224 255
200 224 255
200 224 255
200 224 255
200 224 255
200 224 255
200 224 255
200 224 255
200 224 255
200 224 255
200 224 255
200 224 255
200 224 255
201 224 255
201 224 255
201 224 255
201 224 255
201 224 255
201 224 255
201 224 255
201 224 255
201 224 255
201 224 255
201 225 255
201 225 255
201 225 255
201 225 255
202 225 255
202 225 255
202 225 255
202 225 255
202 225 255
202 225 255
202 225 255
202 225 255
202 225 255
202 225 255
202 225 255
202 225 255
202 225 255
202 225 255
202 225 255
203 225 255
203 225 255
203 225 255
203 225 255
203 225 255
203 225 255
203 225 255
203 225 255
203 226 255
203 226 255
203 226 255
203 226 255
203 226 255
203 226 255
203 226 255
204 226 255
204 226 255
204 226 255
204 226 255
204 226 255
204 226 255
204 226 255
204 226 255
204 226 255
204 226 255
204 226 255
204 226 255
204 226 255
204 226 255
204 226 255
204 226 255
204 226 255
205 226 255
205 226 255
205 226 255
205 226 255
205 226 255
205 226 255
205 227 255
205 227 255
205 227 255
205 227 255
205 227 255
205 227 255
205 227 255
205 227 255
205 227 255
205 227 255
205 227 255
206 227 255
206 227 255
206 227 255
206 227 255
206 227 255
206 227 255
206 227 255
206 227 255
206 227 255
206 227 255
206 227 255
206 227 255
206 227 255
206 227 255
206 227 255
206 227 255
206 227 255
206 227 255
206 227 255
207 227 255
207 227 255
207 227 255
207 227 255
207 227 255
207 228 255
207 228 255
207 228 255
207 228 255
207 228 255
207 228 255
207 228 255
207 228 255
207 228 255
207 228 255
207 228 255
207 228 255
207 228 255
207 227 255
207 227 255
207 227 255
207 227 255
207 227 255
206 227 255
206 227 255
206 227 255
206 227 255
206 227 255
206 227 255
206 227 255
206 227 255
206 227 255
206 227 255
206 227 255
206 227 255
206 227 255
206 227 255
206 227 255
206 227 255
206 227 255
206 227 255
206 227 255
205 227 255
205 227 255
205 227 255
205 227 255
205 227 255
205 227 255
205 227 255
205 227 255
205 227 255
205 227 255
205 226 255
205 226 255
205 226 255
205 226 255
205 226 255
205 226 255
205 226 255
204 226 255
204 226 255
204 226 255
204 226 255
204 226 255
204 226 255
204 226 255
204 226 255
204 226 255
204 226 255
204 226 255
204 226 255
204 226 255
204 226 255
204 226 255
204 226 255
203 226 255
203 226 255
203 226 255
203 226 255
203 226 255
203 226 255
203 226 255
203 225 255
203 225 255
203 225 255
203 225 255
203 225 255
203 225 255
203 225 255
203 225 255
202 225 255
202 225 255
202 225 255
202 225 255
202 225 255
202 225 255
202 225 255
202 225 255
202 225 255
202 225 255
202 225 255
202 225 255
202 225 255
202 225 255
202 225 255
201 225 255
201 225 255
201 225 255
201 225 255
201 225 255
201 224 255
201 224 255
201 224 255
201 224 255
201 224 255
201 224 255
201 224 255
201 224 255
201 224 255
201 224 255
200 224 255
200 224 255
200 224 255
200 224 255
200 224 255
200 224 255
200 224 255
200 224 255
200 224 255
200 224 255
200 224 255
200 224 255
200 224 255
200 224 255
200 224 255
199 224 255
199 224 255
199 224 255
199 223 255
199 223 255
199 223 255
199 223 255
199 223 255
199 223 255
199 223 255
199 223 255
199 223 255
199 223 255
199 223 255
199 223 255
199 223 255
198 223 255
198 223 255
198 223 255
198 223 255
198 223 255
198 223 255
198 223 255
198 223 255
198 223 255
198 223 255
198 223 255
198 223 255
198 223 255
198 223 255
198 223 255
198 223 255
198 223 255
198 223 255
198 223 255
198 223 255
197 223 255
197 222 255
197 222 255
197 222 255
197 222 255
197 222 255
197 222 255
197 222 255
197 222 255
197 222 255
197 222 255
197 222 255
197 222 255
197 222 255
197 222 255
197 222 255
197 222 255
197 222 255
197 222 255
197 222 255
197 222 255
197 222 255
197 222 255
197 222 255
197 222 255
197 222 255
197 222 255
197 222 255
197 222 255
197 222 255
197 222 255
197 222 255
197 222 255
197 222 255
197 222 255
197 222 255
197 222 255
197 222 255
197 222 255
197 222 255
197 222 255
197 222 255
197 222 255
197 222 255
197 222 255
197 222 255
197 222 255
197 222 255
197 222 255
197 222 255
197 222 255
197 222 255
197 222 255
197 222 255
197 222 255
197 222 255
197 222 255
197 222 255
197 222 255
197 222 255
197 222 255
197 222 255
197 222 255
197 222 255
197 222 255
197 222 255
197 222 255
197 222 255
197 222 255
197 222 255
197 222 255
197 222 255
197 222 255
197 222 255
197 222 255
197 222 255
197 222 255
197 223 255
198 223 255
198 223 255
198 223 255
198 223 255
198 223 255
198 223 255
198 223 255
198 223 255
198 223 255
198 223 255
198 223 255
198 223 255
198 223 255
198 223 255
198 223 255
198 223 255
198 223 255
198 223 255
198 223 255
198 223 255
199 223 255
199 223 255
199 223 255
199 223 255
199 223 255
199 223 255
199 223 255
199 223 255
199 223 255
199 223 255
199 223 255
199 223 255
199 223 255
199 224 255
199 224 255
199 224 255
200 224 255
200 224 255
200 224 255
200 224 255
200 224 255
200 224 255
200 224 255
200 224 255
200 224 255
200 224 255
200 224 255
200 224 255
200 224 255
200 224 255
200 224 255
201 224 255
201 224 255
201 224 255
201 224 255
201 224 255
201 224 255
201 224 255
201 224 255
201 224 255
201 224 255
201 225 255
201 225 255
201 225 255
201 225 255
201 225 255
202 225 255
202 225 255
202 225 255
202 225 255
202 225 255
202 225 255
202 225 255
202 225 255
202 225 255
202 225 255
202 225 255
202 225 255
202 225 255
202 225 255
202 225 255
203 225 255
203 225 255
203 225 255
203 225 255
203 225 255
203 225 255
203 225 255
203 225 255
203 226 255
203 226 255
203 226 255
203 226 255
203 226 255
203 226 255
203 226 255
204 226 255
204 226 255
204 226 255
204 226 255
204 226 255
204 226 255
204 226 255
204 226 255
204 226 255
204 226 255
204 226 255
204 226 255
204 226 255
204 226 255
204 226 255
204 226 255
205 226 255
205 226 255
205 226 255
205 226 255
205 226 255
205 226 255
205 226 255
205 227 255
205 227 255
205 227 255
205 227 255
205 227 255
205 227 255
205 227 255
205 227 255
205 227 255
205 227 255
206 227 255
206 227 255
206 227 255
206 227 255
206 227 255
206 227 255
206 227 255
206 227 255
206 227 255
206 227 255
206 227 255
206 227 255
206 227 255
206 227 255
206 227 255
206 227 255
206 227 255
206 227 255
206 227 255
207 227 255
207 227 255
207 227 255
207 227 255
207 227 255
207 228 255
207 228 255
207 228 255
207 228 255
207 228 255
207 228 255
207 228 255
207 228 255
207 228 255
207 228 255
207 228 255
207 228 255
207 228 255
207 228 255
207 228 255
207 228 255
207 228 255
207 228 255
207 228 255
207 227 255
207 227 255
207 227 255
207 227 255
207 227 255
206 227 255
206 227 255
206 227 255
206 227 255
206 227 255
206 227 255
206 227 255
206 227 255
206 227 255
206 227 255
206 227 255
206 227 255
206 227 255
206 227 255
206 227 255
206 227 255
206 227 255
206 227 255
205 227 255
205 227 255
205 227 255
205 227 255
205 227 255
205 227 255
205 227 255
205 227 255
205 227 255
205 227 255
205 227 255
205 226 255
205 226 255
205 226 255
205 226 255
205 226 255
205 226 255
205 226 255
204 226 255
204 226 255
204 226 255
204 226 255
204 226 255
204 226 255
204 226 255
204 226 255
204 226 255
204 226 255
204 226 255
204 226 255
204 226 255
204 226 255
204 226 255
204 226 255
203 226 255
203 226 255
203 226 255
203 226 255
203 226 255
203 226 255
203 225 255
203 225 255
203 225 255
203 225 255
203 225 255
203 225 255
203 225 255
203 225 255
203 225 255
202 225 255
202 225 255
202 225 255
202 225 255
202 225 255
202 225 255
202 225 255
202 225 255
202 225 255
202 225 255
202 225 255
202 225 255
202 225 255
202 225 255
202 225 255
201 225 255
201 225 255
201 225 255
201 225 255
201 224 255
201 224 255
201 224 255
201 224 255
201 224 255
201 224 255
201 224 255
201 224 255
201 224 255
201 224 255
200 224 255
200 224 255
200 224 255
200 224 255
200 224 255
200 224 255
200 224 255
200 224 255
200 224 255
200 224 255
200 224 255
200 224 255
200 224 255
200 224 255
200 224 255
200 224 255
199 224 255
199 224 255
199 223 255
199 223 255
199 223 255
199 223 255
199 223 255
199 223 255
199 223 255
199 223 255
199 223 255
199 223 255
199 223 255
199 223 255
199 223 255
199 223 255
198 223 255
198 223 255
198 223 255
198 223 255
198 223 255
198 223 255
198 223 255
198 223 255
198 223 255
198 223 255
198 223 255
198 223 255
198 223 255
198 223 255
198 223 255
198 223 255
198 223 255
198 223 255
198 223 255
198 223 255
198 223 255
197 223 255
197 222 255
197 222 255
197 222 255
197 222 255
197 222 255
197 222 255
197 222 255
197 222 255
197 222 255
197 222 255
197 222 255
197 222 255
197 222 255
197 222 255
197 222 255
197 222 255
197 222 255
197 222 255
197 222 255
197 222 255
197 222 255
197 222 255
197 222 255
197 222 255
197 222 255
197 222 255
197 222 255
197 222 255
197 222 255
197 222 255
197 222 255
197 222 255
197 222 255
197 222 255
197 222 255
197 222 255
197 222 255
197 222 255
197 222 255
197 222 255
197 222 255
197 222 255
197 222 255
197 222 255
197 222 255
197 222 255
197 222 255
197 222 255
197 222 255
197 222 255
197 222 255
197 222 255
197 222 255
197 222 255
197 222 255
197 222 255
197 222 255
197 222 255
197 222 255
197 222 255
197 222 255
197 222 255
197 222 255
197 222 255
197 222 255
197 222 255
197 222 255
197 222 255
197 223 255
198 223 255
198 223 255
198 223 255
198 223 255
198 223 255
198 223 255
198 223 255
198 223 255
198 223 255
198 223 255
198 223 255
198 223 255
198 223 255
198 223 255
198 223 255
198 223 255
198 223 255
198 223 255
198 223 255
198 223 255
199 223 255
199 223 255
199 223 255
199 223 255
199 223 255
199 223 255
199 223 255
199 223 255
199 223 255
199 223 255
199 223 255
199 223 255
199 223 255
199 223 255
199 223 255
199 224 255
199 224 255
200 224 255
200 224 255
200 224 255
200 224 255
200 224 255
200 224 255
200 224 255
200 224 255
200 224 255
200 224 255
200 224 255
200 224 255
200 224 255
200 224 255
200 224 255
201 224 255
201 224 255
201 224 255
201 224 255
201 224 255
201 224 255
201 224 255
201 224 255
201 224 255
201 224 255
201 224 255
201 225 255
201 225 255
201 225 255
201 225 255
202 225 255
202 225 255
202 225 255
202 225 255
202 225 255
202 225 255
202 225 255
202 225 255
202 225 255
202 225 255
202 225 255
202 225 255
202 225 255
202 225 255
202 225 255
203 225 255
203 225 255
203 225 255
203 225 255
203 225 255
203 225 255
203 225 255
203 225 255
203 225 255
203 226 255
203 226 255
203 226 255
203 226 255
203 226 255
203 226 255
204 226 255
204 226 255
204 226 255
204 226 255
204 226 255
204 226 255
204 226 255
204 226 255
204 226 255
204 226 255
204 226 255
204 226 255
204 226 255
204 226 255
204 226 255
204 226 255
204 226 255
205 226 255
205 226 255
205 226 255
205 226 255
205 226 255
205 226 255
205 227 255
205 227 255
205 227 255
205 227 255
205 227 255
205 227 255
205 227 255
205 227 255
205 227 255
205 227 255
205 227 255
206 227 255
206 227 255
206 227 255
206 227 255
206 227 255
206 227 255
206 227 255
206 227 255
206 227 255
206 227 255
206 227 255
206 227 255
206 227 255
206 227 255
206 227 255
206 227 255
206 227 255
206 227 255
207 227 255
207 227 255
207 227 255
207 227 255
207 227 255
207 228 255
207 228 255
207 228 255
207 228 255
207 228 255
207 228 255
207 228 255
207 228 255
207 228 255
207 228 255
207 228 255
207 228 255
207 228 255
207 228 255
207 228 255
207 228 255
207 228 255
207 228 255
207 228 255
207 228 255
207 228 255
207 228 255
207 228 255
207 228 255
207 228 255
207 227 255
207 227 255
207 227 255
207 227 255
206 227 255
206 227 255
206 227 255
206 227 255
206 227 255
206 227 255
206 227 255
206 227 255
206 227 255
206 227 255
206 227 255
206 227 255
206 227 255
206 227 255
206 227 255
206 227 255
206 227 255
206 227 255
206 227 255
205 227 255
205 227 255
205 227 255
205 227 255
205 227 255
205 227 255
205 227 255
205 227 255
205 227 255
205 227 255
205 226 255
205 226 255
205 226 255
205 226 255
205 226 255
205 226 255
205 226 255
204 226 255
204 226 255
204 226 255
204 226 255
204 226 255
204 226 255
204 226 255
204 226 255
204 226 255
204 226 255
204 226 255
204 226 255
204 226 255
204 226 255
204 226 255
204 226 255
203 226 255
203 226 255
203 226 255
203 226 255
203 226 255
203 226 255
203 226 255
203 225 255
203 225 255
203 225 255
203 225 255
203 225 255
203 225 255
203 225 255
203 225 255
202 225 255
202 225 255
202 225 255
202 225 255
202 225 255
202 225 255
202 225 255
202 225 255
202 225 255
202 225 255
202 225 255
202 225 255
202 225 255
202 225 255
202 225 255
201 225 255
201 225 255
201 225 255
201 225 255
201 225 255
201 224 255
201 224 255
201 224 255
201 224 255
201 224 255
201 224 255
201 224 255
201 224 255
201 224 255
201 224 255
200 224 255
200 224 255
200 224 255
200 224 255
200 224 255
200 224 255
200 224 255
200 224 255
200 224 255
200 224 255
200 224 255
200 224 255
200 224 255
200 224 255
200 224 255
200 224 255
199 224 255
199 224 255
199 223 255
199 223 255
199 223 255
199 223 255
199 223 255
199 223 255
199 223 255
199 223 255
199 223 255
199 223 255
199 223 255
199 223 255
199 223 255
199 223 255
199 223 255
198 223 255
198 223 255
198 223 255
198 223 255
198 223 255
198 223 255
198 223 255
198 223 255
198 223 255
198 223 255
198 223 255
198 223 255
198 223 255
198 223 255
198 223 255
198 223 255
198 223 255
198 223 255
198 223 255
198 223 255
198 223 255
198 223 255
197 223 255
197 222 255
197 222 255
197 222 255
197 222 255
197 222 255
197 222 255
197 222 255
197 222 255
197 222 255
197 222 255
197 222 255
197 222 255
197 222 255
197 222 255
197 222 255
197 222 255
197 222 255
197 222 255
197 222 255
197 222 255
197 222 255
197 222 255
197 222 255
197 222 255
197 222 255
197 222 255
197 222 255
197 222 255
197 222 255
197 222 255
197 222 255
197 222 255
197 222 255
197 222 255
197 222 255
197 222 255
197 222 255
197 222 255
197 222 255
197 222 255
197 222 255
197 222 255
197 222 255
197 222 255
197 222 255
197 222 255
197 222 255
197 222 255
197 222 255
197 222 255
197 222 255
197 222 255
197 222 255
197 222 255
197 222 255
197 222 255
197 222 255
197 222 255
197 223 255
198 223 255
198 223 255
198 223 255
198 223 255
198 223 255
198 223 255
198 223 255
198 223 255
198 223 255
198 223 255
198 223 255
198 223 255
198 223 255
198 223 255
198 223 255
198 223 255
198 223 255
198 223 255
198 223 255
198 223 255
198 223 255
198 223 255
199 223 255
199 223 255
199 223 255
199 223 255
199 223 255
199 223 255
199 223 255
199 223 255
199 223 255
199 223 255
199 223 255
199 223 255
199 223 255
199 223 255
199 223 255
199 224 255
199 224 255
200 224 255
200 224 255
200 224 255
200 224 255
200 224 255
200 224 255
200 224 255
200 224 255
200 224 255
200 224 255
200 224 255
200 224 255
200 224 255
200 224 255
200 224 255
200 224 255
201 224 255
201 224 255
201 224 255
201 224 255
201 224 255
201 224 255
201 224 255
201 224 255
201 224 255
201 224 255
201 225 255
201 225 255
201 225 255
201 225 255
201 225 255
202 225 255
202 225 255
202 225 255
202 225 255
202 225 255
202 225 255
202 225 255
202 225 255
202 225 255
202 225 255
202 225 255
202 225 255
202 225 255
202 225 255
202 225 255
203 225 255
203 225 255
203 225 255
203 225 255
203 225 255
203 225 255
203 225 255
203 225 255
203 226 255
203 226 255
203 226 255
203 226 255
203 226 255
203 226 255
203 226 255
204 226 255
204 226 255
204 226 255
204 226 255
204 226 255
204 226 255
204 226 255
204 226 255
204 226 255
204 226 255
204 226 255
204 226 255
204 226 255
204 226 255
204 226 255
204 226 255
205 226 255
205 226 255
205 226 255
205 226 255
205 226 255
205 226 255
205 226 255
205 227 255
205 227 255
205 227 255
205 227 255
205 227 255
205 227 255
205 227 255
205 227 255
205 227 255
205 227 255
206 227 255
206 227 255
206 227 255
206 227 255
206 227 255
206 227 255
206 227 255
206 227 255
206 227 255
206 227 255
206 227 255
206 227 255
206 227 255
206 227 255
206 227 255
206 227 255
206 227 255
206 227 255
206 227 255
207 227 255
207 227 255
207 227 255
207 227 255
207 228 255
207 228 255
207 228 255
207 228 255
207 228 255
207 228 255
207 228 255
207 228 255
207 228 255
207 228 255
207 228 255
207 228 255
207 228 255
207 228 255
208 228 255
207 228 255
207 228 255
207 228 255
207 228 255
207 228 255
207 228 255
207 228 255
207 228 255
207 228 255
207 228 255
207 228 255
207 228 255
207 228 255
207 228 255
207 228 255
207 228 255
207 227 255
207 227 255
207 227 255
207 227 255
206 227 255
206 227 255
206 227 255
206 227 255
206 227 255
206 227 255
206 227 255
206 227 255
206 227 255
206 227 255
206 227 255
206 227 255
206 227 255
206 227 255
206 227 255
206 227 255
206 227 255
206 227 255
206 227 255
205 227 255
205 227 255
205 227 255
205 227 255
205 227 255
205 227 255
205 227 255
205 227 255
205 227 255
205 227 255
205 226 255
205 226 255
205 226 255
205 226 255
205 226 255
205 226 255
205 226 255
204 226 255
204 226 255
204 226 255
204 226 255
204 226 255
204 226 255
204 226 255
204 226 255
204 226 255
204 226 255
204 226 255
204 226 255
204 226 255
204 226 255
204 226 255
204 226 255
203 226 255
203 226 255
203 226 255
203 226 255
203 226 255
203 226 255
203 226 255
203 225 255
203 225 255
203 225 255
203 225 255
203 225 255
203 225 255
203 225 255
203 225 255
202 225 255
202 225 255
202 225 255
202 225 255
202 225 255
202 225 255
202 225 255
202 225 255
202 225 255
202 225 255
202 225 255
202 225 255
202 225 255
202 225 255
202 225 255
201 225 255
201 225 255
201 225 255
201 225 255
201 224 255
201 224 255
201 224 255
201 224 255
201 224 255
201 224 255
201 224 255
201 224 255
201 224 255
201 224 255
201 224 255
200 224 255
200 224 255
200 224 255
200 224 255
200 224 255
200 224 255
200 224 255
200 224 255
200 224 255
200 224 255
200 224 255
200 224 255
200 224 255
200 224 255
200 224 255
200 224 255
199 224 255
199 224 255
199 223 255
199 223 255
199 223 255
199 223 255
199 223 255
199 223 255
199 223 255
199 223 255
199 223 255
199 223 255
199 223 255
199 223 255
199 223 255
199 223 255
199 223 255
198 223 255
198 223 255
198 223 255
198 223 255
198 223 255
198 223 255
198 223 255
198 223 255
198 223 255
198 223 255
198 223 255
198 223 255
198 223 255
198 223 255
198 223 255
198 223 255
198 223 255
198 223 255
198 223 255
198 223 255
198 223 255
198 223 255
198 223 255
198 223 255
197 223 255
197 222 255
197 222 255
197 222 255
197 222 255
197 222 255
197 222 255
197 222 255
197 222 255
197 222 255
197 222 255
197 222 255
197 222 255
197 222 255
197 222 255
197 222 255
197 222 255
197 222 255
197 222 255
197 222 255
197 222 255
197 222 255
197 222 255
197 222 255
197 222 255
197 222 255
197 222 255
197 222 255
197 222 255
197 222 255
197 222 255
197 222 255
197 222 255
197 222 255
197 222 255
197 222 255
197 222 255
197 222 255
197 222 255
197 222 255
197 222 255
197 222 255
197 222 255
197 222 255
197 222 255
197 222 255
197 222 255
197 222 255
197 222 255
197 223 255
198 223 255
198 223 255
198 223 255
198 223 255
198 223 255
198 223 255
198 223 255
198 223 255
198 223 255
198 223 255
198 223 255
198 223 255
198 223 255
198 223 255
198 223 255
198 223 255
198 223 255
198 223 255
198 223 255
198 223 255
198 223 255
198 223 255
198 223 255
198 223 255
199 223 255
199 223 255
199 223 255
199 223 255
199 223 255
199 223 255
199 223 255
199 223 255
199 223 255
199 223 255
199 223 255
199 223 255
199 223 255
199 223 255
199 223 255
199 224 255
199 224 255
199 224 255
200 224 255
200 224 255
200 224 255
200 224 255
200 224 255
200 224 255
200 224 255
200 224 255
200 224 255
200 224 255
200 224 255
200 224 255
200 224 255
200 224 255
200 224 255
201 224 255
201 224 255
201 224 255
201 224 255
201 224 255
201 224 255
201 224 255
201 224 255
201 224 255
201 224 255
201 224 255
201 225 255
201 225 255
201 225 255
201 225 255
202 225 255
202 225 255
202 225 255
202 225 255
202 225 255
202 225 255
202 225 255
202 225 255
202 225 255
202 225 255
202 225 255
202 225 255
202 225 255
202 225 255
202 225 255
203 225 255
203 225 255
203 225 255
203 225 255
203 225 255
203 225 255
203 225 255
203 225 255
203 226 255
203 226 255
203 226 255
203 226 255
203 226 255
203 226 255
203 226 255
204 226 255
204 226 255
204 226 255
204 226 255
204 226 255
204 226 255
204 226 255
204 226 255
204 226 255
204 226 255
204 226 255
204 226 255
204 226 255
204 226 255
204 226 255
204 226 255
205 226 255
205 226 255
205 226 255
205 226 255
205 226 255
205 226 255
205 226 255
205 227 255
205 227 255
205 227 255
205 227 255
205 227 255
205 227 255
205 227 255
205 227 255
205 227 255
205 227 255
206 227 255
206 227 255
206 227 255
206 227 255
206 227 255
206 227 255
206 227 255
206 227 255
206 227 255
206 227 255
206 227 255
206 227 255
206 227 255
206 227 255
206 227 255
206 227 255
206 227 255
206 227 255
206 227 255
207 227 255
207 227 255
207 227 255
207 227 255
207 227 255
207 228 255
207 228 255
207 228 255
207 228 255
207 228 255
207 228 255
207 228 255
207 228 255
207 228 255
207 228 255
207 228 255
207 228 255
207 228 255
207 228 255
207 228 255
208 228 255
208 228 255
208 228 255
208 228 255
208 228 255
207 228 255
207 228 255
207 228 255
207 228 255
207 228 255
207 228 255
207 228 255
207 228 255
207 228 255
207 228 255
207 228 255
207 228 255
207 228 255
207 228 255
207 228 255
207 227 255
207 227 255
207 227 255
207 227 255
207 227 255
206 227 255
206 227 255
206 227 255
206 227 255
206 227 255
206 227 255
206 227 255
206 227 255
206 227 255
206 227 255
206 227 255
206 227 255
206 227 255
206 227 255
206 227 255
206 227 255
206 227 255
206 227 255
205 227 255
205 227 255
205 227 255
205 227 255
205 227 255
205 227 255
205 227 255
205 227 255
205 227 255
205 227 255
205 227 255
205 226 255
205 226 255
205 226 255
205 226 255
205 226 255
205 226 255
204 226 255
204 226 255
204 226 255
204 226 255
204 226 255
204 226 255
204 226 255
204 226 255
204 226 255
204 226 255
204 226 255
204 226 255
204 226 255
204 226 255
204 226 255
204 226 255
203 226 255
203 226 255
203 226 255
203 226 255
203 226 255
203 226 255
203 226 255
203 225 255
203 225 255
203 225 255
203 225 255
203 225 255
203 225 255
203 225 255
203 225 255
202 225 255
202 225 255
202 225 255
202 225 255
202 225 255
202 225 255
202 225 255
202 225 255
202 225 255
202 225 255
202 225 255
202 225 255
202 225 255
202 225 255
202 225 255
202 225 255
201 225 255
201 225 255
201 225 255
201 225 255
201 224 255
201 224 255
201 224 255
201 224 255
201 224 255
201 224 255
201 224 255
201 224 255
201 224 255
201 224 255
201 224 255
200 224 255
200 224 255
200 224 255
200 224 255
200 224 255
200 224 255
200 224 255
200 224 255
200 224 255
200 224 255
200 224 255
200 224 255
200 224 255
200 224 255
200 224 255
199 224 255
199 224 255
199 224 255
199 223 255
199 223 255
199 223 255
199 223 255
199 223 255
199 223 255
199 223 255
199 223 255
199 223 255
199 223 255
199 223 255
199 223 255
199 223 255
199 223 255
199 223 255
199 223 255
198 223 255
198 223 255
198 223 255
198 223 255
198 223 255
198 223 255
198 223 255
198 223 255
198 223 255
198 223 255
198 223 255
198 223 255
198 223 255
198 223 255
198 223 255
198 223 255
198 223 255
198 223 255
198 223 255
198 223 255
198 223 255
198 223 255
198 223 255
198 223 255
198 223 255
198 223 255
198 223 255
198 223 255
197 223 255
197 222 255
197 222 255
197 222 255
197 222 255
197 222 255
197 222 255
197 222 255
197 222 255
197 222 255
197 222 255
197 222 255
197 222 255
197 222 255
197 222 255
197 222 255
197 222 255
197 222 255
197 222 255
197 222 255
197 222 255
197 222 255
197 222 255
197 222 255
197 222 255
197 222 255
197 222 255
197 222 255
197 222 255
197 222 255
197 222 255
197 222 255
197 222 255
197 223 255
197 223 255
198 223 255
198 223 255
198 223 255
198 223 255
198 223 255
198 223 255
198 223 255
198 223 255
198 223 255
198 223 255
198 223 255
198 223 255
198 223 255
198 223 255
198 223 255
198 223 255
198 223 255
198 223 255
198 223 255
198 223 255
198 223 255
198 223 255
198 223 255
198 223 255
198 223 255
198 223 255
198 223 255
199 223 255
199 223 255
199 223 255
199 223 255
199 223 255
199 223 255
199 223 255
199 223 255
199 223 255
199 223 255
199 223 255
199 223 255
199 223 255
199 223 255
199 223 255
199 223 255
199 224 255
199 224 255
199 224 255
200 224 255
200 224 255
200 224 255
200 224 255
200 224 255
200 224 255
200 224 255
200 224 255
200 224 255
200 224 255
200 224 255
200 224 255
200 224 255
200 224 255
200 224 255
201 224 255
201 224 255
201 224 255
201 224 255
201 224 255
201 224 255
201 224 255
201 224 255
201 224 255
201 224 255
201 224 255
201 225 255
201 225 255
201 225 255
201 225 255
202 225 255
202 225 255
202 225 255
202 225 255
202 225 255
202 225 255
202 225 255
202 225 255
202 225 255
202 225 255
202 225 255
202 225 255
202 225 255
202 225 255
202 225 255
203 225 255
203 225 255
203 225 255
203 225 255
203 225 255
203 225 255
203 225 255
203 225 255
203 225 255
203 226 255
203 226 255
203 226 255
203 226 255
203 226 255
203 226 255
203 226 255
204 226 255
204 226 255
204 226 255
204 226 255
204 226 255
204 226 255
204 226 255
204 226 255
204 226 255
204 226 255
204 226 255
204 226 255
204 226 255
204 226 255
204 226 255
204 226 255
205 226 255
205 226 255
205 226 255
205 226 255
205 226 255
205 226 255
205 227 255
205 227 255
205 227 255
205 227 255
205 227 255
205 227 255
205 227 255
205 227 255
205 227 255
205 227 255
206 227 255
206 227 255
206 227 255
206 227 255
206 227 255
206 227 255
206 227 255
206 227 255
206 227 255
206 227 255
206 227 255
206 227 255
206 227 255
206 227 255
206 227 255
206 227 255
206 227 255
206 227 255
206 227 255
207 227 255
207 227 255
207 227 255
207 227 255
207 227 255
207 228 255
207 228 255
207 228 255
207 228 255
207 228 255
207 228 255
207 228 255
207 228 255
207 228 255
207 228 255
207 228 255
207 228 255
207 228 255
207 228 255
207 228 255
208 228 255
208 228 255
208 228 255
208 228 255
208 228 255
208 228 255
208 228 255
208 228 255
208 228 255
208 228 255
208 228 255
207 228 255
207 228 255
207 228 255
207 228 255
207 228 255
207 228 255
207 228 255
207 228 255
207 228 255
207 228 255
207 228 255
207 228 255
207 228 255
207 228 255
207 228 255
207 228 255
207 227 255
207 227 255
207 227 255
207 227 255
206 227 255
206 227 255
206 227 255
206 227 255
206 227 255
206 227 255
206 227 255
206 227 255
206 227 255
206 227 255
206 227 255
206 227 255
206 227 255
206 227 255
206 227 255
206 227 255
206 227 255
206 227 255
205 227 255
205 227 255
205 227 255
205 227 255
205 227 255
205 227 255
205 227 255
205 227 255
205 227 255
205 227 255
205 226 255
205 226 255
205 226 255
205 226 255
205 226 255
205 226 255
205 226 255
204 226 255
204 226 255
204 226 255
204 226 255
204 226 255
204 226 255
204 226 255
204 226 255
204 226 255
204 226 255
204 226 255
204 226 255
204 226 255
204 226 255
204 226 255
204 226 255
203 226 255
203 226 255
203 226 255
203 226 255
203 226 255
203 226 255
203 226 255
203 225 255
203 225 255
203 225 255
203 225 255
203 225 255
203 225 255
203 225 255
203 225 255
202 225 255
202 225 255
202 225 255
202 225 255
202 225 255
202 225 255
202 225 255
202 225 255
202 225 255
202 225 255
202 225 255
202 225 255
202 225 255
202 225 255
202 225 255
201 225 255
201 225 255
201 225 255
201 225 255
201 225 255
201 224 255
201 224 255
201 224 255
201 224 255
201 224 255
201 224 255
201 224 255
201 224 255
201 224 255
201 224 255
200 224 255
200 224 255
200 224 255
200 224 255
200 224 255
200 224 255
200 224 255
200 224 255
200 224 255
200 224 255
200 224 255
200 224 255
200 224 255
200 224 255
200 224 255
200 224 255
199 224 255
199 224 255
199 224 255
199 223 255
199 223 255
199 223 255
199 223 255
199 223 255
199 223 255
199 223 255
199 223 255
199 223 255
199 223 255
199 223 255
199 223 255
199 223 255
199 223 255
199 223 255
199 223 255
199 223 255
198 223 255
198 223 255
198 223 255
198 223 255
198 223 255
198 223 255
198 223 255
198 223 255
198 223 255
198 223 255
198 223 255
198 223 255
198 223 255
198 223 255
198 223 255
198 223 255
198 223 255
198 223 255
198 223 255
198 223 255
198 223 255
198 223 255
198 223 255
198 223 255
198 223 255
198 223 255
198 223 255
198 223 255
198 223 255
198 223 255
198 223 255
198 223 255
198 223 255
198 223 255
198 223 255
198 223 255
198 223 255
198 223 255
197 223 255
197 223 255
198 223 255
197 223 255
198 223 255
198 223 255
197 223 255
198 223 255
198 223 255
198 223 255
198 223 255
198 223 255
198 223 255
198 223 255
198 223 255
198 223 255
198 223 255
198 223 255
198 223 255
198 223 255
198 223 255
198 223 255
198 223 255
198 223 255
198 223 255
198 223 255
198 223 255
198 223 255
198 223 255
198 223 255
198 223 255
198 223 255
198 223 255
198 223 255
198 223 255
198 223 255
198 223 255
198 223 255
198 223 255
198 223 255
198 223 255
198 223 255
198 223 255
198 223 255
199 223 255
199 223 255
199 223 255
199 223 255
199 223 255
199 223 255
199 223 255
199 223 255
199 223 255
199 223 255
199 223 255
199 223 255
199 223 255
199 223 255
199 223 255
199 223 255
199 223 255
199 224 255
199 224 255
200 224 255
200 224 255
200 224 255
200 224 255
200 224 255
200 224 255
200 224 255
200 224 255
200 224 255
200 224 255
200 224 255
200 224 255
200 224 255
200 224 255
200 224 255
200 224 255
200 224 255
201 224 255
201 224 255
201 224 255
201 224 255
201 224 255
201 224 255
201 224 255
201 224 255
201 224 255
201 224 255
201 225 255
201 225 255
201 225 255
201 225 255
201 225 255
202 225 255
202 225 255
202 225 255
202 225 255
202 225 255
202 225 255
202 225 255
202 225 255
202 225 255
202 225 255
202 225 255
202 225 255
202 225 255
202 225 255
202 225 255
203 225 255
203 225 255
203 225 255
203 225 255
203 225 255
203 225 255
203 225 255
203 225 255
203 226 255
203 226 255
203 226 255
203 226 255
203 226 255
203 226 255
203 226 255
204 226 255
204 226 255
204 226 255
204 226 255
204 226 255
204 226 255
204 226 255
204 226 255
204 226 255
204 226 255
204 226 255
204 226 255
204 226 255
204 226 255
204 226 255
204 226 255
205 226 255
205 226 255
205 226 255
205 226 255
205 226 255
205 226 255
205 226 255
205 227 255
205 227 255
205 227 255
205 227 255
205 227 255
205 227 255
205 227 255
205 227 255
205 227 255
205 227 255
206 227 255
206 227 255
206 227 255
206 227 255
206 227 255
206 227 255
206 227 255
206 227 255
206 227 255
206 227 255
206 227 255
206 227 255
206 227 255
206 227 255
206 227 255
206 227 255
206 227 255
206 227 255
207 227 255
207 227 255
207 227 255
207 227 255
207 227 255
207 228 255
207 228 255
207 228 255
207 228 255
207 228 255
207 228 255
207 228 255
207 228 255
207 228 255
207 228 255
207 228 255
207 228 255
207 228 255
207 228 255
207 228 255
208 228 255
208 228 255
208 228 255
208 228 255
208 228 255
208 228 255
208 228 255
208 228 255
208 228 255
208 228 255
208 228 255
208 228 255
208 228 255
208 228 255
208 228 255
208 228 255
208 228 255
207 228 255
207 228 255
207 228 255
207 228 255
207 228 255
207 228 255
207 228 255
207 228 255
207 228 255
207 228 255
207 228 255
207 228 255
207 228 255
207 228 255
207 228 255
207 227 255
207 227 255
207 227 255
207 227 255
207 227 255
206 227 255
206 227 255
206 227 255
206 227 255
206 227 255
206 227 255
206 227 255
206 227 255
206 227 255
206 227 255
206 227 255
206 227 255
206 227 255
206 227 255
206 227 255
206 227 255
206 227 255
206 227 255
205 227 255
205 227 255
205 227 255
205 227 255
205 227 255
205 227 255
205 227 255
205 227 255
205 227 255
205 227 255
205 226 255
205 226 255
205 226 255
205 226 255
205 226 255
205 226 255
205 226 255
204 226 255
204 226 255
204 226 255
204 226 255
204 226 255
204 226 255
204 226 255
204 226 255
204 226 255
204 226 255
204 226 255
204 226 255
204 226 255
204 226 255
204 226 255
204 226 255
203 226 255
203 226 255
203 226 255
203 226 255
203 226 255
203 226 255
203 225 255
203 225 255
203 225 255
203 225 255
203 225 255
203 225 255
203 225 255
203 225 255
203 225 255
202 225 255
202 225 255
202 225 255
202 225 255
202 225 255
202 225 255
202 225 255
202 225 255
202 225 255
202 225 255
202 225 255
202 225 255
202 225 255
202 225 255
202 225 255
201 225 255
201 225 255
201 225 255
201 225 255
201 224 255
201 224 255
201 224 255
201 224 255
201 224 255
201 224 255
201 224 255
201 224 255
201 224 255
201 224 255
201 224 255
200 224 255
200 224 255
200 224 255
200 224 255
200 224 255
200 224 255
200 224 255
200 224 255
200 224 255
200 224 255
200 224 255
200 224 255
200 224 255
200 224 255
200 224 255
200 224 255
200 224 255
199 224 255
199 224 255
199 224 255
199 223 255
199 223 255
199 223 255
199 223 255
199 223 255
199 223 255
199 223 255
199 223 255
199 223 255
199 223 255
199 223 255
199 223 255
199 223 255
199 223 255
199 223 255
199 223 255
199 223 255
198 223 255
198 223 255
198 223 255
198 223 255
198 223 255
198 223 255
198 223 255
198 223 255
198 223 255
198 223 255
198 223 255
198 223 255
198 223 255
198 223 255
198 223 255
198 223 255
198 223 255
198 223 255
198 223 255
198 223 255
198 223 255
198 223 255
198 223 255
198 223 255
198 223 255
198 223 255
198 223 255
198 223 255
198 223 255
198 223 255
198 223 255
198 223 255
198 223 255
198 223 255
198 223 255
198 223 255
198 223 255
198 223 255
198 223 255
198 223 255
198 223 255
198 223 255
198 223 255
198 223 255
198 223 255
198 223 255
198 223 255
198 223 255
198 223 255
198 223 255
198 223 255
198 223 255
198 223 255
198 223 255
198 223 255
198 223 255
198 223 255
198 223 255
198 223 255
198 223 255
198 223 255
198 223 255
198 223 255
198 223 255
198 223 255
198 223 255
198 223 255
198 223 255
198 223 255
198 223 255
198 223 255
198 223 255
198 223 255
198 223 255
199 223 255
199 223 255
199 223 255
199 223 255
199 223 255
199 223 255
199 223 255
199 223 255
199 223 255
199 223 255
199 223 255
199 223 255
199 223 255
199 223 255
199 223 255
199 223 255
199 223 255
199 224 255
199 224 255
199 224 255
200 224 255
200 224 255
200 224 255
200 224 255
200 224 255
200 224 255
200 224 255
200 224 255
200 224 255
200 224 255
200 224 255
200 224 255
200 224 255
200 224 255
200 224 255
200 224 255
200 224 255
201 224 255
201 224 255
201 224 255
201 224 255
201 224 255
201 224 255
201 224 255
201 224 255
201 224 255
201 224 255
201 224 255
201 225 255
201 225 255
201 225 255
201 225 255
202 225 255
202 225 255
202 225 255
202 225 255
202 225 255
202 225 255
202 225 255
202 225 255
202 225 255
202 225 255
202 225 255
202 225 255
202 225 255
202 225 255
202 225 255
203 225 255
203 225 255
203 225 255
203 225 255
203 225 255
203 225 255
203 225 255
203 225 255
203 225 255
203 226 255
203 226 255
203 226 255
203 226 255
203 226 255
203 226 255
204 226 255
204 226 255
204 226 255
204 226 255
204 226 255
204 226 255
204 226 255
204 226 255
204 226 255
204 226 255
204 226 255
204 226 255
204 226 255
204 226 255
204 226 255
204 226 255
205 226 255
205 226 255
205 226 255
205 226 255
205 226 255
205 226 255
205 226 255
205 227 255
205 227 255
205 227 255
205 227 255
205 227 255
205 227 255
205 227 255
205 227 255
205 227 255
205 227 255
206 227 255
206 227 255
206 227 255
206 227 255
206 227 255
206 227 255
206 227 255
206 227 255
206 227 255
206 227 255
206 227 255
206 227 255
206 227 255
206 227 255
206 227 255
206 227 255
206 227 255
206 227 255
207 227 255
207 227 255
207 227 255
207 227 255
207 227 255
207 228 255
207 228 255
207 228 255
207 228 255
207 228 255
207 228 255
207 228 255
207 228 255
207 228 255
207 228 255
207 228 255
207 228 255
207 228 255
207 228 255
207 228 255
208 228 255
208 228 255
208 228 255
208 228 255
208 228 255
208 228 255
208 228 255
208 228 255
208 228 255
208 228 255
208 228 255
208 228 255
208 228 255
208 228 255
208 228 255
208 228 255
208 228 255
208 228 255
208 228 255
208 228 255
208 228 255
208 228 255
208 228 255
207 228 255
207 228 255
207 228 255
207 228 255
207 228 255
207 228 255
207 228 255
207 228 255
207 228 255
207 228 255
207 228 255
207 228 255
207 228 255
207 228 255
207 228 255
207 227 255
207 227 255
207 227 255
207 227 255
207 227 255
206 227 255
206 227 255
206 227 255
206 227 255
206 227 255
206 227 255
206 227 255
206 227 255
206 227 255
206 227 255
206 227 255
206 227 255
206 227 255
206 227 255
206 227 255
206 227 255
206 227 255
206 227 255
205 227 255
205 227 255
205 227 255
205 227 255
205 227 255
205 227 255
205 227 255
205 227 255
205 227 255
205 227 255
205 226 255
205 226 255
205 226 255
205 226 255
205 226 255
205 226 255
204 226 255
204 226 255
204 226 255
204 226 255
204 226 255
204 226 255
204 226 255
204 226 255
204 226 255
204 226 255
204 226 255
204 226 255
204 226 255
204 226 255
204 226 255
204 226 255
203 226 255
203 226 255
203 226 255
203 226 255
203 226 255
203 226 255
203 226 255
203 225 255
203 225 255
203 225 255
203 225 255
203 225 255
203 225 255
203 225 255
203 225 255
202 225 255
202 225 255
202 225 255
202 225 255
202 225 255
202 225 255
202 225 255
202 225 255
202 225 255
202 225 255
202 225 255
202 225 255
202 225 255
202 225 255
202 225 255
202 225 255
201 225 255
201 225 255
201 225 255
201 225 255
201 224 255
201 224 255
201 224 255
201 224 255
201 224 255
201 224 255
201 224 255
201 224 255
201 224 255
201 224 255
201 224 255
200 224 255
200 224 255
200 224 255
200 224 255
200 224 255
200 224 255
200 224 255
200 224 255
200 224 255
200 224 255
200 224 255
200 224 255
200 224 255
200 224 255
200 224 255
200 224 255
200 224 255
199 224 255
199 224 255
199 224 255
199 223 255
199 223 255
199 223 255
199 223 255
199 223 255
199 223 255
199 223 255
199 223 255
199 223 255
199 223 255
199 223 255
199 223 255
199 223 255
199 223 255
199 223 255
199 223 255
199 223 255
199 223 255
199 223 255
198 223 255
198 223 255
198 223 255
198 223 255
198 223 255
198 223 255
198 223 255
198 223 255
198 223 255
198 223 255
198 223 255
198 223 255
198 223 255
198 223 255
198 223 255
198 223 255
198 223 255
198 223 255
198 223 255
198 223 255
198 223 255
198 223 255
198 223 255
198 223 255
198 223 255
198 223 255
198 223 255
198 223 255
198 223 255
198 223 255
198 223 255
198 223 255
198 223 255
198 223 255
198 223 255
198 223 255
198 223 255
198 223 255
198 223 255
198 223 255
198 223 255
198 223 255
198 223 255
198 223 255
198 223 255
198 223 255
198 223 255
198 223 255
198 223 255
198 223 255
198 223 255
198 223 255
198 223 255
198 223 255
198 223 255
198 223 255
198 223 255
198 223 255
198 223 255
198 223 255
198 223 255
198 223 255
198 223 255
198 223 255
199 223 255
199 223 255
199 223 255
199 223 255
199 223 255
199 223 255
199 223 255
199 223 255
199 223 255
199 223 255
199 223 255
199 223 255
199 223 255
199 223 255
199 223 255
199 223 255
199 223 255
199 223 255
199 223 255
199 224 255
199 224 255
199 224 255
200 224 255
200 224 255
200 224 255
200 224 255
200 224 255
200 224 255
200 224 255
200 224 255
200 224 255
200 224 255
200 224 255
200 224 255
200 224 255
200 224 255
200 224 255
200 224 255
200 224 255
201 224 255
201 224 255
201 224 255
201 224 255
201 224 255
201 224 255
201 224 255
201 224 255
201 224 255
201 224 255
201 224 255
201 225 255
201 225 255
201 225 255
201 225 255
202 225 255
202 225 255
202 225 255
202 225 255
202 225 255
202 225 255
202 225 255
202 225 255
202 225 255
202 225 255
202 225 255
202 225 255
202 225 255
202 225 255
202 225 255
203 225 255
203 225 255
203 225 255
203 225 255
203 225 255
203 225 255
203 225 255
203 225 255
203 225 255
203 226 255
203 226 255
203 226 255
203 226 255
203 226 255
203 226 255
203 226 255
204 226 255
204 226 255
204 226 255
204 226 255
204 226 255
204 226 255
204 226 255
204 226 255
204 226 255
204 226 255
204 226 255
204 226 255
204 226 255
204 226 255
204 226 255
204 226 255
205 226 255
205 226 255
205 226 255
205 226 255
205 226 255
205 226 255
205 227 255
205 227 255
205 227 255
205 227 255
205 227 255
205 227 255
205 227 255
205 227 255
205 227 255
205 227 255
206 227 255
206 227 255
206 227 255
206 227 255
206 227 255
206 227 255
206 227 255
206 227 255
206 227 255
206 227 255
206 227 255
206 227 255
206 227 255
206 227 255
206 227 255
206 227 255
206 227 255
206 227 255
207 227 255
207 227 255
207 227 255
207 227 255
207 227 255
207 228 255
207 228 255
207 228 255
207 228 255
207 228 255
207 228 255
207 228 255
207 228 255
207 228 255
207 228 255
207 228 255
207 228 255
207 228 255
207 228 255
207 228 255
208 228 255
208 228 255
208 228 255
208 228 255
208 228 255
208 228 255
208 228 255
208 228 255
208 228 255
208 228 255
208 228 255
208 228 255
208 228 255
208 228 255
208 228 255
208 228 255
208 228 255
208 228 255
208 228 255
208 228 255
208 228 255
208 228 255
208 228 255
208 228 255
208 228 255
208 228 255
208 228 255
208 228 255
208 228 255
207 228 255
207 228 255
207 228 255
207 228 255
207 228 255
207 228 255
207 228 255
207 228 255
207 228 255
207 228 255
207 228 255
207 228 255
207 228 255
207 228 255
207 228 255
207 227 255
207 227 255
207 227 255
207 227 255
207 227 255
206 227 255
206 227 255
206 227 255
206 227 255
206 227 255
206 227 255
206 227 255
206 227 255
206 227 255
206 227 255
206 227 255
206 227 255
206 227 255
206 227 255
206 227 255
206 227 255
206 227 255
205 227 255
205 227 255
205 227 255
205 227 255
205 227 255
205 227 255
205 227 255
205 227 255
205 227 255
205 227 255
205 227 255
205 226 255
205 226 255
205 226 255
205 226 255
205 226 255
205 226 255
204 226 255
204 226 255
204 226 255
204 226 255
204 226 255
204 226 255
204 226 255
204 226 255
204 226 255
204 226 255
204 226 255
204 226 255
204 226 255
204 226 255
204 226 255
204 226 255
203 226 255
203 226 255
203 226 255
203 226 255
203 226 255
203 226 255
203 226 255
203 225 255
203 225 255
203 225 255
203 225 255
203 225 255
203 225 255
203 225 255
203 225 255
202 225 255
202 225 255
202 225 255
202 225 255
202 225 255
202 225 255
202 225 255
202 225 255
202 225 255
202 225 255
202 225 255
202 225 255
202 225 255
202 225 255
202 225 255
201 225 255
201 225 255
201 225 255
201 225 255
201 225 255
201 224 255
201 224 255
201 224 255
201 224 255
201 224 255
201 224 255
201 224 255
201 224 255
201 224 255
201 224 255
201 224 255
200 224 255
200 224 255
200 224 255
200 224 255
200 224 255
200 224 255
200 224 255
200 224 255
200 224 255
200 224 255
200 224 255
200 224 255
200 224 255
200 224 255
200 224 255
200 224 255
200 224 255
200 224 255
199 224 255
199 224 255
199 224 255
199 223 255
199 223 255
199 223 255
199 223 255
199 223 255
199 223 255
199 223 255
199 223 255
199 223 255
199 223 255
199 223 255
199 223 255
199 223 255
199 223 255
199 223 255
199 223 255
199 223 255
199 223 255
199 223 255
199 223 255
198 223 255
198 223 255
198 223 255
198 223 255
198 223 255
198 223 255
198 223 255
198 223 255
198 223 255
198 223 255
198 223 255
198 223 255
198 223 255
198 223 255
198 223 255
198 223 255
198 223 255
198 223 255
198 223 255
198 223 255
198 223 255
198 223 255
198 223 255
198 223 255
198 223 255
198 223 255
198 223 255
198 223 255
198 223 255
198 223 255
198 223 255
198 223 255
198 223 255
198 223 255
198 223 255
198 223 255
198 223 255
198 223 255
198 223 255
198 223 255
198 223 255
198 223 255
198 223 255
198 223 255
198 223 255
198 223 255
198 223 255
198 223 255
198 223 255
198 223 255
198 223 255
198 223 255
198 223 255
198 223 255
199 223 255
199 223 255
199 223 255
199 223 255
199 223 255
199 223 255
199 223 255
199 223 255
199 223 255
199 223 255
199 223 255
199 223 255
199 223 255
199 223 255
199 223 255
199 223 255
199 223 255
199 223 255
199 223 255
199 223 255
199 224 255
199 224 255
199 224 255
200 224 255
200 224 255
200 224 255
200 224 255
200 224 255
200 224 255
200 224 255
200 224 255
200 224 255
200 224 255
200 224 255
200 224 255
200 224 255
200 224 255
200 224 255
200 224 255
200 224 255
200 224 255
201 224 255
201 224 255
201 224 255
201 224 255
201 224 255
201 224 255
201 224 255
201 224 255
201 224 255
201 224 255
201 224 255
201 225 255
201 225 255
201 225 255
201 225 255
201 225 255
202 225 255
202 225 255
202 225 255
202 225 255
202 225 255
202 225 255
202 225 255
202 225 255
202 225 255
202 225 255
202 225 255
202 225 255
202 225 255
202 225 255
202 225 255
203 225 255
203 225 255
203 225 255
203 225 255
203 225 255
203 225 255
203 225 255
203 225 255
203 226 255
203 226 255
203 226 255
203 226 255
203 226 255
203 226 255
203 226 255
204 226 255
204 226 255
204 226 255
204 226 255
204 226 255
204 226 255
204 226 255
204 226 255
204 226 255
204 226 255
204 226 255
204 226 255
204 226 255
204 226 255
204 226 255
204 226 255
205 226 255
205 226 255
205 226 255
205 226 255
205 226 255
205 226 255
205 227 255
205 227 255
205 227 255
205 227 255
205 227 255
205 227 255
205 227 255
205 227 255
205 227 255
205 227 255
206 227 255
206 227 255
206 227 255
206 227 255
206 227 255
206 227 255
206 227 255
206 227 255
206 227 255
206 227 255
206 227 255
206 227 255
206 227 255
206 227 255
206 227 255
206 227 255
206 227 255
206 227 255
207 227 255
207 227 255
207 227 255
207 227 255
207 227 255
207 228 255
207 228 255
207 228 255
207 228 255
207 228 255
207 228 255
207 228 255
207 228 255
207 228 255
207 228 255
207 228 255
207 228 255
207 228 255
207 228 255
207 228 255
208 228 255
208 228 255
208 228 255
208 228 255
208 228 255
208 228 255
208 228 255
208 228 255
208 228 255
208 228 255
208 228 255
208 228 255
208 228 255
208 228 255
208 228 255
208 228 255
208 228 255
208 228 255
208 228 255
208 228 255
208 228 255
208 228 255
208 228 255
208 228 255
208 228 255
208 228 255
208 228 255
208 228 255
208 228 255
208 228 255
208 228 255
208 228 255
208 228 255
208 228 255
208 228 255
207 228 255
207 228 255
207 228 255
207 228 255
207 228 255
207 228 255
207 228 255
207 228 255
207 228 255
207 228 255
207 228 255
207 228 255
207 228 255
207 228 255
207 228 255
207 227 255
207 227 255
207 227 255
207 227 255
207 227 255
206 227 255
206 227 255
206 227 255
206 227 255
206 227 255
206 227 255
206 227 255
206 227 255
206 227 255
206 227 255
206 227 255
206 227 255
206 227 255
206 227 255
206 227 255
206 227 255
206 227 255
205 227 255
205 227 255
205 227 255
205 227 255
205 227 255
205 227 255
205 227 255
205 227 255
205 227 255
205 227 255
205 226 255
205 226 255
205 226 255
205 226 255
205 226 255
205 226 255
205 226 255
204 226 255
204 226 255
204 226 255
204 226 255
204 226 255
204 226 255
204 226 255
204 226 255
204 226 255
204 226 255
204 226 255
204 226 255
204 226 255
204 226 255
204 226 255
204 226 255
203 226 255
203 226 255
203 226 255
203 226 255
203 226 255
203 226 255
203 225 255
203 225 255
203 225 255
203 225 255
203 225 255
203 225 255
203 225 255
203 225 255
203 225 255
202 225 255
202 225 255
202 225 255
202 225 255
202 225 255
202 225 255
202 225 255
202 225 255
202 225 255
202 225 255
202 225 255
202 225 255
202 225 255
202 225 255
202 225 255
201 225 255
201 225 255
201 225 255
201 225 255
201 225 255
201 224 255
201 224 255
201 224 255
201 224 255
201 224 255
201 224 255
201 224 255
201 224 255
201 224 255
201 224 255
201 224 255
200 224 255
200 224 255
200 224 255
200 224 255
200 224 255
200 224 255
200 224 255
200 224 255
200 224 255
200 224 255
200 224 255
200 224 255
200 224 255
200 224 255
200 224 255
200 224 255
200 224 255
200 224 255
199 224 255
199 224 255
199 224 255
199 224 255
199 223 255
199 223 255
199 223 255
199 223 255
199 223 255
199 223 255
199 223 255
199 223 255
199 223 255
199 223 255
199 223 255
199 223 255
199 223 255
199 223 255
199 223 255
199 223 255
199 223 255
199 223 255
199 223 255
199 223 255
199 223 255
199 223 255
199 223 255
198 223 255
198 223 255
198 223 255
198 223 255
198 223 255
198 223 255
198 223 255
198 223 255
198 223 255
198 223 255
198 223 255
198 223 255
198 223 255
198 223 255
198 223 255
198 223 255
198 223 255
198 223 255
198 223 255
198 223 255
198 223 255
198 223 255
198 223 255
198 223 255
198 223 255
198 223 255
198 223 255
198 223 255
198 223 255
198 223 255
198 223 255
198 223 255
198 223 255
198 223 255
198 223 255
198 223 255
198 223 255
198 223 255
198 223 255
198 223 255
199 223 255
199 223 255
199 223 255
199 223 255
199 223 255
199 223 255
199 223 255
199 223 255
199 223 255
199 223 255
199 223 255
199 223 255
199 223 255
199 223 255
199 223 255
199 223 255
199 223 255
199 223 255
199 223 255
199 223 255
199 223 255
199 223 255
199 223 255
199 224 255
199 224 255
199 224 255
199 224 255
200 224 255
200 224 255
200 224 255
200 224 255
200 224 255
200 224 255
200 224 255
200 224 255
200 224 255
200 224 255
200 224 255
200 224 255
200 224 255
200 224 255
200 224 255
200 224 255
200 224 255
200 224 255
201 224 255
201 224 255
201 224 255
201 224 255
201 224 255
201 224 255
201 224 255
201 224 255
201 224 255
201 224 255
201 224 255
201 225 255
201 225 255
201 225 255
201 225 255
201 225 255
202 225 255
202 225 255
202 225 255
202 225 255
202 225 255
202 225 255
202 225 255
202 225 255
202 225 255
202 225 255
202 225 255
202 225 255
202 225 255
202 225 255
202 225 255
203 225 255
203 225 255
203 225 255
203 225 255
203 225 255
203 225 255
203 225 255
203 225 255
203 225 255
203 226 255
203 226 255
203 226 255
203 226 255
203 226 255
203 226 255
204 226 255
204 226 255
204 226 255
204 226 255
204 226 255
204 226 255
204 226 255
204 226 255
204 226 255
204 226 255
204 226 255
204 226 255
204 226 255
204 226 255
204 226 255
204 226 255
205 226 255
205 226 255
205 226 255
205 226 255
205 226 255
205 226 255
205 226 255
205 227 255
205 227 255
205 227 255
205 227 255
205 227 255
205 227 255
205 227 255
205 227 255
205 227 255
205 227 255
206 227 255
206 227 255
206 227 255
206 227 255
206 227 255
206 227 255
206 227 255
206 227 255
206 227 255
206 227 255
206 227 255
206 227 255
206 227 255
206 227 255
206 227 255
206 227 255
206 227 255
207 227 255
207 227 255
207 227 255
207 227 255
207 227 255
207 228 255
207 228 255
207 228 255
207 228 255
207 228 255
207 228 255
207 228 255
207 228 255
207 228 255
207 228 255
207 228 255
207 228 255
207 228 255
207 228 255
207 228 255
208 228 255
208 228 255
208 228 255
208 228 255
208 228 255
208 228 255
208 228 255
208 228 255
208 228 255
208 228 255
208 228 255
208 228 255
208 228 255
208 228 255
208 228 255
208 228 255
208 228 255
208 228 255
208 228 255
209 228 255
208 228 255
208 228 255
208 228 255
208 228 255
208 228 255
208 228 255
208 228 255
208 228 255
208 228 255
208 228 255
208 228 255
208 228 255
208 228 255
208 228 255
208 228 255
208 228 255
208 228 255
208 228 255
208 228 255
208 228 255
208 228 255
207 228 255
207 228 255
207 228 255
207 228 255
207 228 255
207 228 255
207 228 255
207 228 255
207 228 255
207 228 255
207 228 255
207 228 255
207 228 255
207 228 255
207 228 255
207 227 255
207 227 255
207 227 255
207 227 255
207 227 255
206 227 255
206 227 255
206 227 255
206 227 255
206 227 255
206 227 255
206 227 255
206 227 255
206 227 255
206 227 255
206 227 255
206 227 255
206 227 255
206 227 255
206 227 255
206 227 255
206 227 255
205 227 255
205 227 255
205 227 255
205 227 255
205 227 255
205 227 255
205 227 255
205 227 255
205 227 255
205 227 255
205 226 255
205 226 255
205 226 255
205 226 255
205 226 255
205 226 255
205 226 255
204 226 255
204 226 255
204 226 255
204 226 255
204 226 255
204 226 255
204 226 255
204 226 255
204 226 255
204 226 255
204 226 255
204 226 255
204 226 255
204 226 255
204 226 255
203 226 255
203 226 255
203 226 255
203 226 255
203 226 255
203 226 255
203 226 255
203 225 255
203 225 255
203 225 255
203 225 255
203 225 255
203 225 255
203 225 255
203 225 255
203 225 255
202 225 255
202 225 255
202 225 255
202 225 255
202 225 255
202 225 255
202 225 255
202 225 255
202 225 255
202 225 255
202 225 255
202 225 255
202 225 255
202 225 255
202 225 255
201 225 255
201 225 255
201 225 255
201 225 255
201 225 255
201 224 255
201 224 255
201 224 255
201 224 255
201 224 255
201 224 255
201 224 255
201 224 255
201 224 255
201 224 255
201 224 255
200 224 255
200 224 255
200 224 255
200 224 255
200 224 255
200 224 255
200 224 255
200 224 255
200 224 255
200 224 255
200 224 255
200 224 255
200 224 255
200 224 255
200 224 255
200 224 255
200 224 255
200 224 255
200 224 255
200 224 255
199 224 255
199 224 255
199 224 255
199 223 255
199 223 255
199 223 255
199 223 255
199 223 255
199 223 255
199 223 255
199 223 255
199 223 255
199 223 255
199 223 255
199 223 255
199 223 255
199 223 255
199 223 255
199 223 255
199 223 255
199 223 255
199 223 255
199 223 255
199 223 255
199 223 255
199 223 255
199 223 255
199 223 255
199 223 255
199 223 255
199 223 255
199 223 255
198 223 255
198 223 255
198 223 255
198 223 255
198 223 255
198 223 255
198 223 255
198 223 255
198 223 255
198 223 255
198 223 255
198 223 255
198 223 255
198 223 255
198 223 255
198 223 255
198 223 255
198 223 255
198 223 255
199 223 255
199 223 255
199 223 255
199 223 255
199 223 255
199 223 255
199 223 255
199 223 255
199 223 255
199 223 255
199 223 255
199 223 255
199 223 255
199 223 255
199 223 255
199 223 255
199 223 255
199 223 255
199 223 255
199 223 255
199 223 255
199 223 255
199 223 255
199 223 255
199 223 255
199 223 255
199 223 255
199 223 255
199 223 255
199 223 255
199 224 255
199 224 255
199 224 255
199 224 255
200 224 255
200 224 255
200 224 255
200 224 255
200 224 255
200 224 255
200 224 255
200 224 255
200 224 255
200 224 255
200 224 255
200 224 255
200 224 255
200 224 255
200 224 255
200 224 255
200 224 255
200 224 255
200 224 255
201 224 255
201 224 255
201 224 255
201 224 255
201 224 255
201 224 255
201 224 255
201 224 255
201 224 255
201 224 255
201 224 255
201 225 255
201 225 255
201 225 255
201 225 255
201 225 255
202 225 255
202 225 255
202 225 255
202 225 255
202 225 255
202 225 255
202 225 255
202 225 255
202 225 255
202 225 255
202 225 255
202 225 255
202 225 255
202 225 255
202 225 255
203 225 255
203 225 255
203 225 255
203 225 255
203 225 255
203 225 255
203 225 255
203 225 255
203 225 255
203 226 255
203 226 255
203 226 255
203 226 255
203 226 255
203 226 255
203 226 255
204 226 255
204 226 255
204 226 255
204 226 255
204 226 255
204 226 255
204 226 255
204 226 255
204 226 255
204 226 255
204 226 255
204 226 255
204 226 255
204 226 255
204 226 255
205 226 255
205 226 255
205 226 255
205 226 255
205 226 255
205 226 255
205 226 255
205 227 255
205 227 255
205 227 255
205 227 255
205 227 255
205 227 255
205 227 255
205 227 255
205 227 255
205 227 255
206 227 255
206 227 255
206 227 255
206 227 255
206 227 255
206 227 255
206 227 255
206 227 255
206 227 255
206 227 255
206 227 255
206 227 255
206 227 255
206 227 255
206 227 255
206 227 255
206 227 255
207 227 255
207 227 255
207 227 255
207 227 255
207 227 255
207 228 255
207 228 255
207 228 255
207 228 255
207 228 255
207 228 255
207 228 255
207 228 255
207 228 255
207 228 255
207 228 255
207 228 255
207 228 255
207 228 255
207 228 255
208 228 255
208 228 255
208 228 255
208 228 255
208 228 255
208 228 255
208 228 255
208 228 255
208 228 255
208 228 255
208 228 255
208 228 255
208 228 255
208 228 255
208 228 255
208 228 255
208 228 255
208 228 255
208 228 255
208 228 255
208 228 255
209 228 255
209 229 255
209 229 255
209 228 255
209 228 255
208 228 255
208 228 255
208 228 255
208 228 255
208 228 255
208 228 255
208 228 255
208 228 255
208 228 255
208 228 255
208 228 255
208 228 255
208 228 255
208 228 255
208 228 255
208 228 255
208 228 255
208 228 255
208 228 255
208 228 255
208 228 255
207 228 255
207 228 255
207 228 255
207 228 255
207 228 255
207 228 255
207 228 255
207 228 255
207 228 255
207 228 255
207 228 255
207 228 255
207 228 255
207 228 255
207 228 255
207 227 255
207 227 255
207 227 255
207 227 255
207 227 255
206 227 255
206 227 255
206 227 255
206 227 255
206 227 255
206 227 255
206 227 255
206 227 255
206 227 255
206 227 255
206 227 255
206 227 255
206 227 255
206 227 255
206 227 255
206 227 255
206 227 255
205 227 255
205 227 255
205 227 255
205 227 255
205 227 255
205 227 255
205 227 255
205 227 255
205 227 255
205 227 255
205 226 255
205 226 255
205 226 255
205 226 255
205 226 255
205 226 255
205 226 255
204 226 255
204 226 255
204 226 255
204 226 255
204 226 255
204 226 255
204 226 255
204 226 255
204 226 255
204 226 255
204 226 255
204 226 255
204 226 255
204 226 255
204 226 255
203 226 255
203 226 255
203 226 255
203 226 255
203 226 255
203 226 255
203 226 255
203 225 255
203 225 255
203 225 255
203 225 255
203 225 255
203 225 255
203 225 255
203 225 255
203 225 255
202 225 255
202 225 255
202 225 255
202 225 255
202 225 255
202 225 255
202 225 255
202 225 255
202 225 255
202 225 255
202 225 255
202 225 255
202 225 255
202 225 255
202 225 255
201 225 255
201 225 255
201 225 255
201 225 255
201 225 255
201 224 255
201 224 255
201 224 255
201 224 255
201 224 255
201 224 255
201 224 255
201 224 255
201 224 255
201 224 255
201 224 255
201 224 255
200 224 255
200 224 255
200 224 255
200 224 255
200 224 255
200 224 255
200 224 255
200 224 255
200 224 255
200 224 255
200 224 255
200 224 255
200 224 255
200 224 255
200 224 255
200 224 255
200 224 255
200 224 255
200 224 255
200 224 255
199 224 255
199 224 255
199 224 255
199 224 255
199 223 255
199 223 255
199 223 255
199 223 255
199 223 255
199 223 255
199 223 255
199 223 255
199 223 255
199 223 255
199 223 255
199 223 255
199 223 255
199 223 255
199 223 255
199 223 255
199 223 255
199 223 255
199 223 255
199 223 255
199 223 255
199 223 255
199 223 255
199 223 255
199 223 255
199 223 255
199 223 255
199 223 255
199 223 255
199 223 255
199 223 255
199 223 255
199 223 255
199 223 255
199 223 255
199 223 255
199 223 255
199 223 255
199 223 255
199 223 255
199 223 255
199 223 255
199 223 255
199 223 255
199 223 255
199 223 255
199 223 255
199 223 255
199 223 255
199 223 255
199 223 255
199 223 255
199 223 255
199 223 255
199 223 255
199 223 255
199 223 255
199 223 255
199 223 255
199 223 255
199 223 255
199 223 255
199 223 255
199 223 255
199 223 255
199 223 255
199 223 255
199 223 255
199 224 255
199 224 255
199 224 255
199 224 255
200 224 255
200 224 255
200 224 255
200 224 255
200 224 255
200 224 255
200 224 255
200 224 255
200 224 255
200 224 255
200 224 255
200 224 255
200 224 255
200 224 255
200 224 255
200 224 255
200 224 255
200 224 255
200 224 255
200 224 255
201 224 255
201 224 255
201 224 255
201 224 255
201 224 255
201 224 255
201 224 255
201 224 255
201 224 255
201 224 255
201 224 255
201 224 255
201 225 255
201 225 255
201 225 255
201 225 255
201 225 255
202 225 255
202 225 255
202 225 255
202 225 255
202 225 255
202 225 255
202 225 255
202 225 255
202 225 255
202 225 255
202 225 255
202 225 255
202 225 255
202 225 255
202 225 255
203 225 255
203 225 255
203 225 255
203 225 255
203 225 255
203 225 255
203 225 255
203 225 255
203 225 255
203 226 255
203 226 255
203 226 255
203 226 255
203 226 255
203 226 255
203 226 255
204 226 255
204 226 255
204 226 255
204 226 255
204 226 255
204 226 255
204 226 255
204 226 255
204 226 255
204 226 255
204 226 255
204 226 255
204 226 255
204 226 255
204 226 255
204 226 255
205 226 255
205 226 255
205 226 255
205 226 255
205 226 255
205 226 255
205 227 255
205 227 255
205 227 255
205 227 255
205 227 255
205 227 255
205 227 255
205 227 255
205 227 255
205 227 255
206 227 255
206 227 255
206 227 255
206 227 255
206 227 255
206 227 255
206 227 255
206 227 255
206 227 255
206 227 255
206 227 255
206 227 255
206 227 255
206 227 255
206 227 255
206 227 255
206 227 255
207 227 255
207 227 255
207 227 255
207 227 255
207 227 255
207 228 255
207 228 255
207 228 255
207 228 255
207 228 255
207 228 255
207 228 255
207 228 255
207 228 255
207 228 255
207 228 255
207 228 255
207 228 255
207 228 255
207 228 255
208 228 255
208 228 255
208 228 255
208 228 255
208 228 255
208 228 255
208 228 255
208 228 255
208 228 255
208 228 255
208 228 255
208 228 255
208 228 255
208 228 255
208 228 255
208 228 255
208 228 255
208 228 255
208 228 255
208 228 255
208 228 255
209 228 255
209 228 255
209 229 255
209 229 255
209 229 255
209 229 255
209 229 255
209 229 255
209 229 255
209 229 255
209 228 255
208 228 255
208 228 255
208 228 255
208 228 255
208 228 255
208 228 255
208 228 255
208 228 255
208 228 255
208 228 255
208 228 255
208 228 255
208 228 255
208 228 255
208 228 255
208 228 255
208 228 255
208 228 255
208 228 255
208 228 255
208 228 255
207 228 255
207 228 255
207 228 255
207 228 255
207 228 255
207 228 255
207 228 255
207 228 255
207 228 255
207 228 255
207 228 255
207 228 255
207 228 255
207 228 255
207 228 255
207 227 255
207 227 255
207 227 255
207 227 255
206 227 255
206 227 255
206 227 255
206 227 255
206 227 255
206 227 255
206 227 255
206 227 255
206 227 255
206 227 255
206 227 255
206 227 255
206 227 255
206 227 255
206 227 255
206 227 255
206 227 255
206 227 255
205 227 255
205 227 255
205 227 255
205 227 255
205 227 255
205 227 255
205 227 255
205 227 255
205 227 255
205 227 255
205 226 255
205 226 255
205 226 255
205 226 255
205 226 255
205 226 255
204 226 255
204 226 255
204 226 255
204 226 255
204 226 255
204 226 255
204 226 255
204 226 255
204 226 255
204 226 255
204 226 255
204 226 255
204 226 255
204 226 255
204 226 255
204 226 255
203 226 255
203 226 255
203 226 255
203 226 255
203 226 255
203 226 255
203 226 255
203 225 255
203 225 255
203 225 255
203 225 255
203 225 255
203 225 255
203 225 255
203 225 255
203 225 255
202 225 255
202 225 255
202 225 255
202 225 255
202 225 255
202 225 255
202 225 255
202 225 255
202 225 255
202 225 255
202 225 255
202 225 255
202 225 255
202 225 255
202 225 255
201 225 255
201 225 255
201 225 255
201 225 255
201 225 255
201 224 255
201 224 255
201 224 255
201 224 255
201 224 255
201 224 255
201 224 255
201 224 255
201 224 255
201 224 255
201 224 255
201 224 255
200 224 255
200 224 255
200 224 255
200 224 255
200 224 255
200 224 255
200 224 255
200 224 255
200 224 255
200 224 255
200 224 255
200 224 255
200 224 255
200 224 255
200 224 255
200 224 255
200 224 255
200 224 255
200 224 255
200 224 255
200 224 255
200 224 255
199 224 255
199 224 255
199 224 255
199 224 255
199 223 255
199 223 255
199 223 255
199 223 255
199 223 255
199 223 255
199 223 255
199 223 255
199 223 255
199 223 255
199 223 255
199 223 255
199 223 255
199 223 255
199 223 255
199 223 255
199 223 255
199 223 255
199 223 255
199 223 255
199 223 255
199 223 255
199 223 255
199 223 255
199 223 255
199 223 255
199 223 255
199 223 255
199 223 255
199 223 255
199 223 255
199 223 255
199 223 255
199 223 255
199 223 255
199 223 255
199 223 255
199 223 255
199 223 255
199 223 255
199 223 255
199 223 255
199 223 255
199 223 255
199 223 255
199 223 255
199 223 255
199 223 255
199 223 255
199 223 255
199 223 255
199 223 255
199 223 255
199 223 255
199 223 255
199 223 255
199 223 255
199 223 255
199 224 255
199 224 255
199 224 255
199 224 255
200 224 255
200 224 255
200 224 255
200 224 255
200 224 255
200 224 255
200 224 255
200 224 255
200 224 255
200 224 255
200 224 255
200 224 255
200 224 255
200 224 255
200 224 255
200 224 255
200 224 255
200 224 255
200 224 255
200 224 255
200 224 255
200 224 255
201 224 255
201 224 255
201 224 255
201 224 255
201 224 255
201 224 255
201 224 255
201 224 255
201 224 255
201 224 255
201 224 255
201 224 255
201 225 255
201 225 255
201 225 255
201 225 255
201 225 255
202 225 255
202 225 255
202 225 255
202 225 255
202 225 255
202 225 255
202 225 255
202 225 255
202 225 255
202 225 255
202 225 255
202 225 255
202 225 255
202 225 255
202 225 255
202 225 255
203 225 255
203 225 255
203 225 255
203 225 255
203 225 255
203 225 255
203 225 255
203 225 255
203 226 255
203 226 255
203 226 255
203 226 255
203 226 255
203 226 255
203 226 255
204 226 255
204 226 255
204 226 255
204 226 255
204 226 255
204 226 255
204 226 255
204 226 255
204 226 255
204 226 255
204 226 255
204 226 255
204 226 255
204 226 255
204 226 255
204 226 255
205 226 255
205 226 255
205 226 255
205 226 255
205 226 255
205 226 255
205 227 255
205 227 255
205 227 255
205 227 255
205 227 255
205 227 255
205 227 255
205 227 255
205 227 255
205 227 255
206 227 255
206 227 255
206 227 255
206 227 255
206 227 255
206 227 255
206 227 255
206 227 255
206 227 255
206 227 255
206 227 255
206 227 255
206 227 255
206 227 255
206 227 255
206 227 255
206 227 255
207 227 255
207 227 255
207 227 255
207 227 255
207 227 255
207 228 255
207 228 255
207 228 255
207 228 255
207 228 255
207 228 255
207 228 255
207 228 255
207 228 255
207 228 255
207 228 255
207 228 255
207 228 255
207 228 255
207 228 255
208 228 255
208 228 255
208 228 255
208 228 255
208 228 255
208 228 255
208 228 255
208 228 255
208 228 255
208 228 255
208 228 255
208 228 255
208 228 255
208 228 255
208 228 255
208 228 255
208 228 255
208 228 255
208 228 255
208 228 255
208 228 255
209 228 255
209 229 255
209 229 255
209 229 255
209 229 255
209 229 255
209 229 255
209 229 255
209 229 255
209 229 255
209 229 255
209 229 255
209 229 255
209 229 255
209 229 255
209 229 255
209 228 255
209 228 255
208 228 255
208 228 255
208 228 255
208 228 255
208 228 255
208 228 255
208 228 255
208 228 255
208 228 255
208 228 255
208 228 255
208 228 255
208 228 255
208 228 255
208 228 255
208 228 255
208 228 255
208 228 255
208 228 255
208 228 255
208 228 255
207 228 255
207 228 255
207 228 255
207 228 255
207 228 255
207 228 255
207 228 255
207 228 255
207 228 255
207 228 255
207 228 255
207 228 255
207 228 255
207 228 255
207 227 255
207 227 255
207 227 255
207 227 255
206 227 255
206 227 255
206 227 255
206 227 255
206 227 255
206 227 255
206 227 255
206 227 255
206 227 255
206 227 255
206 227 255
206 227 255
206 227 255
206 227 255
206 227 255
206 227 255
206 227 255
206 227 255
205 227 255
205 227 255
205 227 255
205 227 255
205 227 255
205 227 255
205 227 255
205 227 255
205 227 255
205 227 255
205 226 255
205 226 255
205 226 255
205 226 255
205 226 255
205 226 255
204 226 255
204 226 255
204 226 255
204 226 255
204 226 255
204 226 255
204 226 255
204 226 255
204 226 255
204 226 255
204 226 255
204 226 255
204 226 255
204 226 255
204 226 255
204 226 255
203 226 255
203 226 255
203 226 255
203 226 255
203 226 255
203 226 255
203 226 255
203 225 255
203 225 255
203 225 255
203 225 255
203 225 255
203 225 255
203 225 255
203 225 255
202 225 255
202 225 255
202 225 255
202 225 255
202 225 255
202 225 255
202 225 255
202 225 255
202 225 255
202 225 255
202 225 255
202 225 255
202 225 255
202 225 255
202 225 255
202 225 255
201 225 255
201 225 255
201 225 255
201 225 255
201 225 255
201 224 255
201 224 255
201 224 255
201 224 255
201 224 255
201 224 255
201 224 255
201 224 255
201 224 255
201 224 255
201 224 255
201 224 255
201 224 255
200 224 255
200 224 255
200 224 255
200 224 255
200 224 255
200 224 255
200 224 255
200 224 255
200 224 255
200 224 255
200 224 255
200 224 255
200 224 255
200 224 255
200 224 255
200 224 255
200 224 255
200 224 255
200 224 255
200 224 255
200 224 255
200 224 255
200 224 255
199 224 255
199 224 255
199 224 255
199 224 255
199 224 255
199 224 255
199 223 255
199 223 255
199 223 255
199 223 255
199 223 255
199 223 255
199 223 255
199 223 255
199 223 255
199 223 255
199 223 255
199 223 255
199 223 255
199 223 255
199 223 255
199 223 255
199 223 255
199 223 255
199 223 255
199 223 255
199 223 255
199 223 255
199 223 255
199 223 255
199 223 255
199 223 255
199 223 255
199 223 255
199 223 255
199 223 255
199 223 255
199 223 255
199 223 255
199 223 255
199 223 255
199 223 255
199 223 255
199 223 255
199 223 255
199 223 255
199 223 255
199 223 255
199 223 255
199 223 255
199 224 255
199 224 255
199 224 255
199 224 255
199 224 255
200 224 255
200 224 255
200 224 255
200 224 255
200 224 255
200 224 255
200 224 255
200 224 255
200 224 255
200 224 255
200 224 255
200 224 255
200 224 255
200 224 255
200 224 255
200 224 255
200 224 255
200 224 255
200 224 255
200 224 255
200 224 255
200 224 255
200 224 255
200 224 255
201 224 255
201 224 255
201 224 255
201 224 255
201 224 255
201 224 255
201 224 255
201 224 255
201 224 255
201 224 255
201 224 255
201 224 255
201 225 255
201 225 255
201 225 255
201 225 255
201 225 255
202 225 255
202 225 255
202 225 255
202 225 255
202 225 255
202 225 255
202 225 255
202 225 255
202 225 255
202 225 255
202 225 255
202 225 255
202 225 255
202 225 255
202 225 255
202 225 255
202 225 255
203 225 255
203 225 255
203 225 255
203 225 255
203 225 255
203 225 255
203 225 255
203 225 255
203 226 255
203 226 255
203 226 255
203 226 255
203 226 255
203 226 255
203 226 255
204 226 255
204 226 255
204 226 255
204 226 255
204 226 255
204 226 255
204 226 255
204 226 255
204 226 255
204 226 255
204 226 255
204 226 255
204 226 255
204 226 255
204 226 255
204 226 255
205 226 255
205 226 255
205 226 255
205 226 255
205 226 255
205 226 255
205 227 255
205 227 255
205 227 255
205 227 255
205 227 255
205 227 255
205 227 255
205 227 255
205 227 255
205 227 255
206 227 255
206 227 255
206 227 255
206 227 255
206 227 255
206 227 255
206 227 255
206 227 255
206 227 255
206 227 255
206 227 255
206 227 255
206 227 255
206 227 255
206 227 255
206 227 255
206 227 255
206 227 255
207 227 255
207 227 255
207 227 255
207 227 255
207 228 255
207 228 255
207 228 255
207 228 255
207 228 255
207 228 255
207 228 255
207 228 255
207 228 255
207 228 255
207 228 255
207 228 255
207 228 255
207 228 255
208 228 255
208 228 255
208 228 255
208 228 255
208 228 255
208 228 255
208 228 255
208 228 255
208 228 255
208 228 255
208 228 255
208 228 255
208 228 255
208 228 255
208 228 255
208 228 255
208 228 255
208 228 255
208 228 255
208 228 255
208 228 255
209 228 255
209 228 255
209 229 255
209 229 255
209 229 255
209 229 255
209 229 255
209 229 255
209 229 255
209 229 255
209 229 255
209 229 255
209 229 255
209 229 255
209 229 255
209 229 255
209 229 255
209 229 255
209 229 255
209 229 255
209 229 255
209 229 255
209 229 255
209 228 255
209 228 255
208 228 255
208 228 255
208 228 255
208 228 255
208 228 255
208 228 255
208 228 255
208 228 255
208 228 255
208 228 255
208 228 255
208 228 255
208 228 255
208 228 255
208 228 255
208 228 255
208 228 255
208 228 255
208 228 255
208 228 255
208 228 255
207 228 255
207 228 255
207 228 255
207 228 255
207 228 255
207 228 255
207 228 255
207 228 255
207 228 255
207 228 255
207 228 255
207 228 255
207 228 255
207 228 255
207 227 255
207 227 255
207 227 255
207 227 255
207 227 255
206 227 255
206 227 255
206 227 255
206 227 255
206 227 255
206 227 255
206 227 255
206 227 255
206 227 255
206 227 255
206 227 255
206 227 255
206 227 255
206 227 255
206 227 255
206 227 255
206 227 255
205 227 255
205 227 255
205 227 255
205 227 255
205 227 255
205 227 255
205 227 255
205 227 255
205 227 255
205 227 255
205 226 255
205 226 255
205 226 255
205 226 255
205 226 255
205 226 255
204 226 255
204 226 255
204 226 255
204 226 255
204 226 255
204 226 255
204 226 255
204 226 255
204 226 255
204 226 255
204 226 255
204 226 255
204 226 255
204 226 255
204 226 255
204 226 255
203 226 255
203 226 255
203 226 255
203 226 255
203 226 255
203 226 255
203 226 255
203 225 255
203 225 255
203 225 255
203 225 255
203 225 255
203 225 255
203 225 255
203 225 255
202 225 255
202 225 255
202 225 255
202 225 255
202 225 255
202 225 255
202 225 255
202 225 255
202 225 255
202 225 255
202 225 255
202 225 255
202 225 255
202 225 255
202 225 255
202 225 255
202 225 255
201 225 255
201 225 255
201 225 255
201 225 255
201 225 255
201 224 255
201 224 255
201 224 255
201 224 255
201 224 255
201 224 255
201 224 255
201 224 255
201 224 255
201 224 255
201 224 255
201 224 255
201 224 255
200 224 255
200 224 255
200 224 255
200 224 255
200 224 255
200 224 255
200 224 255
200 224 255
200 224 255
200 224 255
200 224 255
200 224 255
200 224 255
200 224 255
200 224 255
200 224 255
200 224 255
200 224 255
200 224 255
200 224 255
200 224 255
200 224 255
200 224 255
200 224 255
200 224 255
200 224 255
200 224 255
199 224 255
199 224 255
199 224 255
199 224 255
199 224 255
199 224 255
199 224 255
199 224 255
199 223 255
199 223 255
199 223 255
199 223 255
199 223 255
199 223 255
199 223 255
199 223 255
199 223 255
199 223 255
199 223 255
199 223 255
199 223 255
199 223 255
199 223 255
199 223 255
199 223 255
199 223 255
199 223 255
199 223 255
199 223 255
199 223 255
199 223 255
199 223 255
199 224 255
199 224 255
199 224 255
199 224 255
199 224 255
199 224 255
199 224 255
199 224 255
200 224 255
200 224 255
200 224 255
200 224 255
200 224 255
200 224 255
200 224 255
200 224 255
200 224 255
200 224 255
200 224 255
200 224 255
200 224 255
200 224 255
200 224 255
200 224 255
200 224 255
200 224 255
200 224 255
200 224 255
200 224 255
200 224 255
200 224 255
200 224 255
200 224 255
200 224 255
200 224 255
201 224 255
201 224 255
201 224 255
201 224 255
201 224 255
201 224 255
201 224 255
201 224 255
201 224 255
201 224 255
201 224 255
201 224 255
201 224 255
201 225 255
201 225 255
201 225 255
201 225 255
201 225 255
202 225 255
202 225 255
202 225 255
202 225 255
202 225 255
202 225 255
202 225 255
202 225 255
202 225 255
202 225 255
202 225 255
202 225 255
202 225 255
202 225 255
202 225 255
202 225 255
202 225 255
203 225 255
203 225 255
203 225 255
203 225 255
203 225 255
203 225 255
203 225 255
203 225 255
203 226 255
203 226 255
203 226 255
203 226 255
203 226 255
203 226 255
203 226 255
204 226 255
204 226 255
204 226 255
204 226 255
204 226 255
204 226 255
204 226 255
204 226 255
204 226 255
204 226 255
204 226 255
204 226 255
204 226 255
204 226 255
204 226 255
204 226 255
205 226 255
205 226 255
205 226 255
205 226 255
205 226 255
205 226 255
205 227 255
205 227 255
205 227 255
205 227 255
205 227 255
205 227 255
205 227 255
205 227 255
205 227 255
205 227 255
206 227 255
206 227 255
206 227 255
206 227 255
206 227 255
206 227 255
206 227 255
206 227 255
206 227 255
206 227 255
206 227 255
206 227 255
206 227 255
206 227 255
206 227 255
206 227 255
206 227 255
207 227 255
207 227 255
207 227 255
207 227 255
207 227 255
207 228 255
207 228 255
207 228 255
207 228 255
207 228 255
207 228 255
207 228 255
207 228 255
207 228 255
207 228 255
207 228 255
207 228 255
207 228 255
207 228 255
208 228 255
208 228 255
208 228 255
208 228 255
208 228 255
208 228 255
208 228 255
208 228 255
208 228 255
208 228 255
208 228 255
208 228 255
208 228 255
208 228 255
208 228 255
208 228 255
208 228 255
208 228 255
208 228 255
208 228 255
208 228 255
209 228 255
209 228 255
209 229 255
209 229 255
209 229 255
209 229 255
209 229 255
209 229 255
209 229 255
209 229 255
209 229 255
209 229 255
209 229 255
209 229 255
209 229 255
209 229 255
209 229 255
209 229 255
209 229 255
209 229 255
209 229 255
209 229 255
209 229 255
209 229 255
209 229 255
209 229 255
209 229 255
209 229 255
209 229 255
209 229 255
209 228 255
208 228 255
208 228 255
208 228 255
208 228 255
208 228 255
208 228 255
208 228 255
208 228 255
208 228 255
208 228 255
208 228 255
208 228 255
208 228 255
208 228 255
208 228 255
208 228 255
208 228 255
208 228 255
208 228 255
208 228 255
208 228 255
207 228 255
207 228 255
207 228 255
207 228 255
207 228 255
207 228 255
207 228 255
207 228 255
207 228 255
207 228 255
207 228 255
207 228 255
207 228 255
207 228 255
207 227 255
207 227 255
207 227 255
207 227 255
206 227 255
206 227 255
206 227 255
206 227 255
206 227 255
206 227 255
206 227 255
206 227 255
206 227 255
206 227 255
206 227 255
206 227 255
206 227 255
206 227 255
206 227 255
206 227 255
206 227 255
206 227 255
205 227 255
205 227 255
205 227 255
205 227 255
205 227 255
205 227 255
205 227 255
205 227 255
205 227 255
205 227 255
205 226 255
205 226 255
205 226 255
205 226 255
205 226 255
205 226 255
204 226 255
204 226 255
204 226 255
204 226 255
204 226 255
204 226 255
204 226 255
204 226 255
204 226 255
204 226 255
204 226 255
204 226 255
204 226 255
204 226 255
204 226 255
204 226 255
203 226 255
203 226 255
203 226 255
203 226 255
203 226 255
203 226 255
203 226 255
203 225 255
203 225 255
203 225 255
203 225 255
203 225 255
203 225 255
203 225 255
203 225 255
203 225 255
202 225 255
202 225 255
202 225 255
202 225 255
202 225 255
202 225 255
202 225 255
202 225 255
202 225 255
202 225 255
202 225 255
202 225 255
202 225 255
202 225 255
202 225 255
202 225 255
201 225 255
201 225 255
201 225 255
201 225 255
201 225 255
201 225 255
201 224 255
201 224 255
201 224 255
201 224 255
201 224 255
201 224 255
201 224 255
201 224 255
201 224 255
201 224 255
201 224 255
201 224 255
201 224 255
200 224 255
200 224 255
200 224 255
200 224 255
200 224 255
200 224 255
200 224 255
200 224 255
200 224 255
200 224 255
200 224 255
200 224 255
200 224 255
200 224 255
200 224 255
200 224 255
200 224 255
200 224 255
200 224 255
200 224 255
200 224 255
200 224 255
200 224 255
200 224 255
200 224 255
200 224 255
200 224 255
200 224 255
200 224 255
200 224 255
200 224 255
200 224 255
200 224 255
200 224 255
199 224 255
199 224 255
199 224 255
199 224 255
199 224 255
199 224 255
199 224 255
199 224 255
199 224 255
199 224 255
199 224 255
199 224 255
199 224 255
199 224 255
199 224 255
199 224 255
199 224 255
199 224 255
200 224 255
200 224 255
200 224 255
200 224 255
200 224 255
200 224 255
200 224 255
200 224 255
200 224 255
200 224 255
200 224 255
200 224 255
200 224 255
200 224 255
200 224 255
200 224 255
200 224 255
200 224 255
200 224 255
200 224 255
200 224 255
200 224 255
200 224 255
200 224 255
200 224 255
200 224 255
200 224 255
200 224 255
200 224 255
200 224 255
200 224 255
200 224 255
200 224 255
200 224 255
201 224 255
201 224 255
201 224 255
201 224 255
201 224 255
201 224 255
201 224 255
201 224 255
201 224 255
201 224 255
201 224 255
201 224 255
201 224 255
201 224 255
201 225 255
201 225 255
201 225 255
201 225 255
201 225 255
202 225 255
202 225 255
202 225 255
202 225 255
202 225 255
202 225 255
202 225 255
202 225 255
202 225 255
202 225 255
202 225 255
202 225 255
202 225 255
202 225 255
202 225 255
202 225 255
203 225 255
203 225 255
203 225 255
203 225 255
203 225 255
203 225 255
203 225 255
203 225 255
203 225 255
203 226 255
203 226 255
203 226 255
203 226 255
203 226 255
203 226 255
203 226 255
204 226 255
204 226 255
204 226 255
204 226 255
204 226 255
204 226 255
204 226 255
204 226 255
204 226 255
204 226 255
204 226 255
204 226 255
204 226 255
204 226 255
204 226 255
204 226 255
205 226 255
205 226 255
205 226 255
205 226 255
205 226 255
205 226 255
205 227 255
205 227 255
205 227 255
205 227 255
205 227 255
205 227 255
205 227 255
205 227 255
205 227 255
205 227 255
206 227 255
206 227 255
206 227 255
206 227 255
206 227 255
206 227 255
206 227 255
206 227 255
206 227 255
206 227 255
206 227 255
206 227 255
206 227 255
206 227 255
206 227 255
206 227 255
206 227 255
206 227 255
207 227 255
207 227 255
207 227 255
207 227 255
207 228 255
207 228 255
207 228 255
207 228 255
207 228 255
207 228 255
207 228 255
207 228 255
207 228 255
207 228 255
207 228 255
207 228 255
207 228 255
207 228 255
208 228 255
208 228 255
208 228 255
208 228 255
208 228 255
208 228 255
208 228 255
208 228 255
208 228 255
208 228 255
208 228 255
208 228 255
208 228 255
208 228 255
208 228 255
208 228 255
208 228 255
208 228 255
208 228 255
208 228 255
208 228 255
209 228 255
209 229 255
209 229 255
209 229 255
209 229 255
209 229 255
209 229 255
209 229 255
209 229 255
209 229 255
209 229 255
209 229 255
209 229 255
209 229 255
209 229 255
209 229 255
209 229 255
209 229 255
209 229 255
209 229 255
209 229 255
209 229 255
209 229 255
209 229 255
209 229 255
209 229 255
209 229 255
209 229 255
209 229 255
209 229 255
209 229 255
209 229 255
209 229 255
209 229 255
209 229 255
209 229 255
209 228 255
209 228 255
208 228 255
208 228 255
208 228 255
208 228 255
208 228 255
208 228 255
208 228 255
208 228 255
208 228 255
208 228 255
208 228 255
208 228 255
208 228 255
208 228 255
208 228 255
208 228 255
208 228 255
208 228 255
208 228 255
208 228 255
207 228 255
207 228 255
207 228 255
207 228 255
207 228 255
207 228 255
207 228 255
207 228 255
207 228 255
207 228 255
207 228 255
207 228 255
207 228 255
207 228 255
207 227 255
207 227 255
207 227 255
207 227 255
207 227 255
206 227 255
206 227 255
206 227 255
206 227 255
206 227 255
206 227 255
206 227 255
206 227 255
206 227 255
206 227 255
206 227 255
206 227 255
206 227 255
206 227 255
206 227 255
206 227 255
206 227 255
205 227 255
205 227 255
205 227 255
205 227 255
205 227 255
205 227 255
205 227 255
205 227 255
205 227 255
205 227 255
205 226 255
205 226 255
205 226 255
205 226 255
205 226 255
205 226 255
204 226 255
204 226 255
204 226 255
204 226 255
204 226 255
204 226 255
204 226 255
204 226 255
204 226 255
204 226 255
204 226 255
204 226 255
204 226 255
204 226 255
204 226 255
204 226 255
203 226 255
203 226 255
203 226 255
203 226 255
203 226 255
203 226 255
203 226 255
203 225 255
203 225 255
203 225 255
203 225 255
203 225 255
203 225 255
203 225 255
203 225 255
203 225 255
202 225 255
202 225 255
202 225 255
202 225 255
202 225 255
202 225 255
202 225 255
202 225 255
202 225 255
202 225 255
202 225 255
202 225 255
202 225 255
202 225 255
202 225 255
202 225 255
202 225 255
201 225 255
201 225 255
201 225 255
201 225 255
201 225 255
201 224 255
201 224 255
201 224 255
201 224 255
201 224 255
201 224 255
201 224 255
201 224 255
201 224 255
201 224 255
201 224 255
201 224 255
201 224 255
201 224 255
201 224 255
200 224 255
200 224 255
200 224 255
200 224 255
200 224 255
200 224 255
200 224 255
200 224 255
200 224 255
200 224 255
200 224 255
200 224 255
200 224 255
200 224 255
200 224 255
200 224 255
200 224 255
200 224 255
200 224 255
200 224 255
200 224 255
200 224 255
200 224 255
200 224 255
200 224 255
200 224 255
200 224 255
200 224 255
200 224 255
200 224 255
200 224 255
200 224 255
200 224 255
200 224 255
200 224 255
200 224 255
200 224 255
200 224 255
200 224 255
200 224 255
200 224 255
200 224 255
200 224 255
200 224 255
200 224 255
200 224 255
200 224 255
200 224 255
200 224 255
200 224 255
200 224 255
200 224 255
200 224 255
200 224 255
200 224 255
200 224 255
200 224 255
200 224 255
200 224 255
200 224 255
200 224 255
200 224 255
200 224 255
200 224 255
200 224 255
200 224 255
200 224 255
200 224 255
200 224 255
200 224 255
200 224 255
200 224 255
200 224 255
200 224 255
200 224 255
200 224 255
201 224 255
201 224 255
201 224 255
201 224 255
201 224 255
201 224 255
201 224 255
201 224 255
201 224 255
201 224 255
201 224 255
201 224 255
201 224 255
201 224 255
201 224 255
201 225 255
201 225 255
201 225 255
201 225 255
201 225 255
202 225 255
202 225 255
202 225 255
202 225 255
202 225 255
202 225 255
202 225 255
202 225 255
202 225 255
202 225 255
202 225 255
202 225 255
202 225 255
202 225 255
202 225 255
202 225 255
202 225 255
203 225 255
203 225 255
203 225 255
203 225 255
203 225 255
203 225 255
203 225 255
203 225 255
203 225 255
203 226 255
203 226 255
203 226 255
203 226 255
203 226 255
203 226 255
203 226 255
204 226 255
204 226 255
204 226 255
204 226 255
204 226 255
204 226 255
204 226 255
204 226 255
204 226 255
204 226 255
204 226 255
204 226 255
204 226 255
204 226 255
204 226 255
204 226 255
205 226 255
205 226 255
205 226 255
205 226 255
205 226 255
205 226 255
205 226 255
205 227 255
205 227 255
205 227 255
205 227 255
205 227 255
205 227 255
205 227 255
205 227 255
205 227 255
206 227 255
206 227 255
206 227 255
206 227 255
206 227 255
206 227 255
206 227 255
206 227 255
206 227 255
206 227 255
206 227 255
206 227 255
206 227 255
206 227 255
206 227 255
206 227 255
206 227 255
206 227 255
207 227 255
207 227 255
207 227 255
207 227 255
207 228 255
207 228 255
207 228 255
207 228 255
207 228 255
207 228 255
207 228 255
207 228 255
207 228 255
207 228 255
207 228 255
207 228 255
207 228 255
207 228 255
208 228 255
208 228 255
208 228 255
208 228 255
208 228 255
208 228 255
208 228 255
208 228 255
208 228 255
208 228 255
208 228 255
208 228 255
208 228 255
208 228 255
208 228 255
208 228 255
208 228 255
208 228 255
208 228 255
208 228 255
209 228 255
209 228 255
209 229 255
209 229 255
209 229 255
209 229 255
209 229 255
209 229 255
209 229 255
209 229 255
209 229 255
209 229 255
209 229 255
209 229 255
209 229 255
209 229 255
209 229 255
209 229 255
209 229 255
209 229 255
209 229 255
210 229 255
209 229 255
209 229 255
209 229 255
209 229 255
209 229 255
209 229 255
209 229 255
209 229 255
209 229 255
209 229 255
209 229 255
209 229 255
209 229 255
209 229 255
209 229 255
209 229 255
209 229 255
209 229 255
209 229 255
209 229 255
209 229 255
209 229 255
209 228 255
208 228 255
208 228 255
208 228 255
208 228 255
208 228 255
208 228 255
208 228 255
208 228 255
208 228 255
208 228 255
208 228 255
208 228 255
208 228 255
208 228 255
208 228 255
208 228 255
208 228 255
208 228 255
208 228 255
208 228 255
207 228 255
207 228 255
207 228 255
207 228 255
207 228 255
207 228 255
207 228 255
207 228 255
207 228 255
207 228 255
207 228 255
207 228 255
207 228 255
207 228 255
207 227 255
207 227 255
207 227 255
207 227 255
207 227 255
206 227 255
206 227 255
206 227 255
206 227 255
206 227 255
206 227 255
206 227 255
206 227 255
206 227 255
206 227 255
206 227 255
206 227 255
206 227 255
206 227 255
206 227 255
206 227 255
206 227 255
205 227 255
205 227 255
205 227 255
205 227 255
205 227 255
205 227 255
205 227 255
205 227 255
205 227 255
205 227 255
205 226 255
205 226 255
205 226 255
205 226 255
205 226 255
205 226 255
204 226 255
204 226 255
204 226 255
204 226 255
204 226 255
204 226 255
204 226 255
204 226 255
204 226 255
204 226 255
204 226 255
204 226 255
204 226 255
204 226 255
204 226 255
204 226 255
203 226 255
203 226 255
203 226 255
203 226 255
203 226 255
203 226 255
203 226 255
203 225 255
203 225 255
203 225 255
203 225 255
203 225 255
203 225 255
203 225 255
203 225 255
203 225 255
202 225 255
202 225 255
202 225 255
202 225 255
202 225 255
202 225 255
202 225 255
202 225 255
202 225 255
202 225 255
202 225 255
202 225 255
202 225 255
202 225 255
202 225 255
202 225 255
202 225 255
202 225 255
201 225 255
201 225 255
201 225 255
201 225 255
201 225 255
201 224 255
201 224 255
201 224 255
201 224 255
201 224 255
201 224 255
201 224 255
201 224 255
201 224 255
201 224 255
201 224 255
201 224 255
201 224 255
201 224 255
201 224 255
201 224 255
200 224 255
200 224 255
200 224 255
200 224 255
200 224 255
200 224 255
200 224 255
200 224 255
200 224 255
200 224 255
200 224 255
200 224 255
200 224 255
200 224 255
200 224 255
200 224 255
200 224 255
200 224 255
200 224 255
200 224 255
200 224 255
200 224 255
200 224 255
200 224 255
200 224 255
200 224 255
200 224 255
200 224 255
200 224 255
200 224 255
200 224 255
200 224 255
200 224 255
200 224 255
200 224 255
200 224 255
200 224 255
200 224 255
200 224 255
200 224 255
200 224 255
200 224 255
200 224 255
200 224 255
200 224 255
200 224 255
200 224 255
200 224 255
200 224 255
200 224 255
200 224 255
200 224 255
200 224 255
200 224 255
200 224 255
200 224 255
200 224 255
200 224 255
200 224 255
200 224 255
200 224 255
200 224 255
200 224 255
200 224 255
200 224 255
201 224 255
201 224 255
201 224 255
201 224 255
201 224 255
201 224 255
201 224 255
201 224 255
201 224 255
201 224 255
201 224 255
201 224 255
201 224 255
201 224 255
201 224 255
201 224 255
201 224 255
201 225 255
201 225 255
201 225 255
201 225 255
201 225 255
202 225 255
202 225 255
202 225 255
202 225 255
202 225 255
202 225 255
202 225 255
202 225 255
202 225 255
202 225 255
202 225 255
202 225 255
202 225 255
202 225 255
202 225 255
202 225 255
202 225 255
202 225 255
203 225 255
203 225 255
203 225 255
203 225 255
203 225 255
203 225 255
203 225 255
203 225 255
203 225 255
203 226 255
203 226 255
203 226 255
203 226 255
203 226 255
203 226 255
203 226 255
204 226 255
204 226 255
204 226 255
204 226 255
204 226 255
204 226 255
204 226 255
204 226 255
204 226 255
204 226 255
204 226 255
204 226 255
204 226 255
204 226 255
204 226 255
204 226 255
205 226 255
205 226 255
205 226 255
205 226 255
205 226 255
205 226 255
205 227 255
205 227 255
205 227 255
205 227 255
205 227 255
205 227 255
205 227 255
205 227 255
205 227 255
205 227 255
206 227 255
206 227 255
206 227 255
206 227 255
206 227 255
206 227 255
206 227 255
206 227 255
206 227 255
206 227 255
206 227 255
206 227 255
206 227 255
206 227 255
206 227 255
206 227 255
206 227 255
207 227 255
207 227 255
207 227 255
207 227 255
207 227 255
207 228 255
207 228 255
207 228 255
207 228 255
207 228 255
207 228 255
207 228 255
207 228 255
207 228 255
207 228 255
207 228 255
207 228 255
207 228 255
207 228 255
208 228 255
208 228 255
208 228 255
208 228 255
208 228 255
208 228 255
208 228 255
208 228 255
208 228 255
208 228 255
208 228 255
208 228 255
208 228 255
208 228 255
208 228 255
208 228 255
208 228 255
208 228 255
208 228 255
208 228 255
209 228 255
209 228 255
209 229 255
209 229 255
209 229 255
209 229 255
209 229 255
209 229 255
209 229 255
209 229 255
209 229 255
209 229 255
209 229 255
209 229 255
209 229 255
209 229 255
209 229 255
209 229 255
209 229 255
209 229 255
209 229 255
209 229 255
209 229 255
210 229 255
210 229 255
210 229 255
210 229 255
210 229 255
210 229 255
209 229 255
209 229 255
209 229 255
209 229 255
209 229 255
209 229 255
209 229 255
209 229 255
209 229 255
209 229 255
209 229 255
209 229 255
209 229 255
209 229 255
209 229 255
209 229 255
209 229 255
209 229 255
209 229 255
209 229 255
209 229 255
209 228 255
208 228 255
208 228 255
208 228 255
208 228 255
208 228 255
208 228 255
208 228 255
208 228 255
208 228 255
208 228 255
208 228 255
208 228 255
208 228 255
208 228 255
208 228 255
208 228 255
208 228 255
208 228 255
208 228 255
208 228 255
207 228 255
207 228 255
207 228 255
207 228 255
207 228 255
207 228 255
207 228 255
207 228 255
207 228 255
207 228 255
207 228 255
207 228 255
207 228 255
207 228 255
207 227 255
207 227 255
207 227 255
207 227 255
207 227 255
206 227 255
206 227 255
206 227 255
206 227 255
206 227 255
206 227 255
206 227 255
206 227 255
206 227 255
206 227 255
206 227 255
206 227 255
206 227 255
206 227 255
206 227 255
206 227 255
206 227 255
205 227 255
205 227 255
205 227 255
205 227 255
205 227 255
205 227 255
205 227 255
205 227 255
205 227 255
205 227 255
205 226 255
205 226 255
205 226 255
205 226 255
205 226 255
205 226 255
204 226 255
204 226 255
204 226 255
204 226 255
204 226 255
204 226 255
204 226 255
204 226 255
204 226 255
204 226 255
204 226 255
204 226 255
204 226 255
204 226 255
204 226 255
204 226 255
203 226 255
203 226 255
203 226 255
203 226 255
203 226 255
203 226 255
203 226 255
203 225 255
203 225 255
203 225 255
203 225 255
203 225 255
203 225 255
203 225 255
203 225 255
203 225 255
203 225 255
202 225 255
202 225 255
202 225 255
202 225 255
202 225 255
202 225 255
202 225 255
202 225 255
202 225 255
202 225 255
202 225 255
202 225 255
202 225 255
202 225 255
202 225 255
202 225 255
202 225 255
201 225 255
201 225 255
201 225 255
201 225 255
201 225 255
201 225 255
201 225 255
201 224 255
201 224 255
201 224 255
201 224 255
201 224 255
201 224 255
201 224 255
201 224 255
201 224 255
201 224 255
201 224 255
201 224 255
201 224 255
201 224 255
201 224 255
201 224 255
201 224 255
200 224 255
200 224 255
200 224 255
200 224 255
200 224 255
200 224 255
200 224 255
200 224 255
200 224 255
200 224 255
200 224 255
200 224 255
200 224 255
200 224 255
200 224 255
200 224 255
200 224 255
200 224 255
200 224 255
200 224 255
200 224 255
200 224 255
200 224 255
200 224 255
200 224 255
200 224 255
200 224 255
200 224 255
200 224 255
200 224 255
200 224 255
200 224 255
200 224 255
200 224 255
200 224 255
200 224 255
200 224 255
200 224 255
200 224 255
200 224 255
200 224 255
200 224 255
200 224 255
200 224 255
200 224 255
200 224 255
200 224 255
200 224 255
200 224 255
200 224 255
200 224 255
200 224 255
200 224 255
200 224 255
201 224 255
201 224 255
201 224 255
201 224 255
201 224 255
201 224 255
201 224 255
201 224 255
201 224 255
201 224 255
201 224 255
201 224 255
201 224 255
201 224 255
201 224 255
201 224 255
201 224 255
201 225 255
201 225 255
201 225 255
201 225 255
201 225 255
201 225 255
201 225 255
202 225 255
202 225 255
202 225 255
202 225 255
202 225 255
202 225 255
202 225 255
202 225 255
202 225 255
202 225 255
202 225 255
202 225 255
202 225 255
202 225 255
202 225 255
202 225 255
202 225 255
203 225 255
203 225 255
203 225 255
203 225 255
203 225 255
203 225 255
203 225 255
203 225 255
203 225 255
203 225 255
203 226 255
203 226 255
203 226 255
203 226 255
203 226 255
203 226 255
203 226 255
204 226 255
204 226 255
204 226 255
204 226 255
204 226 255
204 226 255
204 226 255
204 226 255
204 226 255
204 226 255
204 226 255
204 226 255
204 226 255
204 226 255
204 226 255
204 226 255
205 226 255
205 226 255
205 226 255
205 226 255
205 226 255
205 226 255
205 227 255
205 227 255
205 227 255
205 227 255
205 227 255
205 227 255
205 227 255
205 227 255
205 227 255
205 227 255
206 227 255
206 227 255
206 227 255
206 227 255
206 227 255
206 227 255
206 227 255
206 227 255
206 227 255
206 227 255
206 227 255
206 227 255
206 227 255
206 227 255
206 227 255
206 227 255
206 227 255
207 227 255
207 227 255
207 227 255
207 227 255
207 228 255
207 228 255
207 228 255
207 228 255
207 228 255
207 228 255
207 228 255
207 228 255
207 228 255
207 228 255
207 228 255
207 228 255
207 228 255
207 228 255
207 228 255
208 228 255
208 228 255
208 228 255
208 228 255
208 228 255
208 228 255
208 228 255
208 228 255
208 228 255
208 228 255
208 228 255
208 228 255
208 228 255
208 228 255
208 228 255
208 228 255
208 228 255
208 228 255
208 228 255
208 228 255
209 228 255
209 229 255
209 229 255
209 229 255
209 229 255
209 229 255
209 229 255
209 229 255
209 229 255
209 229 255
209 229 255
209 229 255
209 229 255
209 229 255
209 229 255
209 229 255
209 229 255
209 229 255
209 229 255
209 229 255
209 229 255
209 229 255
210 229 255
210 229 255
210 229 255
210 229 255
210 229 255
210 229 255
210 229 255
210 229 255
210 229 255
210 229 255
210 229 255
210 229 255
210 229 255
210 229 255
209 229 255
209 229 255
209 229 255
209 229 255
209 229 255
209 229 255
209 229 255
209 229 255
209 229 255
209 229 255
209 229 255
209 229 255
209 229 255
209 229 255
209 229 255
209 229 255
209 229 255
209 229 255
209 229 255
209 229 255
209 228 255
209 228 255
208 228 255
208 228 255
208 228 255
208 228 255
208 228 255
208 228 255
208 228 255
208 228 255
208 228 255
208 228 255
208 228 255
208 228 255
208 228 255
208 228 255
208 228 255
208 228 255
208 228 255
208 228 255
208 228 255
208 228 255
207 228 255
207 228 255
207 228 255
207 228 255
207 228 255
207 228 255
207 228 255
207 228 255
207 228 255
207 228 255
207 228 255
207 228 255
207 228 255
207 228 255
207 227 255
207 227 255
207 227 255
207 227 255
206 227 255
206 227 255
206 227 255
206 227 255
206 227 255
206 227 255
206 227 255
206 227 255
206 227 255
206 227 255
206 227 255
206 227 255
206 227 255
206 227 255
206 227 255
206 227 255
206 227 255
205 227 255
205 227 255
205 227 255
205 227 255
205 227 255
205 227 255
205 227 255
205 227 255
205 227 255
205 227 255
205 226 255
205 226 255
205 226 255
205 226 255
205 226 255
205 226 255
204 226 255
204 226 255
204 226 255
204 226 255
204 226 255
204 226 255
204 226 255
204 226 255
204 226 255
204 226 255
204 226 255
204 226 255
204 226 255
204 226 255
204 226 255
204 226 255
203 226 255
203 226 255
203 226 255
203 226 255
203 226 255
203 226 255
203 226 255
203 226 255
203 225 255
203 225 255
203 225 255
203 225 255
203 225 255
203 225 255
203 225 255
203 225 255
203 225 255
202 225 255
202 225 255
202 225 255
202 225 255
202 225 255
202 225 255
202 225 255
202 225 255
202 225 255
202 225 255
202 225 255
202 225 255
202 225 255
202 225 255
202 225 255
202 225 255
202 225 255
202 225 255
202 225 255
201 225 255
201 225 255
201 225 255
201 225 255
201 225 255
201 225 255
201 224 255
201 224 255
201 224 255
201 224 255
201 224 255
201 224 255
201 224 255
201 224 255
201 224 255
201 224 255
201 224 255
201 224 255
201 224 255
201 224 255
201 224 255
201 224 255
201 224 255
201 224 255
201 224 255
201 224 255
201 224 255
201 224 255
200 224 255
200 224 255
200 224 255
200 224 255
200 224 255
200 224 255
200 224 255
200 224 255
200 224 255
200 224 255
200 224 255
200 224 255
200 224 255
200 224 255
200 224 255
200 224 255
200 224 255
200 224 255
200 224 255
200 224 255
200 224 255
200 224 255
200 224 255
200 224 255
200 224 255
200 224 255
200 224 255
200 224 255
200 224 255
200 224 255
200 224 255
200 224 255
200 224 255
200 224 255
200 224 255
200 224 255
200 224 255
201 224 255
201 224 255
201 224 255
201 224 255
201 224 255
201 224 255
201 224 255
201 224 255
201 224 255
201 224 255
201 224 255
201 224 255
201 224 255
201 224 255
201 224 255
201 224 255
201 224 255
201 224 255
201 224 255
201 224 255
201 224 255
201 225 255
201 225 255
201 225 255
201 225 255
201 225 255
201 225 255
202 225 255
202 225 255
202 225 255
202 225 255
202 225 255
202 225 255
202 225 255
202 225 255
202 225 255
202 225 255
202 225 255
202 225 255
202 225 255
202 225 255
202 225 255
202 225 255
202 225 255
202 225 255
202 225 255
203 225 255
203 225 255
203 225 255
203 225 255
203 225 255
203 225 255
203 225 255
203 225 255
203 225 255
203 226 255
203 226 255
203 226 255
203 226 255
203 226 255
203 226 255
203 226 255
203 226 255
204 226 255
204 226 255
204 226 255
204 226 255
204 226 255
204 226 255
204 226 255
204 226 255
204 226 255
204 226 255
204 226 255
204 226 255
204 226 255
204 226 255
204 226 255
204 226 255
205 226 255
205 226 255
205 226 255
205 226 255
205 226 255
205 226 255
205 227 255
205 227 255
205 227 255
205 227 255
205 227 255
205 227 255
205 227 255
205 227 255
205 227 255
205 227 255
206 227 255
206 227 255
206 227 255
206 227 255
206 227 255
206 227 255
206 227 255
206 227 255
206 227 255
206 227 255
206 227 255
206 227 255
206 227 255
206 227 255
206 227 255
206 227 255
206 227 255
207 227 255
207 227 255
207 227 255
207 227 255
207 228 255
207 228 255
207 228 255
207 228 255
207 228 255
207 228 255
207 228 255
207 228 255
207 228 255
207 228 255
207 228 255
207 228 255
207 228 255
207 228 255
208 228 255
208 228 255
208 228 255
208 228 255
208 228 255
208 228 255
208 228 255
208 228 255
208 228 255
208 228 255
208 228 255
208 228 255
208 228 255
208 228 255
208 228 255
208 228 255
208 228 255
208 228 255
208 228 255
208 228 255
209 228 255
209 228 255
209 229 255
209 229 255
209 229 255
209 229 255
209 229 255
209 229 255
209 229 255
209 229 255
209 229 255
209 229 255
209 229 255
209 229 255
209 229 255
209 229 255
209 229 255
209 229 255
209 229 255
209 229 255
209 229 255
209 229 255
210 229 255
210 229 255
210 229 255
210 229 255
210 229 255
210 229 255
210 229 255
210 229 255
210 229 255
210 229 255
210 229 255
210 229 255
210 229 255
210 229 255
210 229 255
210 229 255
210 229 255
210 229 255
210 229 255
210 229 255
210 229 255
209 229 255
209 229 255
209 229 255
209 229 255
209 229 255
209 229 255
209 229 255
209 229 255
209 229 255
209 229 255
209 229 255
209 229 255
209 229 255
209 229 255
209 229 255
209 229 255
209 229 255
209 229 255
209 229 255
209 229 255
209 229 255
209 228 255
208 228 255
208 228 255
208 228 255
208 228 255
208 228 255
208 228 255
208 228 255
208 228 255
208 228 255
208 228 255
208 228 255
208 228 255
208 228 255
208 228 255
208 228 255
208 228 255
208 228 255
208 228 255
208 228 255
208 228 255
207 228 255
207 228 255
207 228 255
207 228 255
207 228 255
207 228 255
207 228 255
207 228 255
207 228 255
207 228 255
207 228 255
207 228 255
207 228 255
207 228 255
207 227 255
207 227 255
207 227 255
207 227 255
206 227 255
206 227 255
206 227 255
206 227 255
206 227 255
206 227 255
206 227 255
206 227 255
206 227 255
206 227 255
206 227 255
206 227 255
206 227 255
206 227 255
206 227 255
206 227 255
206 227 255
205 227 255
205 227 255
205 227 255
205 227 255
205 227 255
205 227 255
205 227 255
205 227 255
205 227 255
205 227 255
205 226 255
205 226 255
205 226 255
205 226 255
205 226 255
205 226 255
204 226 255
204 226 255
204 226 255
204 226 255
204 226 255
204 226 255
204 226 255
204 226 255
204 226 255
204 226 255
204 226 255
204 226 255
204 226 255
204 226 255
204 226 255
204 226 255
204 226 255
203 226 255
203 226 255
203 226 255
203 226 255
203 226 255
203 226 255
203 226 255
203 225 255
203 225 255
203 225 255
203 225 255
203 225 255
203 225 255
203 225 255
203 225 255
203 225 255
203 225 255
202 225 255
202 225 255
202 225 255
202 225 255
202 225 255
202 225 255
202 225 255
202 225 255
202 225 255
202 225 255
202 225 255
202 225 255
202 225 255
202 225 255
202 225 255
202 225 255
202 225 255
202 225 255
202 225 255
201 225 255
201 225 255
201 225 255
201 225 255
201 225 255
201 225 255
201 225 255
201 225 255
201 224 255
201 224 255
201 224 255
201 224 255
201 224 255
201 224 255
201 224 255
201 224 255
201 224 255
201 224 255
201 224 255
201 224 255
201 224 255
201 224 255
201 224 255
201 224 255
201 224 255
201 224 255
201 224 255
201 224 255
201 224 255
201 224 255
201 224 255
201 224 255
201 224 255
201 224 255
201 224 255
201 224 255
201 224 255
201 224 255
201 224 255
201 224 255
201 224 255
201 224 255
201 224 255
201 224 255
201 224 255
201 224 255
201 224 255
201 224 255
201 224 255
201 224 255
201 224 255
201 224 255
201 224 255
201 224 255
201 224 255
201 224 255
201 224 255
201 224 255
201 224 255
201 224 255
201 224 255
201 224 255
201 224 255
201 224 255
201 224 255
201 224 255
201 224 255
201 224 255
201 224 255
201 224 255
201 224 255
201 224 255
201 224 255
201 224 255
201 224 255
201 224 255
201 225 255
201 225 255
201 225 255
201 225 255
201 225 255
201 225 255
201 225 255
202 225 255
202 225 255
202 225 255
202 225 255
202 225 255
202 225 255
202 225 255
202 225 255
202 225 255
202 225 255
202 225 255
202 225 255
202 225 255
202 225 255
202 225 255
202 225 255
202 225 255
202 225 255
202 225 255
202 225 255
203 225 255
203 225 255
203 225 255
203 225 255
203 225 255
203 225 255
203 225 255
203 225 255
203 225 255
203 225 255
203 226 255
203 226 255
203 226 255
203 226 255
203 226 255
203 226 255
203 226 255
204 226 255
204 226 255
204 226 255
204 226 255
204 226 255
204 226 255
204 226 255
204 226 255
204 226 255
204 226 255
204 226 255
204 226 255
204 226 255
204 226 255
204 226 255
204 226 255
204 226 255
205 226 255
205 226 255
205 226 255
205 226 255
205 226 255
205 226 255
205 227 255
205 227 255
205 227 255
205 227 255
205 227 255
205 227 255
205 227 255
205 227 255
205 227 255
205 227 255
206 227 255
206 227 255
206 227 255
206 227 255
206 227 255
206 227 255
206 227 255
206 227 255
206 227 255
206 227 255
206 227 255
206 227 255
206 227 255
206 227 255
206 227 255
206 227 255
206 227 255
207 227 255
207 227 255
207 227 255
207 227 255
207 228 255
207 228 255
207 228 255
207 228 255
207 228 255
207 228 255
207 228 255
207 228 255
207 228 255
207 228 255
207 228 255
207 228 255
207 228 255
207 228 255
208 228 255
208 228 255
208 228 255
208 228 255
208 228 255
208 228 255
208 228 255
208 228 255
208 228 255
208 228 255
208 228 255
208 228 255
208 228 255
208 228 255
208 228 255
208 228 255
208 228 255
208 228 255
208 228 255
208 228 255
209 228 255
209 229 255
209 229 255
209 229 255
209 229 255
209 229 255
209 229 255
209 229 255
209 229 255
209 229 255
209 229 255
209 229 255
209 229 255
209 229 255
209 229 255
209 229 255
209 229 255
209 229 255
209 229 255
209 229 255
209 229 255
209 229 255
210 229 255
210 229 255
210 229 255
210 229 255
210 229 255
210 229 255
210 229 255
210 229 255
210 229 255
210 229 255
210 229 255
210 229 255
210 229 255
210 229 255
210 229 255
210 229 255
210 229 255
210 229 255
210 229 255
210 229 255
210 229 255
210 229 255
210 229 255
210 229 255
210 229 255
210 229 255
210 229 255
210 229 255
209 229 255
209 229 255
209 229 255
209 229 255
209 229 255
209 229 255
209 229 255
209 229 255
209 229 255
209 229 255
209 229 255
209 229 255
209 229 255
209 229 255
209 229 255
209 229 255
209 229 255
209 229 255
209 229 255
209 229 255
209 228 255
209 228 255
208 228 255
208 228 255
208 228 255
208 228 255
208 228 255
208 228 255
208 228 255
208 228 255
208 228 255
208 228 255
208 228 255
208 228 255
208 228 255
208 228 255
208 228 255
208 228 255
208 228 255
208 228 255
208 228 255
207 228 255
207 228 255
207 228 255
207 228 255
207 228 255
207 228 255
207 228 255
207 228 255
207 228 255
207 228 255
207 228 255
207 228 255
207 228 255
207 228 255
207 227 255
207 227 255
207 227 255
207 227 255
206 227 255
206 227 255
206 227 255
206 227 255
206 227 255
206 227 255
206 227 255
206 227 255
206 227 255
206 227 255
206 227 255
206 227 255
206 227 255
206 227 255
206 227 255
206 227 255
206 227 255
205 227 255
205 227 255
205 227 255
205 227 255
205 227 255
205 227 255
205 227 255
205 227 255
205 227 255
205 227 255
205 226 255
205 226 255
205 226 255
205 226 255
205 226 255
205 226 255
205 226 255
204 226 255
204 226 255
204 226 255
204 226 255
204 226 255
204 226 255
204 226 255
204 226 255
204 226 255
204 226 255
204 226 255
204 226 255
204 226 255
204 226 255
204 226 255
204 226 255
203 226 255
203 226 255
203 226 255
203 226 255
203 226 255
203 226 255
203 226 255
203 226 255
203 225 255
203 225 255
203 225 255
203 225 255
203 225 255
203 225 255
203 225 255
203 225 255
203 225 255
203 225 255
202 225 255
202 225 255
202 225 255
202 225 255
202 225 255
202 225 255
202 225 255
202 225 255
202 225 255
202 225 255
202 225 255
202 225 255
202 225 255
202 225 255
202 225 255
202 225 255
202 225 255
202 225 255
202 225 255
202 225 255
202 225 255
201 225 255
201 225 255
201 225 255
201 225 255
201 225 255
201 225 255
201 225 255
201 225 255
201 224 255
201 224 255
201 224 255
201 224 255
201 224 255
201 224 255
201 224 255
201 224 255
201 224 255
201 224 255
201 224 255
201 224 255
201 224 255
201 224 255
201 224 255
201 224 255
201 224 255
201 224 255
201 224 255
201 224 255
201 224 255
201 224 255
201 224 255
201 224 255
201 224 255
201 224 255
201 224 255
201 224 255
201 224 255
201 224 255
201 224 255
201 224 255
201 224 255
201 224 255
201 224 255
201 224 255
201 224 255
201 224 255
201 224 255
201 224 255
201 224 255
201 224 255
201 224 255
201 224 255
201 224 255
201 224 255
201 224 255
201 224 255
201 224 255
201 224 255
201 224 255
201 224 255
201 224 255
201 224 255
201 224 255
201 224 255
201 225 255
201 225 255
201 225 255
201 225 255
201 225 255
201 225 255
201 225 255
201 225 255
201 225 255
202 225 255
202 225 255
202 225 255
202 225 255
202 225 255
202 225 255
202 225 255
202 225 255
202 225 255
202 225 255
202 225 255
202 225 255
202 225 255
202 225 255
202 225 255
202 225 255
202 225 255
202 225 255
202 225 255
202 225 255
203 225 255
203 225 255
203 225 255
203 225 255
203 225 255
203 225 255
203 225 255
203 225 255
203 225 255
203 225 255
203 226 255
203 226 255
203 226 255
203 226 255
203 226 255
203 226 255
203 226 255
203 226 255
204 226 255
204 226 255
204 226 255
204 226 255
204 226 255
204 226 255
204 226 255
204 226 255
204 226 255
204 226 255
204 226 255
204 226 255
204 226 255
204 226 255
204 226 255
204 226 255
205 226 255
205 226 255
205 226 255
205 226 255
205 226 255
205 226 255
205 226 255
205 227 255
205 227 255
205 227 255
205 227 255
205 227 255
205 227 255
205 227 255
205 227 255
205 227 255
206 227 255
206 227 255
206 227 255
206 227 255
206 227 255
206 227 255
206 227 255
206 227 255
206 227 255
206 227 255
206 227 255
206 227 255
206 227 255
206 227 255
206 227 255
206 227 255
206 227 255
206 227 255
207 227 255
207 227 255
207 227 255
207 227 255
207 228 255
207 228 255
207 228 255
207 228 255
207 228 255
207 228 255
207 228 255
207 228 255
207 228 255
207 228 255
207 228 255
207 228 255
207 228 255
207 228 255
208 228 255
208 228 255
208 228 255
208 228 255
208 228 255
208 228 255
208 228 255
208 228 255
208 228 255
208 228 255
208 228 255
208 228 255
208 228 255
208 228 255
208 228 255
208 228 255
208 228 255
208 228 255
208 228 255
209 228 255
209 228 255
209 229 255
209 229 255
209 229 255
209 229 255
209 229 255
209 229 255
209 229 255
209 229 255
209 229 255
209 229 255
209 229 255
209 229 255
209 229 255
209 229 255
209 229 255
209 229 255
209 229 255
209 229 255
209 229 255
209 229 255
210 229 255
210 229 255
210 229 255
210 229 255
210 229 255
210 229 255
210 229 255
210 229 255
210 229 255
210 229 255
210 229 255
210 229 255
210 229 255
210 229 255
210 229 255
210 229 255
210 229 255
210 229 255
210 229 255
210 229 255
210 229 255
210 229 255
210 229 255
210 229 255
210 229 255
210 229 255
210 229 255
210 229 255
210 229 255
210 229 255
210 229 255
210 229 255
210 229 255
210 229 255
210 229 255
209 229 255
209 229 255
209 229 255
209 229 255
209 229 255
209 229 255
209 229 255
209 229 255
209 229 255
209 229 255
209 229 255
209 229 255
209 229 255
209 229 255
209 229 255
209 229 255
209 229 255
209 229 255
209 229 255
209 229 255
209 229 255
209 228 255
208 228 255
208 228 255
208 228 255
208 228 255
208 228 255
208 228 255
208 228 255
208 228 255
208 228 255
208 228 255
208 228 255
208 228 255
208 228 255
208 228 255
208 228 255
208 228 255
208 228 255
208 228 255
208 228 255
208 228 255
207 228 255
207 228 255
207 228 255
207 228 255
207 228 255
207 228 255
207 228 255
207 228 255
207 228 255
207 228 255
207 228 255
207 228 255
207 228 255
207 227 255
207 227 255
207 227 255
207 227 255
207 227 255
206 227 255
206 227 255
206 227 255
206 227 255
206 227 255
206 227 255
206 227 255
206 227 255
206 227 255
206 227 255
206 227 255
206 227 255
206 227 255
206 227 255
206 227 255
206 227 255
206 227 255
205 227 255
205 227 255
205 227 255
205 227 255
205 227 255
205 227 255
205 227 255
205 227 255
205 227 255
205 226 255
205 226 255
205 226 255
205 226 255
205 226 255
205 226 255
205 226 255
204 226 255
204 226 255
204 226 255
204 226 255
204 226 255
204 226 255
204 226 255
204 226 255
204 226 255
204 226 255
204 226 255
204 226 255
204 226 255
204 226 255
204 226 255
204 226 255
204 226 255
203 226 255
203 226 255
203 226 255
203 226 255
203 226 255
203 226 255
203 226 255
203 225 255
203 225 255
203 225 255
203 225 255
203 225 255
203 225 255
203 225 255
203 225 255
203 225 255
203 225 255
203 225 255
202 225 255
202 225 255
202 225 255
202 225 255
202 225 255
202 225 255
202 225 255
202 225 255
202 225 255
202 225 255
202 225 255
202 225 255
202 225 255
202 225 255
202 225 255
202 225 255
202 225 255
202 225 255
202 225 255
202 225 255
202 225 255
202 225 255
202 225 255
201 225 255
201 225 255
201 225 255
201 225 255
201 225 255
201 225 255
201 225 255
201 225 255
201 225 255
201 225 255
201 224 255
201 224 255
201 224 255
201 224 255
201 224 255
201 224 255
201 224 255
201 224 255
201 224 255
201 224 255
201 224 255
201 224 255
201 224 255
201 224 255
201 224 255
201 224 255
201 224 255
201 224 255
201 224 255
201 224 255
201 224 255
201 224 255
201 224 255
201 224 255
201 224 255
201 224 255
201 224 255
201 224 255
201 224 255
201 224 255
201 224 255
201 224 255
201 224 255
201 224 255
201 224 255
201 224 255
201 224 255
201 224 255
201 224 255
201 224 255
201 225 255
201 225 255
201 225 255
201 225 255
201 225 255
201 225 255
201 225 255
201 225 255
201 225 255
201 225 255
202 225 255
202 225 255
202 225 255
202 225 255
202 225 255
202 225 255
202 225 255
202 225 255
202 225 255
202 225 255
202 225 255
202 225 255
202 225 255
202 225 255
202 225 255
202 225 255
202 225 255
202 225 255
202 225 255
202 225 255
202 225 255
202 225 255
202 225 255
203 225 255
203 225 255
203 225 255
203 225 255
203 225 255
203 225 255
203 225 255
203 225 255
203 225 255
203 225 255
203 226 255
203 226 255
203 226 255
203 226 255
203 226 255
203 226 255
203 226 255
203 226 255
204 226 255
204 226 255
204 226 255
204 226 255
204 226 255
204 226 255
204 226 255
204 226 255
204 226 255
204 226 255
204 226 255
204 226 255
204 226 255
204 226 255
204 226 255
204 226 255
204 226 255
205 226 255
205 226 255
205 226 255
205 226 255
205 226 255
205 226 255
205 226 255
205 227 255
205 227 255
205 227 255
205 227 255
205 227 255
205 227 255
205 227 255
205 227 255
205 227 255
206 227 255
206 227 255
206 227 255
206 227 255
206 227 255
206 227 255
206 227 255
206 227 255
206 227 255
206 227 255
206 227 255
206 227 255
206 227 255
206 227 255
206 227 255
206 227 255
206 227 255
207 227 255
207 227 255
207 227 255
207 227 255
207 227 255
207 228 255
207 228 255
207 228 255
207 228 255
207 228 255
207 228 255
207 228 255
207 228 255
207 228 255
207 228 255
207 228 255
207 228 255
207 228 255
208 228 255
208 228 255
208 228 255
208 228 255
208 228 255
208 228 255
208 228 255
208 228 255
208 228 255
208 228 255
208 228 255
208 228 255
208 228 255
208 228 255
208 228 255
208 228 255
208 228 255
208 228 255
208 228 255
208 228 255
209 228 255
209 229 255
209 229 255
209 229 255
209 229 255
209 229 255
209 229 255
209 229 255
209 229 255
209 229 255
209 229 255
209 229 255
209 229 255
209 229 255
209 229 255
209 229 255
209 229 255
209 229 255
209 229 255
209 229 255
209 229 255
209 229 255
210 229 255
210 229 255
210 229 255
210 229 255
210 229 255
210 229 255
210 229 255
210 229 255
210 229 255
210 229 255
210 229 255
210 229 255
210 229 255
210 229 255
210 229 255
210 229 255
210 229 255
210 229 255
210 229 255
210 230 255
210 229 255
210 229 255
210 229 255
210 229 255
210 229 255
210 229 255
210 229 255
210 229 255
210 229 255
210 229 255
210 229 255
210 229 255
210 229 255
210 229 255
210 229 255
210 229 255
210 229 255
210 229 255
210 229 255
210 229 255
210 229 255
210 229 255
209 229 255
209 229 255
209 229 255
209 229 255
209 229 255
209 229 255
209 229 255
209 229 255
209 229 255
209 229 255
209 229 255
209 229 255
209 229 255
209 229 255
209 229 255
209 229 255
209 229 255
209 229 255
209 229 255
209 229 255
209 228 255
209 228 255
208 228 255
208 228 255
208 228 255
208 228 255
208 228 255
208 228 255
208 228 255
208 228 255
208 228 255
208 228 255
208 228 255
208 228 255
208 228 255
208 228 255
208 228 255
208 228 255
208 228 255
208 228 255
208 228 255
207 228 255
207 228 255
207 228 255
207 228 255
207 228 255
207 228 255
207 228 255
207 228 255
207 228 255
207 228 255
207 228 255
207 228 255
207 228 255
207 228 255
207 227 255
207 227 255
207 227 255
207 227 255
206 227 255
206 227 255
206 227 255
206 227 255
206 227 255
206 227 255
206 227 255
206 227 255
206 227 255
206 227 255
206 227 255
206 227 255
206 227 255
206 227 255
206 227 255
206 227 255
206 227 255
205 227 255
205 227 255
205 227 255
205 227 255
205 227 255
205 227 255
205 227 255
205 227 255
205 227 255
205 227 255
205 226 255
205 226 255
205 226 255
205 226 255
205 226 255
205 226 255
204 226 255
204 226 255
204 226 255
204 226 255
204 226 255
204 226 255
204 226 255
204 226 255
204 226 255
204 226 255
204 226 255
204 226 255
204 226 255
204 226 255
204 226 255
204 226 255
204 226 255
203 226 255
203 226 255
203 226 255
203 226 255
203 226 255
203 226 255
203 226 255
203 226 255
203 225 255
203 225 255
203 225 255
203 225 255
203 225 255
203 225 255
203 225 255
203 225 255
203 225 255
203 225 255
203 225 255
202 225 255
202 225 255
202 225 255
202 225 255
202 225 255
202 225 255
202 225 255
202 225 255
202 225 255
202 225 255
202 225 255
202 225 255
202 225 255
202 225 255
202 225 255
202 225 255
202 225 255
202 225 255
202 225 255
202 225 255
202 225 255
202 225 255
202 225 255
202 225 255
202 225 255
202 225 255
201 225 255
201 225 255
201 225 255
201 225 255
201 225 255
201 225 255
201 225 255
201 225 255
201 225 255
201 225 255
201 225 255
201 225 255
201 225 255
201 225 255
201 225 255
201 225 255
201 225 255
201 224 255
201 224 255
201 224 255
201 224 255
201 224 255
201 224 255
201 224 255
201 224 255
201 224 255
201 224 255
201 224 255
201 224 255
201 225 255
201 225 255
201 225 255
201 225 255
201 225 255
201 225 255
201 225 255
201 225 255
201 225 255
201 225 255
201 225 255
201 225 255
201 225 255
201 225 255
201 225 255
201 225 255
201 225 255
202 225 255
202 225 255
202 225 255
202 225 255
202 225 255
202 225 255
202 225 255
202 225 255
202 225 255
202 225 255
202 225 255
202 225 255
202 225 255
202 225 255
202 225 255
202 225 255
202 225 255
202 225 255
202 225 255
202 225 255
202 225 255
202 225 255
202 225 255
202 225 255
202 225 255
202 225 255
203 225 255
203 225 255
203 225 255
203 225 255
203 225 255
203 225 255
203 225 255
203 225 255
203 225 255
203 225 255
203 225 255
203 226 255
203 226 255
203 226 255
203 226 255
203 226 255
203 226 255
203 226 255
203 226 255
204 226 255
204 226 255
204 226 255
204 226 255
204 226 255
204 226 255
204 226 255
204 226 255
204 226 255
204 226 255
204 226 255
204 226 255
204 226 255
204 226 255
204 226 255
204 226 255
204 226 255
205 226 255
205 226 255
205 226 255
205 226 255
205 226 255
205 226 255
205 227 255
205 227 255
205 227 255
205 227 255
205 227 255
205 227 255
205 227 255
205 227 255
205 227 255
205 227 255
206 227 255
206 227 255
206 227 255
206 227 255
206 227 255
206 227 255
206 227 255
206 227 255
206 227 255
206 227 255
206 227 255
206 227 255
206 227 255
206 227 255
206 227 255
206 227 255
206 227 255
207 227 255
207 227 255
207 227 255
207 227 255
207 228 255
207 228 255
207 228 255
207 228 255
207 228 255
207 228 255
207 228 255
207 228 255
207 228 255
207 228 255
207 228 255
207 228 255
207 228 255
207 228 255
208 228 255
208 228 255
208 228 255
208 228 255
208 228 255
208 228 255
208 228 255
208 228 255
208 228 255
208 228 255
208 228 255
208 228 255
208 228 255
208 228 255
208 228 255
208 228 255
208 228 255
208 228 255
208 228 255
208 228 255
209 228 255
209 229 255
209 229 255
209 229 255
209 229 255
209 229 255
209 229 255
209 229 255
209 229 255
209 229 255
209 229 255
209 229 255
209 229 255
209 229 255
209 229 255
209 229 255
209 229 255
209 229 255
209 229 255
209 229 255
209 229 255
210 229 255
210 229 255
210 229 255
210 229 255
210 229 255
210 229 255
210 229 255
210 229 255
210 229 255
210 229 255
210 229 255
210 229 255
210 229 255
210 229 255
210 229 255
210 229 255
210 229 255
210 229 255
210 229 255
210 229 255
210 229 255
210 229 255
210 230 255
211 230 255
211 230 255
210 230 255
210 230 255
210 230 255
210 229 255
210 229 255
210 229 255
210 229 255
210 229 255
210 229 255
210 229 255
210 229 255
210 229 255
210 229 255
210 229 255
210 229 255
210 229 255
210 229 255
210 229 255
210 229 255
210 229 255
210 229 255
210 229 255
210 229 255
210 229 255
210 229 255
209 229 255
209 229 255
209 229 255
209 229 255
209 229 255
209 229 255
209 229 255
209 229 255
209 229 255
209 229 255
209 229 255
209 229 255
209 229 255
209 229 255
209 229 255
209 229 255
209 229 255
209 229 255
209 229 255
209 229 255
209 228 255
208 228 255
208 228 255
208 228 255
208 228 255
208 228 255
208 228 255
208 228 255
208 228 255
208 228 255
208 228 255
208 228 255
208 228 255
208 228 255
208 228 255
208 228 255
208 228 255
208 228 255
208 228 255
208 228 255
207 228 255
207 228 255
207 228 255
207 228 255
207 228 255
207 228 255
207 228 255
207 228 255
207 228 255
207 228 255
207 228 255
207 228 255
207 228 255
207 228 255
207 227 255
207 227 255
207 227 255
207 227 255
206 227 255
206 227 255
206 227 255
206 227 255
206 227 255
206 227 255
206 227 255
206 227 255
206 227 255
206 227 255
206 227 255
206 227 255
206 227 255
206 227 255
206 227 255
206 227 255
206 227 255
205 227 255
205 227 255
205 227 255
205 227 255
205 227 255
205 227 255
205 227 255
205 227 255
205 227 255
205 227 255
205 226 255
205 226 255
205 226 255
205 226 255
205 226 255
205 226 255
205 226 255
204 226 255
204 226 255
204 226 255
204 226 255
204 226 255
204 226 255
204 226 255
204 226 255
204 226 255
204 226 255
204 226 255
204 226 255
204 226 255
204 226 255
204 226 255
204 226 255
204 226 255
203 226 255
203 226 255
203 226 255
203 226 255
203 226 255
203 226 255
203 226 255
203 226 255
203 225 255
203 225 255
203 225 255
203 225 255
203 225 255
203 225 255
203 225 255
203 225 255
203 225 255
203 225 255
203 225 255
203 225 255
202 225 255
202 225 255
202 225 255
202 225 255
202 225 255
202 225 255
202 225 255
202 225 255
202 225 255
202 225 255
202 225 255
202 225 255
202 225 255
202 225 255
202 225 255
202 225 255
202 225 255
202 225 255
202 225 255
202 225 255
202 225 255
202 225 255
202 225 255
202 225 255
202 225 255
202 225 255
202 225 255
202 225 255
202 225 255
202 225 255
202 225 255
201 225 255
201 225 255
201 225 255
201 225 255
201 225 255
201 225 255
201 225 255
201 225 255
201 225 255
201 225 255
201 225 255
201 225 255
201 225 255
201 225 255
201 225 255
201 225 255
201 225 255
201 225 255
201 225 255
201 225 255
201 225 255
201 225 255
201 225 255
201 225 255
201 225 255
201 225 255
202 225 255
202 225 255
202 225 255
202 225 255
202 225 255
202 225 255
202 225 255
202 225 255
202 225 255
202 225 255
202 225 255
202 225 255
202 225 255
202 225 255
202 225 255
202 225 255
202 225 255
202 225 255
202 225 255
202 225 255
202 225 255
202 225 255
202 225 255
202 225 255
202 225 255
202 225 255
202 225 255
202 225 255
202 225 255
202 225 255
202 225 255
203 225 255
203 225 255
203 225 255
203 225 255
203 225 255
203 225 255
203 225 255
203 225 255
203 225 255
203 225 255
203 225 255
203 225 255
203 226 255
203 226 255
203 226 255
203 226 255
203 226 255
203 226 255
203 226 255
203 226 255
204 226 255
204 226 255
204 226 255
204 226 255
204 226 255
204 226 255
204 226 255
204 226 255
204 226 255
204 226 255
204 226 255
204 226 255
204 226 255
204 226 255
204 226 255
204 226 255
204 226 255
205 226 255
205 226 255
205 226 255
205 226 255
205 226 255
205 226 255
205 226 255
205 227 255
205 227 255
205 227 255
205 227 255
205 227 255
205 227 255
205 227 255
205 227 255
205 227 255
205 227 255
206 227 255
206 227 255
206 227 255
206 227 255
206 227 255
206 227 255
206 227 255
206 227 255
206 227 255
206 227 255
206 227 255
206 227 255
206 227 255
206 227 255
206 227 255
206 227 255
206 227 255
207 227 255
207 227 255
207 227 255
207 227 255
207 228 255
207 228 255
207 228 255
207 228 255
207 228 255
207 228 255
207 228 255
207 228 255
207 228 255
207 228 255
207 228 255
207 228 255
207 228 255
207 228 255
208 228 255
208 228 255
208 228 255
208 228 255
208 228 255
208 228 255
208 228 255
208 228 255
208 228 255
208 228 255
208 228 255
208 228 255
208 228 255
208 228 255
208 228 255
208 228 255
208 228 255
208 228 255
208 228 255
209 228 255
209 228 255
209 229 255
209 229 255
209 229 255
209 229 255
209 229 255
209 229 255
209 229 255
209 229 255
209 229 255
209 229 255
209 229 255
209 229 255
209 229 255
209 229 255
209 229 255
209 229 255
209 229 255
209 229 255
209 229 255
210 229 255
210 229 255
210 229 255
210 229 255
210 229 255
210 229 255
210 229 255
210 229 255
210 229 255
210 229 255
210 229 255
210 229 255
210 229 255
210 229 255
210 229 255
210 229 255
210 229 255
210 229 255
210 229 255
210 229 255
210 229 255
210 229 255
210 230 255
210 230 255
210 230 255
211 230 255
211 230 255
211 230 255
211 230 255
211 230 255
211 230 255
211 230 255
211 230 255
210 230 255
210 230 255
210 230 255
210 229 255
210 229 255
210 229 255
210 229 255
210 229 255
210 229 255
210 229 255
210 229 255
210 229 255
210 229 255
210 229 255
210 229 255
210 229 255
210 229 255
210 229 255
210 229 255
210 229 255
210 229 255
210 229 255
210 229 255
210 229 255
209 229 255
209 229 255
209 229 255
209 229 255
209 229 255
209 229 255
209 229 255
209 229 255
209 229 255
209 229 255
209 229 255
209 229 255
209 229 255
209 229 255
209 229 255
209 229 255
209 229 255
209 229 255
209 229 255
209 229 255
209 228 255
209 228 255
208 228 255
208 228 255
208 228 255
208 228 255
208 228 255
208 228 255
208 228 255
208 228 255
208 228 255
208 228 255
208 228 255
208 228 255
208 228 255
208 228 255
208 228 255
208 228 255
208 228 255
208 228 255
208 228 255
207 228 255
207 228 255
207 228 255
207 228 255
207 228 255
207 228 255
207 228 255
207 228 255
207 228 255
207 228 255
207 228 255
207 228 255
207 228 255
207 228 255
207 227 255
207 227 255
207 227 255
207 227 255
206 227 255
206 227 255
206 227 255
206 227 255
206 227 255
206 227 255
206 227 255
206 227 255
206 227 255
206 227 255
206 227 255
206 227 255
206 227 255
206 227 255
206 227 255
206 227 255
206 227 255
205 227 255
205 227 255
205 227 255
205 227 255
205 227 255
205 227 255
205 227 255
205 227 255
205 227 255
205 227 255
205 226 255
205 226 255
205 226 255
205 226 255
205 226 255
205 226 255
205 226 255
204 226 255
204 226 255
204 226 255
204 226 255
204 226 255
204 226 255
204 226 255
204 226 255
204 226 255
204 226 255
204 226 255
204 226 255
204 226 255
204 226 255
204 226 255
204 226 255
204 226 255
203 226 255
203 226 255
203 226 255
203 226 255
203 226 255
203 226 255
203 226 255
203 226 255
203 226 255
203 225 255
203 225 255
203 225 255
203 225 255
203 225 255
203 225 255
203 225 255
203 225 255
203 225 255
203 225 255
203 225 255
203 225 255
202 225 255
202 225 255
202 225 255
202 225 255
202 225 255
202 225 255
202 225 255
202 225 255
202 225 255
202 225 255
202 225 255
202 225 255
202 225 255
202 225 255
202 225 255
202 225 255
202 225 255
202 225 255
202 225 255
202 225 255
202 225 255
202 225 255
202 225 255
202 225 255
202 225 255
202 225 255
202 225 255
202 225 255
202 225 255
202 225 255
202 225 255
202 225 255
202 225 255
202 225 255
202 225 255
202 225 255
202 225 255
202 225 255
202 225 255
202 225 255
202 225 255
202 225 255
202 225 255
202 225 255
202 225 255
202 225 255
202 225 255
202 225 255
202 225 255
202 225 255
202 225 255
202 225 255
202 225 255
202 225 255
202 225 255
202 225 255
202 225 255
202 225 255
202 225 255
202 225 255
202 225 255
202 225 255
202 225 255
202 225 255
202 225 255
202 225 255
202 225 255
202 225 255
202 225 255
202 225 255
202 225 255
202 225 255
202 225 255
202 225 255
202 225 255
202 225 255
202 225 255
202 225 255
203 225 255
203 225 255
203 225 255
203 225 255
203 225 255
203 225 255
203 225 255
203 225 255
203 225 255
203 225 255
203 225 255
203 225 255
203 226 255
203 226 255
203 226 255
203 226 255
203 226 255
203 226 255
203 226 255
203 226 255
203 226 255
204 226 255
204 226 255
204 226 255
204 226 255
204 226 255
204 226 255
204 226 255
204 226 255
204 226 255
204 226 255
204 226 255
204 226 255
204 226 255
204 226 255
204 226 255
204 226 255
204 226 255
205 226 255
205 226 255
205 226 255
205 226 255
205 226 255
205 226 255
205 226 255
205 227 255
205 227 255
205 227 255
205 227 255
205 227 255
205 227 255
205 227 255
205 227 255
205 227 255
205 227 255
206 227 255
206 227 255
206 227 255
206 227 255
206 227 255
206 227 255
206 227 255
206 227 255
206 227 255
206 227 255
206 227 255
206 227 255
206 227 255
206 227 255
206 227 255
206 227 255
206 227 255
207 227 255
207 227 255
207 227 255
207 227 255
207 227 255
207 228 255
207 228 255
207 228 255
207 228 255
207 228 255
207 228 255
207 228 255
207 228 255
207 228 255
207 228 255
207 228 255
207 228 255
207 228 255
208 228 255
208 228 255
208 228 255
208 228 255
208 228 255
208 228 255
208 228 255
208 228 255
208 228 255
208 228 255
208 228 255
208 228 255
208 228 255
208 228 255
208 228 255
208 228 255
208 228 255
208 228 255
208 228 255
208 228 255
209 228 255
209 229 255
209 229 255
209 229 255
209 229 255
209 229 255
209 229 255
209 229 255
209 229 255
209 229 255
209 229 255
209 229 255
209 229 255
209 229 255
209 229 255
209 229 255
209 229 255
209 229 255
209 229 255
209 229 255
209 229 255
210 229 255
210 229 255
210 229 255
210 229 255
210 229 255
210 229 255
210 229 255
210 229 255
210 229 255
210 229 255
210 229 255
210 229 255
210 229 255
210 229 255
210 229 255
210 229 255
210 229 255
210 229 255
210 229 255
210 229 255
210 229 255
210 230 255
210 230 255
210 230 255
211 230 255
211 230 255
211 230 255
211 230 255
211 230 255
211 230 255
211 230 255
211 230 255
211 230 255
211 230 255
211 230 255
211 230 255
211 230 255
211 230 255
211 230 255
211 230 255
210 230 255
210 230 255
210 230 255
210 229 255
210 229 255
210 229 255
210 229 255
210 229 255
210 229 255
210 229 255
210 229 255
210 229 255
210 229 255
210 229 255
210 229 255
210 229 255
210 229 255
210 229 255
210 229 255
210 229 255
210 229 255
210 229 255
210 229 255
210 229 255
209 229 255
209 229 255
209 229 255
209 229 255
209 228 255
208 228 254
208 227 254
204 224 251
205 225 252
204 224 250
205 225 252
202 222 249
203 223 250
201 221 248
201 221 248
199 219 246
201 221 248
201 221 248
202 222 249
202 223 250
203 223 250
201 221 249
204 224 251
205 225 252
205 225 253
204 224 252
207 227 254
208 228 255
208 228 255
208 228 255
208 228 255
208 228 255
208 228 255
208 228 255
208 228 255
208 228 255
208 228 255
208 228 255
208 228 255
208 228 255
207 228 255
207 228 255
207 228 255
207 228 255
207 228 255
207 228 255
207 228 255
207 228 255
207 228 255
207 228 255
207 228 255
207 228 255
207 228 255
207 228 255
207 227 255
207 227 255
207 227 255
207 227 255
206 227 255
206 227 255
206 227 255
206 227 255
206 227 255
206 227 255
206 227 255
206 227 255
206 227 255
206 227 255
206 227 255
206 227 255
206 227 255
206 227 255
206 227 255
206 227 255
206 227 255
205 227 255
205 227 255
205 227 255
205 227 255
205 227 255
205 227 255
205 227 255
205 227 255
205 227 255
205 227 255
205 226 255
205 226 255
205 226 255
205 226 255
205 226 255
205 226 255
205 226 255
204 226 255
204 226 255
204 226 255
204 226 255
204 226 255
204 226 255
204 226 255
204 226 255
204 226 255
204 226 255
204 226 255
204 226 255
204 226 255
204 226 255
204 226 255
204 226 255
204 226 255
204 226 255
203 226 255
203 226 255
203 226 255
203 226 255
203 226 255
203 226 255
203 226 255
203 226 255
203 226 255
203 225 255
203 225 255
203 225 255
203 225 255
203 225 255
203 225 255
203 225 255
203 225 255
203 225 255
203 225 255
203 225 255
203 225 255
203 225 255
202 225 255
202 225 255
202 225 255
202 225 255
202 225 255
202 225 255
202 225 255
202 225 255
202 225 255
202 225 255
202 225 255
202 225 255
202 225 255
202 225 255
202 225 255
202 225 255
202 225 255
202 225 255
202 225 255
202 225 255
202 225 255
202 225 255
202 225 255
202 225 255
202 225 255
202 225 255
202 225 255
202 225 255
202 225 255
202 225 255
202 225 255
202 225 255
202 225 255
202 225 255
202 225 255
202 225 255
202 225 255
202 225 255
202 225 255
202 225 255
202 225 255
202 225 255
202 225 255
202 225 255
202 225 255
202 225 255
202 225 255
202 225 255
202 225 255
202 225 255
202 225 255
202 225 255
202 225 255
202 225 255
202 225 255
202 225 255
202 225 255
202 225 255
202 225 255
202 225 255
202 225 255
202 225 255
202 225 255
202 225 255
202 225 255
202 225 255
202 225 255
203 225 255
203 225 255
203 225 255
203 225 255
203 225 255
203 225 255
203 225 255
203 225 255
203 225 255
203 225 255
203 225 255
203 225 255
203 225 255
203 225 255
203 226 255
203 226 255
203 226 255
203 226 255
203 226 255
203 226 255
203 226 255
203 226 255
203 226 255
204 226 255
204 226 255
204 226 255
204 226 255
204 226 255
204 226 255
204 226 255
204 226 255
204 226 255
204 226 255
204 226 255
204 226 255
204 226 255
204 226 255
204 226 255
204 226 255
204 226 255
204 226 255
205 226 255
205 226 255
205 226 255
205 226 255
205 226 255
205 226 255
205 226 255
205 227 255
205 227 255
205 227 255
205 227 255
205 227 255
205 227 255
205 227 255
205 227 255
205 227 255
205 227 255
206 227 255
206 227 255
206 227 255
206 227 255
206 227 255
206 227 255
206 227 255
206 227 255
206 227 255
206 227 255
206 227 255
206 227 255
206 227 255
206 227 255
206 227 255
206 227 255
206 227 255
207 227 255
207 227 255
207 227 255
207 227 255
207 228 255
207 228 255
207 228 255
207 228 255
207 228 255
207 228 255
207 228 255
207 228 255
207 228 255
207 228 255
207 228 255
207 228 255
207 228 255
207 228 255
208 228 255
208 228 255
208 228 255
208 228 255
208 228 255
208 228 255
208 228 255
208 228 255
208 228 255
208 228 255
208 228 255
208 228 255
207 227 252
206 226 246
203 224 234
202 222 226
198 219 211
198 219 214
196 217 201
196 217 194
195 216 194
195 216 194
195 216 193
190 211 177
197 217 196
192 213 177
193 214 191
193 214 182
196 217 204
198 218 206
199 220 215
202 222 226
201 221 220
205 224 237
207 227 245
209 229 254
209 229 255
209 229 255
209 229 255
209 229 255
210 229 255
210 229 255
210 229 255
210 229 255
210 229 255
210 229 255
210 229 255
210 229 255
210 229 255
210 229 255
210 229 255
210 229 255
210 229 255
210 229 255
210 229 255
210 229 255
210 229 255
210 229 255
210 229 255
210 229 255
210 229 255
210 230 255
210 230 255
210 230 255
211 230 255
211 230 255
211 230 255
211 230 255
211 230 255
211 230 255
211 230 255
211 230 255
211 230 255
211 230 255
211 230 255
211 230 255
211 230 255
211 230 255
211 230 255
211 230 255
211 230 255
211 230 255
211 230 255
211 230 255
211 230 255
211 230 255
211 230 255
211 230 255
210 230 255
210 230 255
210 230 255
210 229 255
210 229 255
210 229 255
210 229 255
210 229 255
210 229 255
210 229 255
210 229 255
210 229 255
210 229 255
210 229 255
210 229 255
210 229 255
208 227 253
204 224 250
203 222 249
200 220 246
199 219 246
197 217 244
195 215 242
190 211 238
192 212 240
192 213 240
189 210 237
188 208 236
189 210 238
187 208 236
188 209 237
191 211 239
185 206 235
185 207 235
185 207 235
186 208 236
187 208 237
185 207 236
185 206 235
183 204 233
184 206 235
186 208 236
187 209 237
186 208 237
182 204 233
188 209 238
186 208 236
188 210 238
190 211 240
191 213 241
194 215 243
196 217 245
200 220 248
203 223 250
205 225 253
204 225 252
208 228 255
208 228 255
208 228 255
208 228 255
208 228 255
208 228 255
208 228 255
208 228 255
207 228 255
207 228 255
207 228 255
207 228 255
207 228 255
207 228 255
207 228 255
207 228 255
207 228 255
207 228 255
207 228 255
207 228 255
207 228 255
207 227 255
207 227 255
207 227 255
207 227 255
207 227 255
206 227 255
206 227 255
206 227 255
206 227 255
206 227 255
206 227 255
206 227 255
206 227 255
206 227 255
206 227 255
206 227 255
206 227 255
206 227 255
206 227 255
206 227 255
206 227 255
206 227 255
205 227 255
205 227 255
205 227 255
205 227 255
205 227 255
205 227 255
205 227 255
205 227 255
205 227 255
205 227 255
205 226 255
205 226 255
205 226 255
205 226 255
205 226 255
205 226 255
205 226 255
204 226 255
204 226 255
204 226 255
204 226 255
204 226 255
204 226 255
204 226 255
204 226 255
204 226 255
204 226 255
204 226 255
204 226 255
204 226 255
204 226 255
204 226 255
204 226 255
204 226 255
204 226 255
204 226 255
203 226 255
203 226 255
203 226 255
203 226 255
203 226 255
203 226 255
203 226 255
203 226 255
203 226 255
203 226 255
203 225 255
203 225 255
203 225 255
203 225 255
203 225 255
203 225 255
203 225 255
203 225 255
203 225 255
203 225 255
203 225 255
203 225 255
203 225 255
203 225 255
203 225 255
202 225 255
202 225 255
202 225 255
202 225 255
202 225 255
202 225 255
202 225 255
202 225 255
202 225 255
202 225 255
202 225 255
202 225 255
202 225 255
202 225 255
202 225 255
202 225 255
202 225 255
202 225 255
202 225 255
202 225 255
202 225 255
202 225 255
202 225 255
202 225 255
202 225 255
202 225 255
202 225 255
202 225 255
202 225 255
202 225 255
202 225 255
202 225 255
202 225 255
202 225 255
202 225 255
202 225 255
202 225 255
202 225 255
202 225 255
202 225 255
202 225 255
202 225 255
202 225 255
202 225 255
202 225 255
202 225 255
202 225 255
202 225 255
202 225 255
202 225 255
202 225 255
202 225 255
203 225 255
203 225 255
203 225 255
203 225 255
203 225 255
203 225 255
203 225 255
203 225 255
203 225 255
203 225 255
203 225 255
203 225 255
203 225 255
203 225 255
203 225 255
203 225 255
203 226 255
203 226 255
203 226 255
203 226 255
203 226 255
203 226 255
203 226 255
203 226 255
203 226 255
204 226 255
204 226 255
204 226 255
204 226 255
204 226 255
204 226 255
204 226 255
204 226 255
204 226 255
204 226 255
204 226 255
204 226 255
204 226 255
204 226 255
204 226 255
204 226 255
204 226 255
204 226 255
204 226 255
205 226 255
205 226 255
205 226 255
205 226 255
205 226 255
205 226 255
205 226 255
205 227 255
205 227 255
205 227 255
205 227 255
205 227 255
205 227 255
205 227 255
205 227 255
205 227 255
205 227 255
206 227 255
206 227 255
206 227 255
206 227 255
206 227 255
206 227 255
206 227 255
206 227 255
206 227 255
206 227 255
206 227 255
206 227 255
206 227 255
206 227 255
206 227 255
206 227 255
206 227 255
207 227 255
207 227 255
207 227 255
207 227 255
207 227 255
207 228 255
207 228 255
207 228 255
207 228 255
207 228 255
207 228 255
207 228 255
207 228 255
207 228 255
207 228 255
207 228 255
207 228 255
207 228 255
208 228 255
208 228 255
208 228 255
208 228 255
208 228 255
208 228 255
208 228 255
207 228 253
201 221 231
198 219 218
194 215 189
189 210 161
188 210 167
181 203 108
178 200 88
178 201 76
172 195 0
175 198 0
174 197 0
174 197 0
172 195 0
175 197 0
173 197 0
175 198 0
170 194 0
174 198 0
170 194 0
172 195 0
174 197 0
173 196 0
173 196 0
176 199 0
175 198 0
173 195 0
175 198 0
173 196 0
174 197 0
174 197 0
172 195 0
172 195 36
172 195 57
177 200 88
181 204 117
187 209 153
192 212 173
195 216 193
195 216 203
204 224 230
207 227 248
210 229 255
210 229 255
210 229 255
210 229 255
210 229 255
210 229 255
210 229 255
210 229 255
210 229 255
210 229 255
210 229 255
210 229 255
210 230 255
210 230 255
210 230 255
211 230 255
211 230 255
211 230 255
211 230 255
211 230 255
211 230 255
211 230 255
211 230 255
211 230 255
211 230 255
211 230 255
211 230 255
211 230 255
211 230 255
211 230 255
211 230 255
211 230 255
211 230 255
211 230 255
211 230 255
211 230 255
211 230 255
211 230 255
211 230 255
211 230 255
211 230 255
211 230 255
211 230 255
211 230 255
211 230 255
211 230 255
211 230 255
210 230 255
210 230 255
210 230 255
210 229 255
210 229 255
209 228 254
207 227 253
201 221 247
202 221 247
198 217 244
194 213 240
189 209 236
192 212 239
186 207 235
187 208 236
185 206 234
187 208 236
184 206 234
184 206 234
186 207 236
185 206 234
185 206 234
183 204 233
184 206 234
182 204 233
182 204 234
182 204 233
181 203 233
180 203 232
181 203 233
180 203 232
179 202 232
179 202 232
180 203 233
178 201 231
180 203 233
180 202 232
180 203 233
178 201 232
181 203 233
180 203 233
180 203 233
180 203 233
182 204 234
181 204 234
180 203 233
182 204 234
184 206 236
182 204 234
183 206 235
189 211 239
186 207 236
189 210 239
190 212 240
191 212 240
196 217 245
199 219 247
204 224 252
207 227 254
208 228 255
208 228 255
208 228 255
208 228 255
207 228 255
207 228 255
207 228 255
207 228 255
207 228 255
207 228 255
207 228 255
207 228 255
207 228 255
207 228 255
207 228 255
207 228 255
207 228 255
207 228 255
207 227 255
207 227 255
207 227 255
207 227 255
206 227 255
206 227 255
206 227 255
206 227 255
206 227 255
206 227 255
206 227 255
206 227 255
206 227 255
206 227 255
206 227 255
206 227 255
206 227 255
206 227 255
206 227 255
206 227 255
206 227 255
206 227 255
205 227 255
205 227 255
205 227 255
205 227 255
205 227 255
205 227 255
205 227 255
205 227 255
205 227 255
205 227 255
205 226 255
205 226 255
205 226 255
205 226 255
205 226 255
205 226 255
205 226 255
204 226 255
204 226 255
204 226 255
204 226 255
204 226 255
204 226 255
204 226 255
204 226 255
204 226 255
204 226 255
204 226 255
204 226 255
204 226 255
204 226 255
204 226 255
204 226 255
204 226 255
204 226 255
204 226 255
204 226 255
203 226 255
203 226 255
203 226 255
203 226 255
203 226 255
203 226 255
203 226 255
203 226 255
203 226 255
203 226 255
203 226 255
203 225 255
203 225 255
203 225 255
203 225 255
203 225 255
203 225 255
203 225 255
203 225 255
203 225 255
203 225 255
203 225 255
203 225 255
203 225 255
203 225 255
203 225 255
203 225 255
203 225 255
203 225 255
203 225 255
202 225 255
202 225 255
202 225 255
202 225 255
202 225 255
202 225 255
202 225 255
202 225 255
202 225 255
202 225 255
202 225 255
202 225 255
202 225 255
202 225 255
202 225 255
202 225 255
202 225 255
202 225 255
202 225 255
202 225 255
202 225 255
202 225 255
202 225 255
202 225 255
202 225 255
202 225 255
202 225 255
202 225 255
202 225 255
202 225 255
202 225 255
202 225 255
203 225 255
203 225 255
203 225 255
203 225 255
203 225 255
203 225 255
203 225 255
203 225 255
203 225 255
203 225 255
203 225 255
203 225 255
203 225 255
203 225 255
203 225 255
203 225 255
203 225 255
203 225 255
203 225 255
203 225 255
203 226 255
203 226 255
203 226 255
203 226 255
203 226 255
203 226 255
203 226 255
203 226 255
203 226 255
203 226 255
204 226 255
204 226 255
204 226 255
204 226 255
204 226 255
204 226 255
204 226 255
204 226 255
204 226 255
204 226 255
204 226 255
204 226 255
204 226 255
204 226 255
204 226 255
204 226 255
204 226 255
204 226 255
204 226 255
204 226 255
205 226 255
205 226 255
205 226 255
205 226 255
205 226 255
205 226 255
205 226 255
205 227 255
205 227 255
205 227 255
205 227 255
205 227 255
205 227 255
205 227 255
205 227 255
205 227 255
205 227 255
205 227 255
206 227 255
206 227 255
206 227 255
206 227 255
206 227 255
206 227 255
206 227 255
206 227 255
206 227 255
206 227 255
206 227 255
206 227 255
206 227 255
206 227 255
206 227 255
206 227 255
206 227 255
207 227 255
207 227 255
207 227 255
207 227 255
207 228 255
207 228 255
207 228 255
207 228 255
207 228 255
207 228 255
207 228 255
207 228 255
207 228 255
207 228 255
207 228 255
207 228 255
207 228 255
207 228 255
208 228 255
208 228 255
208 228 255
208 228 255
205 226 242
199 220 220
193 215 188
189 210 167
186 207 130
176 200 67
172 196 0
174 197 0
172 195 0
172 196 0
175 198 0
172 195 0
174 197 0
174 197 0
173 197 0
172 195 0
172 196 0
172 196 0
172 196 0
170 194 0
173 196 0
172 195 0
175 198 0
175 198 0
175 197 0
176 199 0
176 198 0
174 197 0
176 198 0
173 197 0
172 196 0
173 195 0
172 195 0
170 193 0
174 197 0
170 194 0
173 196 0
172 195 0
170 194 0
174 197 0
172 196 0
173 196 0
173 197 0
173 196 0
174 197 0
172 195 0
172 195 0
173 197 0
175 198 76
185 206 135
188 209 157
196 217 196
200 221 218
206 226 242
210 229 255
210 229 255
210 230 255
210 230 255
210 230 255
211 230 255
211 230 255
211 230 255
211 230 255
211 230 255
211 230 255
211 230 255
211 230 255
211 230 255
211 230 255
211 230 255
211 230 255
211 230 255
211 230 255
211 230 255
211 230 255
211 230 255
211 230 255
211 230 255
211 230 255
211 230 255
211 230 255
211 230 255
211 230 255
211 230 255
211 230 255
211 230 255
211 230 255
211 230 255
211 230 255
211 230 255
211 230 255
211 230 255
211 230 255
211 230 255
211 230 255
209 228 254
208 227 252
205 224 250
200 220 246
195 214 240
191 211 238
189 209 236
188 209 236
189 209 237
188 209 237
184 205 234
187 207 235
186 207 235
185 206 234
183 204 233
182 204 233
181 203 232
181 203 232
181 204 233
181 203 232
180 203 232
179 202 232
180 203 232
178 201 231
179 202 232
179 202 232
178 201 231
178 201 231
177 200 230
176 199 230
176 200 230
176 200 230
178 201 231
178 201 232
177 200 231
174 198 229
175 199 230
176 200 231
174 198 230
175 199 230
178 201 232
178 201 232
176 199 230
175 199 230
177 200 232
179 202 233
176 200 231
175 199 230
177 200 231
179 202 232
179 203 233
180 203 234
178 201 232
182 205 235
182 205 235
183 205 235
182 204 234
185 207 236
184 206 236
187 208 237
196 217 245
198 219 246
203 223 251
206 226 254
208 228 255
208 228 255
208 228 255
207 228 255
207 228 255
207 228 255
207 228 255
207 228 255
207 228 255
207 228 255
207 228 255
207 228 255
207 228 255
207 228 255
207 228 255
207 228 255
207 228 255
207 227 255
207 227 255
207 227 255
207 227 255
206 227 255
206 227 255
206 227 255
206 227 255
206 227 255
206 227 255
206 227 255
206 227 255
206 227 255
206 227 255
206 227 255
206 227 255
206 227 255
206 227 255
206 227 255
206 227 255
206 227 255
205 227 255
205 227 255
205 227 255
205 227 255
205 227 255
205 227 255
205 227 255
205 227 255
205 227 255
205 227 255
205 227 255
205 226 255
205 226 255
205 226 255
205 226 255
205 226 255
205 226 255
205 226 255
204 226 255
204 226 255
204 226 255
204 226 255
204 226 255
204 226 255
204 226 255
204 226 255
204 226 255
204 226 255
204 226 255
204 226 255
204 226 255
204 226 255
204 226 255
204 226 255
204 226 255
204 226 255
204 226 255
204 226 255
204 226 255
203 226 255
203 226 255
203 226 255
203 226 255
203 226 255
203 226 255
203 226 255
203 226 255
203 226 255
203 226 255
203 226 255
203 226 255
203 225 255
203 225 255
203 225 255
203 225 255
203 225 255
203 225 255
203 225 255
203 225 255
203 225 255
203 225 255
203 225 255
203 225 255
203 225 255
203 225 255
203 225 255
203 225 255
203 225 255
203 225 255
203 225 255
203 225 255
203 225 255
203 225 255
203 225 255
203 225 255
203 225 255
203 225 255
203 225 255
203 225 255
203 225 255
203 225 255
203 225 255
203 225 255
203 225 255
203 225 255
203 225 255
203 225 255
203 225 255
203 225 255
203 225 255
203 225 255
203 225 255
203 225 255
203 225 255
203 225 255
203 225 255
203 225 255
203 225 255
203 225 255
203 225 255
203 225 255
203 225 255
203 225 255
203 225 255
203 225 255
203 225 255
203 225 255
203 225 255
203 225 255
203 226 255
203 226 255
203 226 255
203 226 255
203 226 255
203 226 255
203 226 255
203 226 255
203 226 255
203 226 255
203 226 255
203 226 255
204 226 255
204 226 255
204 226 255
204 226 255
204 226 255
204 226 255
204 226 255
204 226 255
204 226 255
204 226 255
204 226 255
204 226 255
204 226 255
204 226 255
204 226 255
204 226 255
204 226 255
204 226 255
204 226 255
204 226 255
204 226 255
205 226 255
205 226 255
205 226 255
205 226 255
205 226 255
205 226 255
205 226 255
205 227 255
205 227 255
205 227 255
205 227 255
205 227 255
205 227 255
205 227 255
205 227 255
205 227 255
205 227 255
205 227 255
206 227 255
206 227 255
206 227 255
206 227 255
206 227 255
206 227 255
206 227 255
206 227 255
206 227 255
206 227 255
206 227 255
206 227 255
206 227 255
206 227 255
206 227 255
206 227 255
206 227 255
207 227 255
207 227 255
207 227 255
207 227 255
207 228 255
207 228 255
207 228 255
207 228 255
207 228 255
207 228 255
207 228 255
207 228 255
207 228 255
207 228 255
207 228 255
207 228 255
207 228 255
207 228 255
208 228 255
208 228 255
208 228 255
206 226 246
199 220 215
192 213 186
185 207 140
175 198 67
173 196 0
173 196 0
171 194 0
174 198 0
171 195 0
174 197 0
173 196 0
175 198 0
177 199 0
174 197 0
173 196 0
170 194 0
170 194 0
171 195 0
174 197 0
174 197 0
173 196 0
171 195 0
172 196 0
175 198 0
174 197 0
172 195 0
174 198 0
173 196 0
173 196 0
172 195 0
172 195 0
173 196 0
174 198 0
172 195 0
173 196 0
175 198 0
174 197 0
174 198 0
176 198 0
172 196 0
175 198 0
173 197 0
174 197 0
172 196 0
173 197 0
173 196 0
175 198 0
173 197 0
174 197 0
173 197 0
176 199 0
174 198 0
170 194 0
173 196 0
174 197 0
174 197 0
173 197 0
174 197 0
178 201 80
183 205 137
192 214 184
200 220 211
205 225 237
211 230 255
211 230 255
211 230 255
211 230 255
211 230 255
211 230 255
211 230 255
211 230 255
211 230 255
211 230 255
211 230 255
211 230 255
211 230 255
211 230 255
211 230 255
211 230 255
211 230 255
211 230 255
211 230 255
211 230 255
211 230 255
211 230 255
211 230 255
211 230 255
211 230 255
211 230 255
211 230 255
211 230 255
211 230 255
211 230 255
211 230 255
211 230 255
209 228 254
204 223 248
200 219 245
195 215 240
193 213 239
190 210 237
189 209 236
188 209 236
189 209 237
187 207 235
185 206 234
185 207 235
185 206 234
179 201 230
180 202 231
181 204 233
182 204 233
181 203 232
178 201 231
180 202 232
179 201 231
178 200 230
179 201 231
177 200 230
176 199 229
175 199 229
176 200 230
175 198 229
176 199 230
175 198 229
174 198 229
174 198 229
173 197 229
173 197 229
173 197 229
173 197 229
173 197 229
171 196 228
172 196 228
172 197 229
172 196 228
171 196 229
172 196 228
171 196 228
171 196 228
172 197 229
172 196 229
171 196 229
171 196 229
171 197 229
172 197 229
173 197 229
173 197 230
173 198 230
174 198 230
175 200 231
173 197 229
174 198 230
174 198 230
176 200 232
182 205 235
176 200 231
176 200 231
179 202 233
180 203 234
182 205 234
185 207 236
187 208 237
191 213 241
197 218 246
199 220 248
206 226 254
208 228 255
208 228 255
207 228 255
207 228 255
207 228 255
207 228 255
207 228 255
207 228 255
207 228 255
207 228 255
207 228 255
207 228 255
207 228 255
207 228 255
207 228 255
207 228 255
207 227 255
207 227 255
207 227 255
207 227 255
206 227 255
206 227 255
206 227 255
206 227 255
206 227 255
206 227 255
206 227 255
206 227 255
206 227 255
206 227 255
206 227 255
206 227 255
206 227 255
206 227 255
206 227 255
206 227 255
206 227 255
206 227 255
205 227 255
205 227 255
205 227 255
205 227 255
205 227 255
205 227 255
205 227 255
205 227 255
205 227 255
205 227 255
205 227 255
205 226 255
205 226 255
205 226 255
205 226 255
205 226 255
205 226 255
205 226 255
205 226 255
204 226 255
204 226 255
204 226 255
204 226 255
204 226 255
204 226 255
204 226 255
204 226 255
204 226 255
204 226 255
204 226 255
204 226 255
204 226 255
204 226 255
204 226 255
204 226 255
204 226 255
204 226 255
204 226 255
204 226 255
204 226 255
204 226 255
203 226 255
203 226 255
203 226 255
203 226 255
203 226 255
203 226 255
203 226 255
203 226 255
203 226 255
203 226 255
203 226 255
203 226 255
203 226 255
203 226 255
203 226 255
203 225 255
203 225 255
203 225 255
203 225 255
203 225 255
203 225 255
203 225 255
203 225 255
203 225 255
203 225 255
203 225 255
203 225 255
203 225 255
203 225 255
203 225 255
203 225 255
203 225 255
203 225 255
203 225 255
203 225 255
203 225 255
203 225 255
203 225 255
203 225 255
203 225 255
203 225 255
203 225 255
203 225 255
203 225 255
203 225 255
203 225 255
203 225 255
203 225 255
203 225 255
203 225 255
203 225 255
203 225 255
203 225 255
203 225 255
203 225 255
203 226 255
203 226 255
203 226 255
203 226 255
203 226 255
203 226 255
203 226 255
203 226 255
203 226 255
203 226 255
203 226 255
203 226 255
203 226 255
203 226 255
203 226 255
204 226 255
204 226 255
204 226 255
204 226 255
204 226 255
204 226 255
204 226 255
204 226 255
204 226 255
204 226 255
204 226 255
204 226 255
204 226 255
204 226 255
204 226 255
204 226 255
204 226 255
204 226 255
204 226 255
204 226 255
204 226 255
204 226 255
204 226 255
205 226 255
205 226 255
205 226 255
205 226 255
205 226 255
205 226 255
205 226 255
205 227 255
205 227 255
205 227 255
205 227 255
205 227 255
205 227 255
205 227 255
205 227 255
205 227 255
205 227 255
205 227 255
206 227 255
206 227 255
206 227 255
206 227 255
206 227 255
206 227 255
206 227 255
206 227 255
206 227 255
206 227 255
206 227 255
206 227 255
206 227 255
206 227 255
206 227 255
206 227 255
206 227 255
206 227 255
207 227 255
207 227 255
207 227 255
207 227 255
207 228 255
207 228 255
207 228 255
207 228 255
207 228 255
207 228 255
207 228 255
207 228 255
207 228 255
207 228 255
207 228 255
207 228 255
207 228 255
208 228 255
208 228 255
208 228 255
202 223 233
195 217 198
184 206 142
177 200 76
175 198 0
174 197 0
174 197 0
174 197 0
176 199 0
175 197 0
175 198 0
171 194 0
174 197 0
171 195 0
172 196 0
175 198 0
174 197 0
174 198 0
173 197 0
172 196 0
172 195 0
174 197 0
174 197 0
174 197 0
176 199 0
174 197 0
174 197 0
173 196 0
174 197 0
172 195 0
174 197 0
173 197 0
172 196 0
173 196 0
175 198 0
175 198 0
174 197 0
173 196 0
176 198 0
174 197 0
174 197 0
174 198 0
169 193 0
175 198 0
174 196 0
174 197 0
174 197 0
172 196 0
172 195 0
174 197 0
171 195 0
173 196 0
173 197 0
172 196 0
174 197 0
172 195 0
171 194 0
173 196 0
175 198 0
176 199 0
172 195 0
174 197 0
171 194 0
171 194 0
170 194 0
173 196 0
171 193 0
172 196 0
181 203 105
183 204 133
197 217 203
206 225 231
211 230 255
211 230 255
211 230 255
211 230 255
211 230 255
211 230 255
211 230 255
211 230 255
211 230 255
211 230 255
211 230 255
211 230 255
211 230 255
211 230 255
212 230 255
212 230 255
212 230 255
212 230 255
211 230 255
211 230 255
211 230 255
211 230 255
211 230 255
211 230 255
210 229 255
205 224 249
200 219 245
195 214 239
192 211 237
188 208 235
193 212 239
188 208 235
187 207 234
184 205 233
185 206 234
183 204 232
185 206 234
181 203 231
182 204 232
182 203 232
180 202 232
180 202 231
178 200 230
179 201 231
180 202 232
177 200 230
177 200 230
176 199 229
177 200 230
175 198 229
175 198 229
174 198 229
173 197 228
174 198 229
173 197 228
173 197 228
172 197 228
172 196 228
172 196 228
173 197 228
172 197 228
171 196 228
172 196 228
171 196 228
171 196 228
171 196 228
171 196 228
170 195 228
171 196 228
170 196 228
170 196 228
171 196 228
171 196 228
169 195 228
170 196 228
170 195 228
170 196 228
169 195 228
170 195 228
170 196 228
170 195 228
169 195 228
170 196 229
170 195 228
170 196 229
170 196 229
170 196 228
173 198 230
172 196 229
172 197 229
173 198 230
174 198 230
176 200 232
177 201 233
176 200 231
179 202 233
180 203 233
179 202 232
185 207 237
185 207 236
191 212 240
195 216 244
202 222 250
207 227 254
208 228 255
208 228 255
207 228 255
207 228 255
207 228 255
207 228 255
207 228 255
207 228 255
207 228 255
207 228 255
207 228 255
207 228 255
207 228 255
207 228 255
207 228 255
207 228 255
207 227 255
207 227 255
207 227 255
207 227 255
206 227 255
206 227 255
206 227 255
206 227 255
206 227 255
206 227 255
206 227 255
206 227 255
206 227 255
206 227 255
206 227 255
206 227 255
206 227 255
206 227 255
206 227 255
206 227 255
206 227 255
206 227 255
205 227 255
205 227 255
205 227 255
205 227 255
205 227 255
205 227 255
205 227 255
205 227 255
205 227 255
205 227 255
205 227 255
205 226 255
205 226 255
205 226 255
205 226 255
205 226 255
205 226 255
205 226 255
205 226 255
204 226 255
204 226 255
204 226 255
204 226 255
204 226 255
204 226 255
204 226 255
204 226 255
204 226 255
204 226 255
204 226 255
204 226 255
204 226 255
204 226 255
204 226 255
204 226 255
204 226 255
204 226 255
204 226 255
204 226 255
204 226 255
204 226 255
204 226 255
204 226 255
204 226 255
203 226 255
203 226 255
203 226 255
203 226 255
203 226 255
203 226 255
203 226 255
203 226 255
203 226 255
203 226 255
203 226 255
203 226 255
203 226 255
203 226 255
203 226 255
203 226 255
203 226 255
203 226 255
203 226 255
203 226 255
203 226 255
203 226 255
203 226 255
203 226 255
203 226 255
203 226 255
203 226 255
203 226 255
203 226 255
203 226 255
203 226 255
203 226 255
203 226 255
203 226 255
203 226 255
203 226 255
203 226 255
203 226 255
203 226 255
203 226 255
203 226 255
203 226 255
203 226 255
203 226 255
203 226 255
203 226 255
203 226 255
203 226 255
203 226 255
203 226 255
203 226 255
203 226 255
203 226 255
203 226 255
203 226 255
203 226 255
204 226 255
204 226 255
204 226 255
204 226 255
204 226 255
204 226 255
204 226 255
204 226 255
204 226 255
204 226 255
204 226 255
204 226 255
204 226 255
204 226 255
204 226 255
204 226 255
204 226 255
204 226 255
204 226 255
204 226 255
204 226 255
204 226 255
204 226 255
204 226 255
204 226 255
205 226 255
205 226 255
205 226 255
205 226 255
205 226 255
205 226 255
205 226 255
205 226 255
205 227 255
205 227 255
205 227 255
205 227 255
205 227 255
205 227 255
205 227 255
205 227 255
205 227 255
205 227 255
205 227 255
206 227 255
206 227 255
206 227 255
206 227 255
206 227 255
206 227 255
206 227 255
206 227 255
206 227 255
206 227 255
206 227 255
206 227 255
206 227 255
206 227 255
206 227 255
206 227 255
206 227 255
206 227 255
207 227 255
207 227 255
207 227 255
207 227 255
207 228 255
207 228 255
207 228 255
207 228 255
207 228 255
207 228 255
207 228 255
207 228 255
207 228 255
207 228 255
207 228 255
207 228 255
207 228 255
207 228 255
208 228 255
208 228 255
206 227 249
196 217 199
188 210 163
179 201 88
174 197 0
173 196 0
175 198 0
172 196 0
174 197 0
173 197 0
174 197 0
174 198 0
175 197 0
176 199 0
172 196 0
175 198 0
174 198 0
173 197 0
175 198 0
173 196 0
171 195 0
173 196 0
175 198 0
174 198 0
173 196 0
173 196 0
174 197 0
173 196 0
172 196 0
174 197 0
174 197 0
175 198 0
173 197 0
173 196 0
173 196 0
172 195 0
173 197 0
173 196 0
174 197 0
175 198 0
173 196 0
172 195 0
174 197 0
175 198 0
174 197 0
172 196 0
174 197 0
173 197 0
171 195 0
173 197 0
173 197 0
172 196 0
173 196 0
174 197 0
173 197 0
173 197 0
172 196 0
174 196 0
172 196 0
173 196 0
174 197 0
174 198 0
171 195 0
174 197 0
175 197 0
173 196 0
171 194 0
172 195 0
174 198 0
174 197 0
171 194 0
172 195 0
173 197 0
172 196 0
173 197 0
173 196 0
176 199 88
186 207 157
198 218 204
208 227 241
211 230 255
211 230 255
211 230 255
211 230 255
211 230 255
211 230 255
212 230 255
212 230 255
212 230 255
212 230 255
212 230 255
212 230 255
212 230 255
212 230 255
212 230 255
212 230 255
212 230 255
208 227 252
201 219 245
199 218 243
194 213 238
190 210 236
191 211 237
189 209 235
189 209 236
184 204 232
185 206 234
185 205 233
184 205 232
182 204 232
181 203 232
181 202 231
180 202 231
179 201 230
177 199 229
179 201 230
178 200 230
177 200 230
176 199 228
175 198 228
175 198 228
175 198 228
174 198 228
175 198 228
174 198 228
173 197 228
173 197 228
173 197 228
173 197 228
173 197 228
172 197 228
172 196 228
171 196 228
171 196 228
171 196 228
170 196 228
171 196 228
170 196 228
171 196 228
171 196 228
170 196 228
169 195 228
170 195 228
170 196 228
169 195 228
169 195 228
169 195 228
169 195 228
169 195 228
169 195 228
169 195 228
168 195 228
168 195 228
168 194 228
168 194 228
169 195 228
169 195 228
169 195 228
168 195 228
169 195 228
169 195 228
168 195 228
169 195 228
168 194 228
169 195 228
169 195 228
169 195 228
170 196 229
170 195 229
170 196 229
172 197 230
175 199 231
175 199 231
176 200 232
178 201 232
179 203 233
177 201 232
183 206 236
184 206 236
185 207 236
192 214 242
198 218 246
205 225 253
208 228 255
208 228 255
208 228 255
207 228 255
207 228 255
207 228 255
207 228 255
207 228 255
207 228 255
207 228 255
207 228 255
207 228 255
207 228 255
207 228 255
207 228 255
207 228 255
207 228 255
207 227 255
207 227 255
207 227 255
207 227 255
206 227 255
206 227 255
206 227 255
206 227 255
206 227 255
206 227 255
206 227 255
206 227 255
206 227 255
206 227 255
206 227 255
206 227 255
206 227 255
206 227 255
206 227 255
206 227 255
206 227 255
206 227 255
205 227 255
205 227 255
205 227 255
205 227 255
205 227 255
205 227 255
205 227 255
205 227 255
205 227 255
205 227 255
205 227 255
205 227 255
205 226 255
205 226 255
205 226 255
205 226 255
205 226 255
205 226 255
205 226 255
205 226 255
204 226 255
204 226 255
204 226 255
204 226 255
204 226 255
204 226 255
204 226 255
204 226 255
204 226 255
204 226 255
204 226 255
204 226 255
204 226 255
204 226 255
204 226 255
204 226 255
204 226 255
204 226 255
204 226 255
204 226 255
204 226 255
204 226 255
204 226 255
204 226 255
204 226 255
204 226 255
204 226 255
204 226 255
204 226 255
204 226 255
203 226 255
203 226 255
203 226 255
203 226 255
203 226 255
203 226 255
203 226 255
203 226 255
203 226 255
203 226 255
203 226 255
203 226 255
203 226 255
203 226 255
203 226 255
203 226 255
203 226 255
203 226 255
203 226 255
203 226 255
203 226 255
203 226 255
203 226 255
203 226 255
203 226 255
203 226 255
203 226 255
203 226 255
203 226 255
203 226 255
203 226 255
203 226 255
203 226 255
203 226 255
203 226 255
203 226 255
204 226 255
204 226 255
204 226 255
204 226 255
204 226 255
204 226 255
204 226 255
204 226 255
204 226 255
204 226 255
204 226 255
204 226 255
204 226 255
204 226 255
204 226 255
204 226 255
204 226 255
204 226 255
204 226 255
204 226 255
204 226 255
204 226 255
204 226 255
204 226 255
204 226 255
204 226 255
204 226 255
204 226 255
204 226 255
205 226 255
205 226 255
205 226 255
205 226 255
205 226 255
205 226 255
205 226 255
205 226 255
205 226 255
205 227 255
205 227 255
205 227 255
205 227 255
205 227 255
205 227 255
205 227 255
205 227 255
205 227 255
205 227 255
205 227 255
205 227 255
206 227 255
206 227 255
206 227 255
206 227 255
206 227 255
206 227 255
206 227 255
206 227 255
206 227 255
206 227 255
206 227 255
206 227 255
206 227 255
206 227 255
206 227 255
206 227 255
206 227 255
206 227 255
207 227 255
207 227 255
207 227 255
207 227 255
207 228 255
207 228 255
207 228 255
207 228 255
207 228 255
207 228 255
207 228 255
207 228 255
207 228 255
207 228 255
207 228 255
207 228 255
207 228 255
207 228 255
208 228 255
208 228 255
208 228 255
203 223 231
193 214 182
182 204 108
173 197 25
173 197 0
176 199 0
172 196 0
175 198 0
174 197 0
174 197 0
174 197 0
174 197 0
176 198 0
175 198 0
174 197 0
172 196 0
171 194 0
174 197 0
174 198 0
174 198 0
174 197 0
174 198 0
173 197 0
175 198 0
175 198 0
173 197 0
174 197 0
175 198 0
173 196 0
173 196 0
172 196 0
175 198 0
172 196 0
172 196 0
173 197 0
172 195 0
175 198 0
174 197 0
174 197 0
174 197 0
173 196 0
174 198 0
174 198 0
174 197 0
173 197 0
175 197 0
174 197 0
174 198 0
174 197 0
173 197 0
173 197 0
174 197 0
176 199 0
172 196 0
172 195 0
175 198 0
172 195 0
175 198 0
172 196 0
172 196 0
175 197 0
174 197 0
172 197 0
175 198 0
175 198 0
173 197 0
174 197 0
173 197 0
174 197 0
173 197 0
172 196 0
173 196 0
173 196 0
172 196 0
173 195 0
172 195 0
169 192 0
173 196 0
172 195 0
172 195 0
174 197 0
174 197 0
172 196 0
180 203 111
194 215 189
204 223 226
211 230 254
212 230 255
212 230 255
212 230 255
212 230 255
212 230 255
212 230 255
212 230 255
212 230 255
212 230 255
212 230 255
208 226 251
203 221 247
197 216 242
191 209 235
191 210 236
192 211 237
188 208 235
188 208 235
188 208 235
186 206 233
184 205 233
183 204 232
183 204 232
182 204 232
182 203 231
178 200 230
180 202 231
180 201 230
177 200 229
177 200 229
176 199 229
176 199 229
175 198 228
175 198 228
175 198 228
175 198 228
174 198 228
173 197 228
173 197 228
174 198 228
172 197 228
172 197 228
172 197 228
172 197 228
173 197 228
172 196 228
172 196 228
171 196 228
170 196 228
171 196 228
171 196 228
170 196 228
170 195 228
170 196 228
170 195 228
170 195 228
169 195 228
169 195 228
169 195 228
169 195 228
168 195 228
168 195 228
168 194 228
168 194 228
168 195 228
169 195 228
168 194 228
167 194 228
168 194 228
168 194 228
167 194 228
167 194 228
167 194 228
167 194 228
167 194 228
168 195 228
167 194 228
168 194 228
168 194 228
168 194 228
167 194 228
168 195 228
168 194 228
168 195 228
169 195 228
169 195 228
169 195 228
169 195 228
170 196 229
171 196 229
172 197 230
172 197 229
174 198 230
175 199 231
177 201 232
180 203 234
178 201 232
185 207 237
186 208 237
192 213 241
195 216 244
205 225 253
208 228 255
208 228 255
208 228 255
208 228 255
207 228 255
207 228 255
207 228 255
207 228 255
207 228 255
207 228 255
207 228 255
207 228 255
207 228 255
207 228 255
207 228 255
207 228 255
207 228 255
207 228 255
207 227 255
207 227 255
207 227 255
207 227 255
206 227 255
206 227 255
206 227 255
206 227 255
206 227 255
206 227 255
206 227 255
206 227 255
206 227 255
206 227 255
206 227 255
206 227 255
206 227 255
206 227 255
206 227 255
206 227 255
206 227 255
206 227 255
206 227 255
205 227 255
205 227 255
205 227 255
205 227 255
205 227 255
205 227 255
205 227 255
205 227 255
205 227 255
205 227 255
205 227 255
205 227 255
205 226 255
205 226 255
205 226 255
205 226 255
205 226 255
205 226 255
205 226 255
205 226 255
205 226 255
204 226 255
204 226 255
204 226 255
204 226 255
204 226 255
204 226 255
204 226 255
204 226 255
204 226 255
204 226 255
204 226 255
204 226 255
204 226 255
204 226 255
204 226 255
204 226 255
204 226 255
204 226 255
204 226 255
204 226 255
204 226 255
204 226 255
204 226 255
204 226 255
204 226 255
204 226 255
204 226 255
204 226 255
204 226 255
204 226 255
204 226 255
204 226 255
204 226 255
204 226 255
204 226 255
204 226 255
204 226 255
204 226 255
204 226 255
204 226 255
204 226 255
204 226 255
204 226 255
204 226 255
204 226 255
204 226 255
204 226 255
204 226 255
204 226 255
204 226 255
204 226 255
204 226 255
204 226 255
204 226 255
204 226 255
204 226 255
204 226 255
204 226 255
204 226 255
204 226 255
204 226 255
204 226 255
204 226 255
204 226 255
204 226 255
204 226 255
204 226 255
204 226 255
204 226 255
204 226 255
204 226 255
204 226 255
204 226 255
204 226 255
204 226 255
204 226 255
204 226 255
204 226 255
204 226 255
204 226 255
204 226 255
204 226 255
204 226 255
204 226 255
205 226 255
205 226 255
205 226 255
205 226 255
205 226 255
205 226 255
205 226 255
205 226 255
205 226 255
205 227 255
205 227 255
205 227 255
205 227 255
205 227 255
205 227 255
205 227 255
205 227 255
205 227 255
205 227 255
205 227 255
205 227 255
206 227 255
206 227 255
206 227 255
206 227 255
206 227 255
206 227 255
206 227 255
206 227 255
206 227 255
206 227 255
206 227 255
206 227 255
206 227 255
206 227 255
206 227 255
206 227 255
206 227 255
206 227 255
206 227 255
207 227 255
207 227 255
207 227 255
207 227 255
207 228 255
207 228 255
207 228 255
207 228 255
207 228 255
207 228 255
207 228 255
207 228 255
207 228 255
207 228 255
207 228 255
207 228 255
207 228 255
207 228 255
208 228 255
208 228 255
208 228 255
207 228 254
199 221 220
190 212 181
179 202 99
176 198 0
176 199 0
175 198 0
176 199 0
174 197 0
173 197 0
173 196 0
173 197 0
174 198 0
173 196 0
175 198 0
173 196 0
175 198 0
172 196 0
176 199 0
175 197 0
172 195 0
175 198 0
175 198 0
173 196 0
174 197 0
173 197 0
175 198 0
175 198 0
173 196 0
173 196 0
174 197 0
173 197 0
172 197 0
173 197 0
173 196 0
173 196 0
174 197 0
172 196 0
173 197 0
171 195 0
174 198 0
173 196 0
173 197 0
172 196 0
173 197 0
173 197 0
172 196 0
173 196 0
174 197 0
174 198 0
171 195 0
173 197 0
173 197 0
172 196 0
172 196 0
171 195 0
174 197 0
173 196 0
173 197 0
173 196 0
172 196 0
174 197 0
173 197 0
174 197 0
171 195 0
172 196 0
174 197 0
171 195 0
174 197 0
173 195 0
172 196 0
174 197 0
173 197 0
173 197 0
176 199 0
175 197 0
172 196 0
172 196 0
174 196 0
171 195 0
173 196 0
173 196 0
174 198 0
174 197 0
167 191 0
172 195 0
171 194 0
173 195 0
172 196 0
173 196 0
176 199 84
194 214 182
203 222 223
212 230 255
212 230 255
212 230 255
212 230 255
212 230 255
210 228 253
206 224 249
198 216 241
191 210 236
191 211 237
192 212 238
190 210 237
191 210 236
188 208 234
184 204 232
184 205 232
182 203 230
181 202 230
183 204 231
180 201 230
182 203 231
179 201 229
179 201 230
178 200 229
177 199 229
176 199 228
175 198 228
176 198 228
174 198 228
176 198 228
176 199 228
174 198 228
174 198 228
174 198 228
173 197 228
173 197 228
173 197 228
172 197 228
172 197 228
171 196 228
171 196 228
172 197 228
171 196 228
170 196 228
171 196 228
170 196 228
171 196 228
170 196 228
170 195 228
169 195 228
169 195 228
168 194 228
169 195 228
169 195 228
169 195 228
168 195 228
168 194 228
168 194 228
168 194 228
167 194 228
167 194 228
167 194 228
167 194 228
167 194 228
167 194 228
167 194 228
167 194 228
167 194 228
167 194 228
167 194 228
167 194 228
166 193 228
166 193 228
167 194 228
167 194 228
166 193 228
167 194 228
166 194 228
166 194 228
167 194 228
167 194 228
167 194 228
167 194 228
167 194 228
167 194 228
167 194 228
168 194 228
168 195 228
169 195 228
169 195 228
169 195 228
171 196 229
172 197 230
172 197 230
173 198 230
177 201 232
178 202 233
182 205 235
182 205 235
183 206 235
190 211 240
197 217 245
204 225 252
208 228 255
208 228 255
208 228 255
208 228 255
208 228 255
207 228 255
207 228 255
207 228 255
207 228 255
207 228 255
207 228 255
207 228 255
207 228 255
207 228 255
207 228 255
207 228 255
207 228 255
207 228 255
207 228 255
207 227 255
207 227 255
207 227 255
207 227 255
206 227 255
206 227 255
206 227 255
206 227 255
206 227 255
206 227 255
206 227 255
206 227 255
206 227 255
206 227 255
206 227 255
206 227 255
206 227 255
206 227 255
206 227 255
206 227 255
206 227 255
206 227 255
206 227 255
205 227 255
205 227 255
205 227 255
205 227 255
205 227 255
205 227 255
205 227 255
205 227 255
205 227 255
205 227 255
205 227 255
205 227 255
205 227 255
205 226 255
205 226 255
205 226 255
205 226 255
205 226 255
205 226 255
205 226 255
205 226 255
205 226 255
205 226 255
204 226 255
204 226 255
204 226 255
204 226 255
204 226 255
204 226 255
204 226 255
204 226 255
204 226 255
204 226 255
204 226 255
204 226 255
204 226 255
204 226 255
204 226 255
204 226 255
204 226 255
204 226 255
204 226 255
204 226 255
204 226 255
204 226 255
204 226 255
204 226 255
204 226 255
204 226 255
204 226 255
204 226 255
204 226 255
204 226 255
204 226 255
204 226 255
204 226 255
204 226 255
204 226 255
204 226 255
204 226 255
204 226 255
204 226 255
204 226 255
204 226 255
204 226 255
204 226 255
204 226 255
204 226 255
204 226 255
204 226 255
204 226 255
204 226 255
204 226 255
204 226 255
204 226 255
204 226 255
204 226 255
204 226 255
204 226 255
204 226 255
204 226 255
204 226 255
204 226 255
204 226 255
204 226 255
204 226 255
204 226 255
204 226 255
204 226 255
204 226 255
204 226 255
204 226 255
204 226 255
204 226 255
204 226 255
205 226 255
205 226 255
205 226 255
205 226 255
205 226 255
205 226 255
205 226 255
205 226 255
205 226 255
205 226 255
205 227 255
205 227 255
205 227 255
205 227 255
205 227 255
205 227 255
205 227 255
205 227 255
205 227 255
205 227 255
205 227 255
205 227 255
205 227 255
206 227 255
206 227 255
206 227 255
206 227 255
206 227 255
206 227 255
206 227 255
206 227 255
206 227 255
206 227 255
206 227 255
206 227 255
206 227 255
206 227 255
206 227 255
206 227 255
206 227 255
206 227 255
206 227 255
207 227 255
207 227 255
207 227 255
207 227 255
207 228 255
207 228 255
207 228 255
207 228 255
207 228 255
207 228 255
207 228 255
207 228 255
207 228 255
207 228 255
207 228 255
207 228 255
207 228 255
207 228 255
208 228 255
208 228 255
208 228 255
208 228 255
208 228 255
204 224 240
191 212 173
178 201 80
175 198 0
175 198 0
174 197 0
173 196 0
173 197 0
174 197 0
176 199 0
175 198 0
174 198 0
175 198 0
174 197 0
174 197 0
172 196 0
174 197 0
174 197 0
173 197 0
175 198 0
175 197 0
175 198 0
172 196 0
175 198 0
175 198 0
173 197 0
174 198 0
172 195 0
173 196 0
175 198 0
174 197 0
174 198 0
175 198 0
172 196 0
173 197 0
171 195 0
172 197 0
174 197 0
174 197 0
173 196 0
176 198 0
173 196 0
172 196 0
175 198 0
175 198 0
174 198 0
172 196 0
173 196 0
175 198 0
172 196 0
173 197 0
174 198 0
174 197 0
173 197 0
174 197 0
173 197 0
174 197 0
174 198 0
173 197 0
173 197 0
174 197 0
173 197 0
174 197 0
171 194 0
174 197 0
173 197 0
172 196 0
172 196 0
172 196 0
175 198 0
174 196 0
173 197 0
172 196 0
175 198 0
174 197 0
173 196 0
173 196 0
174 197 0
174 198 0
172 195 0
172 196 0
174 197 0
173 197 0
174 198 0
172 196 0
172 196 0
172 195 0
173 197 0
174 197 0
172 195 0
170 194 0
171 194 0
170 194 0
171 195 0
172 195 0
176 199 99
192 213 171
205 224 228
212 230 255
195 214 240
193 211 236
193 212 237
189 209 235
190 209 235
190 210 236
188 207 234
185 205 233
186 206 233
183 204 232
181 202 230
181 203 231
180 201 230
181 203 231
180 201 230
178 200 229
178 200 229
178 200 228
176 199 228
176 199 228
176 199 228
176 199 228
176 198 228
176 199 228
175 198 228
175 198 228
174 197 228
174 198 228
173 197 228
172 197 228
173 197 228
172 197 228
172 196 228
172 196 228
171 196 228
171 196 228
172 196 228
171 196 228
170 196 228
171 196 228
171 196 228
170 195 228
170 195 228
170 195 228
169 195 228
170 195 228
170 195 228
169 195 228
168 194 228
168 195 228
168 194 228
168 194 228
168 194 228
167 194 228
167 194 228
167 194 228
166 194 228
167 194 228
166 194 228
166 194 228
167 194 228
166 194 228
166 193 228
166 193 228
166 193 228
166 193 228
166 193 228
166 193 228
166 193 228
165 193 228
166 193 228
165 193 228
166 193 228
165 193 228
166 193 228
166 193 228
166 193 228
165 193 228
166 194 228
166 194 228
166 193 228
166 194 228
166 194 228
167 194 228
166 194 228
168 194 228
168 194 228
167 194 228
169 195 228
169 195 228
169 195 228
170 195 228
172 197 229
174 198 230
174 199 231
176 200 231
179 202 233
182 205 235
186 208 237
192 213 241
202 222 250
208 228 255
208 228 255
208 228 255
208 228 255
208 228 255
208 228 255
208 228 255
207 228 255
207 228 255
207 228 255
207 228 255
207 228 255
207 228 255
207 228 255
207 228 255
207 228 255
207 228 255
207 228 255
207 228 255
207 228 255
207 228 255
207 227 255
207 227 255
207 227 255
207 227 255
206 227 255
206 227 255
206 227 255
206 227 255
206 227 255
206 227 255
206 227 255
206 227 255
206 227 255
206 227 255
206 227 255
206 227 255
206 227 255
206 227 255
206 227 255
206 227 255
206 227 255
206 227 255
206 227 255
206 227 255
205 227 255
205 227 255
205 227 255
205 227 255
205 227 255
205 227 255
205 227 255
205 227 255
205 227 255
205 227 255
205 227 255
205 227 255
205 227 255
205 227 255
205 226 255
205 226 255
205 226 255
205 226 255
205 226 255
205 226 255
205 226 255
205 226 255
205 226 255
205 226 255
205 226 255
205 226 255
204 226 255
204 226 255
204 226 255
204 226 255
204 226 255
204 226 255
204 226 255
204 226 255
204 226 255
204 226 255
204 226 255
204 226 255
204 226 255
204 226 255
204 226 255
204 226 255
204 226 255
204 226 255
204 226 255
204 226 255
204 226 255
204 226 255
204 226 255
204 226 255
204 226 255
204 226 255
204 226 255
204 226 255
204 226 255
204 226 255
204 226 255
204 226 255
204 226 255
204 226 255
204 226 255
204 226 255
204 226 255
204 226 255
204 226 255
204 226 255
204 226 255
204 226 255
204 226 255
204 226 255
204 226 255
204 226 255
204 226 255
204 226 255
204 226 255
204 226 255
204 226 255
204 226 255
204 226 255
204 226 255
204 226 255
204 226 255
205 226 255
205 226 255
205 226 255
205 226 255
205 226 255
205 226 255
205 226 255
205 226 255
205 226 255
205 226 255
205 226 255
205 226 255
205 227 255
205 227 255
205 227 255
205 227 255
205 227 255
205 227 255
205 227 255
205 227 255
205 227 255
205 227 255
205 227 255
205 227 255
205 227 255
205 227 255
206 227 255
206 227 255
206 227 255
206 227 255
206 227 255
206 227 255
206 227 255
206 227 255
206 227 255
206 227 255
206 227 255
206 227 255
206 227 255
206 227 255
206 227 255
206 227 255
206 227 255
206 227 255
206 227 255
206 227 255
207 227 255
207 227 255
207 227 255
207 227 255
207 228 255
207 228 255
207 228 255
207 228 255
207 228 255
207 228 255
207 228 255
207 228 255
207 228 255
207 228 255
207 228 255
207 228 255
207 228 255
207 228 255
208 228 255
208 228 255
208 228 255
208 228 255
208 228 255
208 228 255
207 227 249
192 213 193
182 205 117
173 196 0
174 197 0
175 197 0
172 196 0
174 197 0
172 196 0
174 198 0
174 197 0
172 196 0
174 198 0
175 198 0
173 196 0
175 198 0
175 198 0
173 197 0
174 197 0
173 197 0
173 197 0
174 197 0
174 198 0
170 195 0
175 198 0
174 197 0
174 198 0
172 196 0
172 196 0
172 196 0
174 197 0
173 197 0
172 196 0
172 196 0
174 197 0
173 197 0
174 197 0
175 198 0
173 197 0
174 197 0
175 198 0
173 197 0
173 196 0
173 197 0
174 197 0
174 197 0
174 197 0
173 197 0
173 197 0
174 197 0
175 198 0
173 197 0
172 195 0
174 197 0
173 197 0
173 196 0
175 198 0
174 198 0
172 196 0
175 198 0
174 197 0
175 198 0
175 198 0
176 199 0
173 196 0
173 196 0
175 198 0
173 197 0
174 198 0
173 196 0
171 195 0
173 197 0
173 197 0
172 196 0
176 198 0
174 197 0
173 197 0
173 196 0
173 197 0
173 197 0
173 197 0
174 197 0
175 198 0
173 197 0
174 197 0
172 195 0
174 197 0
172 196 0
175 198 0
173 197 0
174 197 0
173 196 0
172 196 0
172 195 0
173 197 0
169 193 0
172 196 0
172 195 0
171 195 0
173 196 0
170 193 0
181 203 111
193 212 237
191 210 236
189 209 235
188 208 234
189 208 235
186 206 233
184 205 232
185 205 233
184 205 232
181 203 231
181 202 230
179 200 229
179 200 229
179 200 229
179 200 229
177 199 228
177 199 228
177 199 228
176 199 228
175 198 228
176 199 228
175 198 228
174 198 228
174 197 228
174 198 228
174 197 228
174 197 228
174 198 228
173 197 228
173 197 228
172 197 228
172 197 228
173 197 228
171 196 228
172 196 228
171 196 228
171 196 228
171 196 228
170 195 228
170 196 228
170 196 228
170 196 228
170 195 228
169 195 228
169 195 228
168 195 228
168 195 228
168 194 228
168 195 228
167 194 228
168 194 228
168 194 228
167 194 228
167 194 228
166 194 228
166 194 228
167 194 228
167 194 228
166 194 228
166 194 228
166 193 228
165 193 228
166 193 228
165 193 228
166 193 228
165 193 228
166 193 228
165 193 228
165 193 228
165 193 228
165 193 228
165 193 228
165 193 228
165 193 228
165 193 228
165 193 228
165 193 228
165 193 228
165 193 228
165 193 228
166 193 228
165 193 228
165 193 228
166 193 228
166 193 228
166 193 228
166 194 228
166 193 228
167 194 228
167 194 228
168 194 228
168 195 228
169 195 228
169 195 228
170 195 228
171 197 229
173 198 230
175 199 230
179 202 232
183 205 236
184 206 236
186 207 237
193 214 242
204 225 252
208 228 255
208 228 255
208 228 255
208 228 255
208 228 255
208 228 255
208 228 255
208 228 255
207 228 255
207 228 255
207 228 255
207 228 255
207 228 255
207 228 255
207 228 255
207 228 255
207 228 255
207 228 255
207 228 255
207 228 255
207 228 255
207 228 255
207 227 255
207 227 255
207 227 255
207 227 255
207 227 255
206 227 255
206 227 255
206 227 255
206 227 255
206 227 255
206 227 255
206 227 255
206 227 255
206 227 255
206 227 255
206 227 255
206 227 255
206 227 255
206 227 255
206 227 255
206 227 255
206 227 255
206 227 255
206 227 255
206 227 255
206 227 255
205 227 255
205 227 255
205 227 255
205 227 255
205 227 255
205 227 255
205 227 255
205 227 255
205 227 255
205 227 255
205 227 255
205 227 255
205 227 255
205 227 255
205 227 255
205 226 255
205 226 255
205 226 255
205 226 255
205 226 255
205 226 255
205 226 255
205 226 255
205 226 255
205 226 255
205 226 255
205 226 255
205 226 255
205 226 255
205 226 255
205 226 255
204 226 255
204 226 255
204 226 255
204 226 255
204 226 255
204 226 255
204 226 255
204 226 255
204 226 255
204 226 255
204 226 255
204 226 255
204 226 255
204 226 255
204 226 255
204 226 255
204 226 255
204 226 255
204 226 255
204 226 255
204 226 255
204 226 255
204 226 255
204 226 255
204 226 255
204 226 255
204 226 255
204 226 255
204 226 255
204 226 255
204 226 255
204 226 255
204 226 255
204 226 255
205 226 255
205 226 255
205 226 255
205 226 255
205 226 255
205 226 255
205 226 255
205 226 255
205 226 255
205 226 255
205 226 255
205 226 255
205 226 255
205 226 255
205 226 255
205 226 255
205 227 255
205 227 255
205 227 255
205 227 255
205 227 255
205 227 255
205 227 255
205 227 255
205 227 255
205 227 255
205 227 255
205 227 255
205 227 255
205 227 255
205 227 255
206 227 255
206 227 255
206 227 255
206 227 255
206 227 255
206 227 255
206 227 255
206 227 255
206 227 255
206 227 255
206 227 255
206 227 255
206 227 255
206 227 255
206 227 255
206 227 255
206 227 255
206 227 255
206 227 255
206 227 255
206 227 255
207 227 255
207 227 255
207 227 255
207 227 255
207 228 255
207 228 255
207 228 255
207 228 255
207 228 255
207 228 255
207 228 255
207 228 255
207 228 255
207 228 255
207 228 255
207 228 255
207 228 255
207 228 255
207 228 255
208 228 255
208 228 255
208 228 255
208 228 255
208 228 255
208 228 255
208 228 255
208 228 255
202 223 233
187 209 147
176 199 25
174 198 0
175 197 0
175 198 0
175 198 0
173 197 0
173 197 0
173 196 0
175 198 0
174 197 0
173 196 0
174 197 0
171 195 0
174 197 0
173 196 0
172 196 0
175 198 0
173 197 0
173 197 0
174 198 0
174 198 0
174 197 0
174 197 0
174 198 0
174 198 0
175 198 0
173 197 0
174 198 0
173 196 0
173 196 0
174 197 0
175 198 0
173 197 0
175 198 0
174 198 0
173 197 0
175 198 0
173 196 0
174 197 0
175 198 0
172 196 0
172 196 0
173 197 0
174 197 0
174 197 0
175 198 0
175 198 0
173 197 0
175 198 0
173 197 0
174 196 0
175 198 0
173 196 0
172 196 0
174 197 0
174 198 0
172 196 0
172 196 0
174 198 0
173 197 0
173 196 0
174 198 0
173 197 0
174 198 0
173 196 0
175 197 0
174 198 0
176 198 0
171 194 0
175 198 0
174 197 0
174 197 0
174 197 0
172 194 0
174 197 0
173 197 0
174 196 0
174 197 0
174 197 0
172 196 0
174 197 0
173 197 0
173 196 0
175 198 0
172 196 0
174 197 0
172 196 0
173 196 0
174 197 0
171 195 0
172 196 0
171 196 0
174 197 0
172 196 0
174 197 0
175 198 0
172 196 0
175 198 0
174 198 0
173 196 0
172 196 0
174 196 0
188 207 234
188 208 234
187 207 233
184 204 231
183 204 231
183 203 231
183 203 230
181 202 230
180 201 230
180 201 229
178 200 228
179 201 229
179 200 229
177 199 228
177 199 228
177 199 228
176 199 228
176 199 228
176 198 228
174 198 228
176 199 228
174 198 228
174 198 228
174 197 228
173 197 228
174 197 228
174 197 228
172 197 228
174 198 228
172 197 228
172 196 228
172 197 228
172 197 228
171 196 228
171 196 228
171 196 228
171 196 228
170 196 228
170 195 228
170 196 228
170 196 228
169 195 228
169 195 228
169 195 228
169 195 228
169 195 228
169 195 228
168 195 228
168 194 228
167 194 228
167 194 228
167 194 228
167 194 228
167 194 228
167 194 228
166 194 228
166 194 228
166 194 228
166 194 228
165 193 228
166 193 228
165 193 228
165 193 228
165 193 228
165 193 228
165 193 228
165 193 228
164 193 228
165 193 228
165 193 228
164 193 228
164 193 228
165 193 228
164 192 228
165 193 228
164 193 228
165 193 228
165 193 228
164 193 228
164 192 228
165 193 228
164 193 228
165 193 228
165 193 228
165 193 228
165 193 228
165 193 228
165 193 228
166 193 228
166 193 228
166 193 228
167 194 228
167 194 228
167 194 228
168 195 228
169 195 228
170 195 228
170 195 228
172 197 229
175 199 231
176 200 232
181 204 235
182 204 235
186 207 236
195 216 244
201 221 249
208 228 255
208 228 255
208 228 255
208 228 255
208 228 255
208 228 255
208 228 255
208 228 255
208 228 255
208 228 255
207 228 255
207 228 255
207 228 255
207 228 255
207 228 255
207 228 255
207 228 255
207 228 255
207 228 255
207 228 255
207 228 255
207 228 255
207 228 255
207 228 255
207 228 255
207 227 255
207 227 255
207 227 255
207 227 255
207 227 255
206 227 255
206 227 255
206 227 255
206 227 255
206 227 255
206 227 255
206 227 255
206 227 255
206 227 255
206 227 255
206 227 255
206 227 255
206 227 255
206 227 255
206 227 255
206 227 255
206 227 255
206 227 255
206 227 255
206 227 255
206 227 255
206 227 255
205 227 255
205 227 255
205 227 255
205 227 255
205 227 255
205 227 255
205 227 255
205 227 255
205 227 255
205 227 255
205 227 255
205 227 255
205 227 255
205 227 255
205 227 255
205 227 255
205 227 255
205 227 255
205 226 255
205 226 255
205 226 255
205 226 255
205 226 255
205 226 255
205 226 255
205 226 255
205 226 255
205 226 255
205 226 255
205 226 255
205 226 255
205 226 255
205 226 255
205 226 255
205 226 255
205 226 255
205 226 255
205 226 255
205 226 255
205 226 255
205 226 255
205 226 255
205 226 255
205 226 255
205 226 255
205 226 255
205 226 255
205 226 255
205 226 255
205 226 255
205 226 255
205 226 255
205 226 255
205 226 255
205 226 255
205 226 255
205 226 255
205 226 255
205 226 255
205 226 255
205 226 255
205 226 255
205 226 255
205 226 255
205 226 255
205 226 255
205 227 255
205 227 255
205 227 255
205 227 255
205 227 255
205 227 255
205 227 255
205 227 255
205 227 255
205 227 255
205 227 255
205 227 255
205 227 255
205 227 255
205 227 255
205 227 255
205 227 255
205 227 255
206 227 255
206 227 255
206 227 255
206 227 255
206 227 255
206 227 255
206 227 255
206 227 255
206 227 255
206 227 255
206 227 255
206 227 255
206 227 255
206 227 255
206 227 255
206 227 255
206 227 255
206 227 255
206 227 255
206 227 255
206 227 255
206 227 255
207 227 255
207 227 255
207 227 255
207 227 255
207 227 255
207 228 255
207 228 255
207 228 255
207 228 255
207 228 255
207 228 255
207 228 255
207 228 255
207 228 255
207 228 255
207 228 255
207 228 255
207 228 255
207 228 255
207 228 255
208 228 255
208 228 255
208 228 255
208 228 255
208 228 255
208 228 255
208 228 255
208 228 255
208 228 255
208 228 255
196 218 204
181 204 125
174 197 0
175 198 0
171 195 0
174 198 0
172 196 0
173 197 0
175 198 0
173 197 0
174 197 0
176 199 0
173 196 0
172 196 0
177 199 0
174 198 0
174 197 0
175 198 0
176 199 0
174 197 0
173 197 0
175 198 0
174 196 0
174 197 0
176 199 0
172 196 0
173 197 0
174 198 0
173 197 0
174 197 0
174 197 0
176 199 0
173 196 0
173 197 0
174 198 0
174 197 0
174 197 0
175 198 0
175 198 0
175 198 0
173 197 0
173 197 0
174 197 0
174 197 0
171 194 0
174 198 0
174 197 0
173 196 0
173 196 0
173 197 0
174 197 0
175 198 0
174 198 0
174 197 0
173 197 0
172 196 0
173 197 0
174 197 0
175 198 0
172 196 0
173 196 0
174 197 0
174 198 0
174 197 0
171 195 0
175 198 0
173 197 0
173 197 0
174 197 0
171 195 0
174 198 0
173 197 0
174 198 0
173 197 0
175 198 0
173 197 0
172 196 0
175 198 0
175 198 0
174 197 0
176 199 0
173 197 0
172 196 0
172 196 0
175 198 0
176 199 0
173 196 0
173 197 0
173 196 0
175 197 0
172 196 0
174 197 0
175 198 0
173 197 0
170 193 0
173 197 0
175 198 0
174 197 0
173 197 0
176 198 0
174 198 0
174 198 0
173 196 0
171 195 0
172 195 0
169 193 0
186 206 232
185 205 232
184 204 231
183 203 230
183 203 230
181 202 230
181 202 230
181 202 230
179 200 228
180 201 228
178 200 228
179 200 228
178 200 228
177 199 228
177 199 228
177 199 228
175 198 228
176 199 228
175 198 228
175 198 228
174 198 228
175 198 228
175 198 228
173 197 228
174 197 228
173 197 228
173 197 228
172 197 228
173 197 228
172 197 228
172 196 228
171 196 228
171 196 228
171 196 228
171 196 228
171 196 228
170 195 228
170 196 228
170 196 228
170 195 228
169 195 228
169 195 228
169 195 228
169 195 228
169 195 228
168 195 228
168 195 228
167 194 228
168 194 228
168 195 228
167 194 228
167 194 228
167 194 228
166 194 228
166 194 228
166 194 228
166 193 228
166 193 228
166 193 228
166 193 228
166 193 228
165 193 228
165 193 228
164 192 228
164 193 228
165 193 228
164 193 228
165 193 228
164 192 228
165 193 228
164 193 228
164 192 228
164 193 228
164 192 228
164 192 228
164 192 228
164 192 228
164 192 228
164 192 228
164 192 228
164 192 228
164 192 228
164 192 228
164 193 228
165 193 228
164 192 228
165 193 228
164 193 228
164 193 228
165 193 228
165 193 228
165 193 228
166 193 228
166 193 228
167 194 228
167 194 228
167 194 228
169 195 228
169 195 228
170 196 229
171 196 229
171 196 229
176 200 231
179 203 233
184 206 236
184 206 235
188 210 238
199 220 247
208 228 255
208 228 255
208 228 255
208 228 255
208 228 255
208 228 255
208 228 255
208 228 255
208 228 255
208 228 255
208 228 255
208 228 255
208 228 255
207 228 255
207 228 255
207 228 255
207 228 255
207 228 255
207 228 255
207 228 255
207 228 255
207 228 255
207 228 255
207 228 255
207 228 255
207 228 255
207 228 255
207 228 255
207 227 255
207 227 255
207 227 255
207 227 255
207 227 255
206 227 255
206 227 255
206 227 255
206 227 255
206 227 255
206 227 255
206 227 255
206 227 255
206 227 255
206 227 255
206 227 255
206 227 255
206 227 255
206 227 255
206 227 255
206 227 255
206 227 255
206 227 255
206 227 255
206 227 255
206 227 255
206 227 255
206 227 255
206 227 255
205 227 255
205 227 255
205 227 255
205 227 255
205 227 255
205 227 255
205 227 255
205 227 255
205 227 255
205 227 255
205 227 255
205 227 255
205 227 255
205 227 255
205 227 255
205 227 255
205 227 255
205 227 255
205 227 255
205 227 255
205 227 255
205 227 255
205 227 255
205 227 255
205 227 255
205 227 255
205 226 255
205 226 255
205 226 255
205 226 255
205 226 255
205 226 255
205 226 255
205 226 255
205 226 255
205 226 255
205 226 255
205 226 255
205 226 255
205 226 255
205 226 255
205 226 255
205 226 255
205 226 255
205 227 255
205 227 255
205 227 255
205 227 255
205 227 255
205 227 255
205 227 255
205 227 255
205 227 255
205 227 255
205 227 255
205 227 255
205 227 255
205 227 255
205 227 255
205 227 255
205 227 255
205 227 255
205 227 255
205 227 255
205 227 255
205 227 255
205 227 255
205 227 255
205 227 255
205 227 255
206 227 255
206 227 255
206 227 255
206 227 255
206 227 255
206 227 255
206 227 255
206 227 255
206 227 255
206 227 255
206 227 255
206 227 255
206 227 255
206 227 255
206 227 255
206 227 255
206 227 255
206 227 255
206 227 255
206 227 255
206 227 255
206 227 255
206 227 255
206 227 255
207 227 255
207 227 255
207 227 255
207 227 255
207 227 255
207 228 255
207 228 255
207 228 255
207 228 255
207 228 255
207 228 255
207 228 255
207 228 255
207 228 255
207 228 255
207 228 255
207 228 255
207 228 255
207 228 255
207 228 255
208 228 255
208 228 255
208 228 255
208 228 255
208 228 255
208 228 255
208 228 255
208 228 255
208 228 255
208 228 255
208 228 255
208 228 255
208 228 253
197 218 207
182 204 102
174 197 0
175 198 0
174 197 0
173 197 0
174 197 0
172 196 0
173 196 0
175 198 0
174 198 0
174 197 0
174 197 0
173 197 0
175 198 0
174 198 0
174 197 0
173 196 0
173 197 0
175 198 0
174 197 0
174 198 0
173 196 0
173 197 0
174 197 0
175 197 0
172 195 0
174 197 0
172 196 0
173 197 0
175 198 0
175 198 0
174 197 0
173 196 0
177 199 0
174 197 0
174 198 0
174 197 0
173 196 0
174 197 0
172 196 0
175 198 0
174 198 0
174 198 0
174 198 0
175 198 0
175 198 0
175 198 0
174 197 0
172 196 0
175 198 0
173 197 0
175 198 0
173 196 0
174 198 0
174 197 0
175 198 0
173 197 0
173 197 0
174 197 0
175 198 0
174 198 0
173 197 0
172 196 0
174 198 0
172 196 0
175 198 0
173 196 0
176 198 0
175 197 0
172 196 0
172 196 0
172 197 0
175 198 0
174 197 0
172 196 0
172 196 0
174 198 0
173 197 0
174 197 0
173 197 0
172 196 0
173 197 0
174 198 0
175 198 0
175 198 0
174 198 0
174 198 0
173 196 0
175 198 0
176 199 0
172 196 0
173 196 0
173 197 0
173 197 0
174 197 0
172 195 0
174 198 0
172 197 0
172 196 0
174 197 0
175 198 0
174 197 0
173 197 0
175 198 0
173 196 0
172 195 0
172 196 0
184 204 231
185 205 231
183 204 231
181 202 229
180 201 228
179 200 228
178 200 228
179 200 228
178 200 228
178 200 228
178 199 228
178 200 228
177 199 228
177 199 228
177 199 228
177 199 228
176 199 228
175 198 228
175 198 228
175 198 228
175 198 228
173 197 228
174 198 228
174 198 228
173 197 228
173 197 228
173 197 228
173 197 228
172 197 228
173 197 228
172 197 228
171 196 228
172 196 228
171 196 228
171 196 228
170 196 228
170 196 228
169 195 228
170 195 228
169 195 228
169 195 228
169 195 228
169 195 228
168 195 228
168 195 228
168 195 228
167 194 228
167 194 228
168 194 228
167 194 228
167 194 228
167 194 228
166 194 228
167 194 228
166 193 228
166 194 228
166 193 228
166 193 228
166 193 228
165 193 228
165 193 228
165 193 228
165 193 228
165 193 228
165 193 228
164 193 228
164 192 228
165 193 228
164 192 228
164 192 228
164 192 228
164 192 228
164 192 228
164 192 228
163 192 228
164 192 228
164 192 228
164 192 228
164 192 228
163 192 228
164 192 228
163 192 228
164 192 228
164 192 228
164 192 228
164 192 228
164 192 228
164 192 228
164 192 228
164 192 228
164 193 228
165 193 228
165 193 228
165 193 228
166 193 228
166 193 228
166 194 228
166 194 228
167 194 228
168 194 228
168 195 228
169 195 228
170 195 228
171 196 229
173 198 229
177 201 232
179 203 233
184 206 236
190 211 239
199 219 246
208 228 255
208 228 255
208 228 255
208 228 255
208 228 255
208 228 255
208 228 255
208 228 255
208 228 255
208 228 255
208 228 255
208 228 255
208 228 255
208 228 255
208 228 255
207 228 255
207 228 255
207 228 255
207 228 255
207 228 255
207 228 255
207 228 255
207 228 255
207 228 255
207 228 255
207 228 255
207 228 255
207 228 255
207 228 255
207 228 255
207 228 255
207 227 255
207 227 255
207 227 255
207 227 255
207 227 255
206 227 255
206 227 255
206 227 255
206 227 255
206 227 255
206 227 255
206 227 255
206 227 255
206 227 255
206 227 255
206 227 255
206 227 255
206 227 255
206 227 255
206 227 255
206 227 255
206 227 255
206 227 255
206 227 255
206 227 255
206 227 255
206 227 255
206 227 255
206 227 255
206 227 255
206 227 255
205 227 255
205 227 255
205 227 255
205 227 255
205 227 255
205 227 255
205 227 255
205 227 255
205 227 255
205 227 255
205 227 255
205 227 255
205 227 255
205 227 255
205 227 255
205 227 255
205 227 255
205 227 255
205 227 255
205 227 255
205 227 255
205 227 255
205 227 255
205 227 255
205 227 255
204 226 255
200 222 252
200 222 252
201 223 253
201 223 253
203 225 254
205 227 255
205 227 255
205 227 255
205 227 255
205 227 255
205 227 255
205 227 255
205 227 255
205 227 255
205 227 255
205 227 255
205 227 255
205 227 255
205 227 255
205 227 255
205 227 255
205 227 255
205 227 255
205 227 255
205 227 255
205 227 255
205 227 255
205 227 255
205 227 255
206 227 255
206 227 255
206 227 255
206 227 255
206 227 255
206 227 255
206 227 255
206 227 255
206 227 255
206 227 255
206 227 255
206 227 255
206 227 255
206 227 255
206 227 255
206 227 255
206 227 255
206 227 255
206 227 255
206 227 255
206 227 255
206 227 255
206 227 255
206 227 255
206 227 255
206 227 255
206 227 255
207 227 255
207 227 255
207 227 255
207 227 255
207 227 255
207 228 255
207 228 255
207 228 255
207 228 255
207 228 255
207 228 255
207 228 255
207 228 255
207 228 255
207 228 255
207 228 255
207 228 255
207 228 255
207 228 255
207 228 255
207 228 255
208 228 255
208 228 255
208 228 255
208 228 255
208 228 255
208 228 255
208 228 255
208 228 255
208 228 255
208 228 255
208 228 255
208 228 255
208 228 255
208 228 255
207 227 249
194 215 189
177 199 62
173 197 0
174 197 0
175 198 0
174 196 0
173 197 0
175 197 0
176 199 0
173 197 0
172 195 0
174 198 0
173 197 0
174 197 0
174 198 0
173 197 0
173 197 0
173 197 0
173 197 0
175 198 0
174 197 0
174 198 0
175 197 0
173 196 0
174 197 0
173 197 0
174 197 0
173 197 0
172 195 0
174 198 0
173 196 0
175 197 0
174 198 0
174 197 0
174 197 0
174 197 0
171 195 0
174 198 0
174 198 0
174 198 0
174 197 0
175 198 0
173 197 0
173 197 0
174 197 0
174 197 0
173 197 0
172 196 0
174 197 0
173 197 0
173 197 0
173 197 0
173 197 0
173 196 0
174 198 0
176 198 0
174 198 0
172 196 0
173 196 0
174 197 0
173 197 0
175 198 0
173 197 0
175 198 0
172 196 0
173 196 0
174 198 0
177 199 0
173 197 0
174 198 0
171 196 0
174 197 0
174 198 0
172 195 0
175 198 0
172 196 0
174 197 0
176 199 0
173 197 0
172 196 0
173 197 0
174 198 0
173 197 0
174 197 0
174 197 0
173 196 0
173 197 0
174 198 0
176 199 0
174 198 0
175 198 0
172 195 0
174 197 0
173 196 0
174 197 0
173 197 0
174 197 0
172 196 0
173 196 0
173 196 0
173 196 0
172 196 0
172 196 0
176 199 0
175 197 0
172 196 0
173 197 0
173 197 0
173 197 0
173 197 0
181 202 229
182 202 229
181 202 228
181 202 229
179 200 228
179 200 228
179 200 228
177 199 228
178 200 228
178 200 228
178 200 228
177 199 228
178 199 228
176 199 228
175 198 228
177 199 228
176 199 228
176 198 228
175 198 228
176 198 228
174 198 228
174 198 228
175 198 228
174 198 228
173 197 228
173 197 228
172 197 228
172 197 228
172 197 228
172 197 228
172 197 228
171 196 228
172 196 228
171 196 228
171 196 228
170 196 228
170 196 228
170 196 228
170 195 228
170 196 228
169 195 228
169 195 228
168 195 228
168 195 228
168 195 228
168 194 228
168 194 228
168 194 228
168 194 228
167 194 228
166 194 228
167 194 228
167 194 228
166 193 228
166 194 228
166 194 228
166 193 228
166 193 228
165 193 228
165 193 228
165 193 228
165 193 228
165 193 228
164 193 228
164 193 228
164 193 228
164 193 228
164 192 228
164 192 228
164 192 228
164 192 228
164 192 228
164 192 228
164 192 228
163 192 228
163 192 228
163 192 228
163 192 228
163 192 228
163 192 228
163 192 228
163 192 228
163 192 228
163 192 228
163 192 228
163 192 228
163 192 228
163 192 228
163 192 228
163 192 228
164 192 228
164 192 228
164 192 228
165 193 228
165 193 228
165 193 228
165 193 228
166 193 228
166 194 228
167 194 228
168 194 228
168 194 228
169 195 228
169 195 228
170 195 228
171 196 229
174 198 230
175 199 230
178 201 232
185 207 236
190 211 239
199 219 247
208 228 255
208 228 255
208 228 255
208 228 255
208 228 255
208 228 255
208 228 255
208 228 255
208 228 255
208 228 255
208 228 255
208 228 255
208 228 255
208 228 255
208 228 255
208 228 255
208 228 255
208 228 255
207 228 255
207 228 255
207 228 255
207 228 255
207 228 255
207 228 255
207 228 255
207 228 255
207 228 255
207 228 255
207 228 255
207 228 255
207 228 255
207 228 255
207 228 255
207 228 255
207 227 255
207 227 255
207 227 255
207 227 255
207 227 255
207 227 255
206 227 255
206 227 255
206 227 255
206 227 255
206 227 255
206 227 255
206 227 255
206 227 255
206 227 255
206 227 255
206 227 255
206 227 255
206 227 255
206 227 255
206 227 255
206 227 255
206 227 255
206 227 255
206 227 255
206 227 255
206 227 255
206 227 255
206 227 255
206 227 255
206 227 255
206 227 255
206 227 255
206 227 255
206 227 255
206 227 255
206 227 255
206 227 255
206 227 255
205 227 255
205 227 255
205 227 255
205 227 255
204 225 254
191 213 246
175 197 235
137 161 212
133 157 209
101 129 192
92 122 190
70 105 179
62 99 178
62 99 180
62 99 178
61 99 180
62 99 178
62 99 174
71 105 177
94 123 190
111 138 198
132 156 210
140 164 211
170 193 231
176 198 236
204 225 254
205 227 255
205 227 255
205 227 255
205 227 255
206 227 255
206 227 255
206 227 255
206 227 255
206 227 255
206 227 255
206 227 255
206 227 255
206 227 255
206 227 255
206 227 255
206 227 255
206 227 255
206 227 255
206 227 255
206 227 255
206 227 255
206 227 255
206 227 255
206 227 255
206 227 255
206 227 255
206 227 255
206 227 255
206 227 255
206 227 255
206 227 255
206 227 255
206 227 255
206 227 255
206 227 255
206 227 255
206 227 255
207 227 255
207 227 255
207 227 255
207 227 255
207 227 255
207 228 255
207 228 255
207 228 255
207 228 255
207 228 255
207 228 255
207 228 255
207 228 255
207 228 255
207 228 255
207 228 255
207 228 255
207 228 255
207 228 255
207 228 255
207 228 255
207 228 255
208 228 255
208 228 255
208 228 255
208 228 255
208 228 255
208 228 255
208 228 255
208 228 255
208 228 255
208 228 255
208 228 255
208 228 255
208 228 255
208 228 255
208 228 255
208 228 255
208 228 255
208 228 252
193 214 188
174 197 51
174 197 0
173 197 0
175 198 0
173 197 0
173 197 0
173 196 0
173 197 0
173 197 0
173 196 0
174 198 0
175 198 0
175 198 0
175 198 0
174 197 0
176 198 0
175 198 0
175 198 0
175 198 0
173 197 0
173 197 0
174 197 0
174 197 0
174 198 0
173 197 0
174 197 0
176 199 0
173 196 0
175 198 0
174 197 0
173 196 0
175 198 0
172 196 0
172 196 0
173 197 0
172 196 0
172 196 0
173 196 0
174 197 0
173 197 0
175 198 0
174 198 0
174 197 0
171 195 0
174 198 0
173 197 0
175 198 0
176 198 0
175 198 0
174 197 0
173 197 0
176 199 0
175 198 0
173 196 0
174 197 0
173 196 0
174 197 0
176 198 0
174 198 0
172 195 0
172 196 0
174 197 0
174 198 0
174 198 0
174 197 0
175 198 0
175 198 0
175 198 0
171 195 0
175 198 0
174 198 0
174 198 0
175 198 0
172 196 0
175 198 0
174 197 0
173 196 0
172 196 0
175 198 0
174 198 0
172 197 0
172 196 0
172 195 0
173 197 0
173 197 0
172 196 0
173 197 0
172 196 0
172 196 0
174 197 0
176 199 0
174 197 0
174 197 0
172 196 0
172 196 0
170 194 0
172 196 0
171 195 0
174 197 0
174 197 0
172 196 0
174 197 0
173 196 0
172 195 0
174 197 0
173 197 0
176 198 0
174 197 0
171 195 0
173 197 0
173 196 0
181 202 229
180 201 228
179 201 228
179 200 228
180 201 228
178 200 228
179 200 228
179 200 228
179 200 228
176 199 228
176 199 228
177 199 228
176 199 228
176 199 228
176 199 228
176 199 228
175 198 228
175 198 228
175 198 228
176 198 228
175 198 228
173 197 228
174 198 228
173 197 228
173 197 228
173 197 228
173 197 228
173 197 228
172 197 228
172 197 228
172 196 228
172 197 228
171 196 228
171 196 228
171 196 228
171 196 228
170 195 228
170 196 228
169 195 228
170 195 228
170 196 228
168 195 228
169 195 228
169 195 228
169 195 228
168 195 228
168 194 228
168 194 228
167 194 228
167 194 228
167 194 228
168 194 228
166 194 228
167 194 228
166 194 228
166 193 228
166 194 228
166 193 228
166 193 228
166 193 228
165 193 228
165 193 228
165 193 228
164 192 228
165 193 228
164 193 228
164 192 228
164 193 228
164 192 228
163 192 228
163 192 228
164 192 228
163 192 228
163 192 228
163 192 228
163 192 228
163 192 228
163 192 228
163 192 228
163 192 228
163 192 228
163 192 228
163 192 228
163 192 228
163 192 228
163 192 228
163 192 228
163 192 228
163 192 228
163 192 228
164 192 228
164 192 228
164 192 228
164 192 228
164 193 228
164 193 228
164 193 228
165 193 228
165 193 228
166 193 228
166 193 228
166 194 228
167 194 228
168 194 228
168 195 228
169 195 228
170 196 228
170 196 228
175 199 230
177 201 231
179 202 233
183 205 234
187 209 237
202 222 250
209 228 255
208 228 255
208 228 255
208 228 255
208 228 255
208 228 255
208 228 255
208 228 255
208 228 255
208 228 255
208 228 255
208 228 255
208 228 255
208 228 255
208 228 255
208 228 255
208 228 255
208 228 255
208 228 255
208 228 255
208 228 255
207 228 255
207 228 255
207 228 255
207 228 255
207 228 255
207 228 255
207 228 255
207 228 255
207 228 255
207 228 255
207 228 255
207 228 255
207 228 255
207 228 255
207 228 255
207 228 255
207 228 255
207 227 255
207 227 255
207 227 255
207 227 255
207 227 255
207 227 255
206 227 255
206 227 255
206 227 255
206 227 255
206 227 255
206 227 255
206 227 255
206 227 255
206 227 255
206 227 255
206 227 255
206 227 255
206 227 255
206 227 255
206 227 255
206 227 255
206 227 255
206 227 255
206 227 255
206 227 255
206 227 255
206 227 255
206 227 255
206 227 255
206 227 255
206 227 255
206 227 255
203 224 254
180 201 235
149 173 220
116 143 201
65 101 178
62 98 174
62 99 177
62 99 178
61 98 174
63 99 180
62 99 176
62 99 172
62 99 176
62 99 177
62 98 172
62 99 174
62 98 173
62 99 174
61 97 168
62 99 174
62 99 178
62 99 173
62 99 172
62 99 176
62 99 173
71 105 181
114 140 196
136 160 209
172 194 233
203 224 254
206 227 255
206 227 255
206 227 255
206 227 255
206 227 255
206 227 255
206 227 255
206 227 255
206 227 255
206 227 255
206 227 255
206 227 255
206 227 255
206 227 255
206 227 255
206 227 255
206 227 255
206 227 255
206 227 255
206 227 255
206 227 255
206 227 255
206 227 255
206 227 255
206 227 255
206 227 255
206 227 255
207 227 255
207 227 255
207 227 255
207 227 255
207 227 255
207 227 255
207 228 255
207 228 255
207 228 255
207 228 255
207 228 255
207 228 255
207 228 255
207 228 255
207 228 255
207 228 255
207 228 255
207 228 255
207 228 255
207 228 255
207 228 255
207 228 255
207 228 255
208 228 255
208 228 255
208 228 255
208 228 255
208 228 255
208 228 255
208 228 255
208 228 255
208 228 255
208 228 255
208 228 255
208 228 255
208 228 255
208 228 255
208 228 255
208 228 255
208 228 255
208 228 255
208 228 255
208 228 255
207 227 250
195 216 189
178 201 88
174 197 0
173 197 0
171 195 0
174 197 0
173 197 0
174 197 0
172 196 0
176 198 0
173 197 0
174 198 0
173 197 0
174 197 0
175 198 0
174 197 0
173 197 0
173 197 0
173 197 0
173 197 0
174 198 0
173 196 0
170 195 0
173 196 0
173 197 0
175 198 0
174 198 0
174 197 0
171 196 0
174 197 0
175 198 0
174 198 0
173 197 0
174 197 0
174 198 0
174 198 0
174 198 0
174 198 0
174 197 0
175 197 0
174 197 0
174 197 0
174 197 0
173 197 0
175 198 0
175 198 0
174 198 0
172 196 0
176 198 0
173 197 0
172 196 0
175 198 0
176 199 0
174 198 0
175 198 0
174 198 0
174 198 0
175 198 0
174 198 0
173 197 0
174 197 0
175 198 0
175 198 0
174 198 0
174 197 0
173 197 0
173 196 0
174 198 0
174 198 0
174 197 0
174 198 0
174 197 0
175 198 0
172 196 0
173 197 0
175 198 0
175 198 0
174 198 0
174 197 0
173 197 0
173 197 0
174 198 0
174 197 0
174 198 0
172 196 0
173 197 0
174 197 0
175 198 0
174 197 0
173 197 0
173 197 0
171 195 0
177 199 0
173 197 0
173 197 0
173 197 0
172 196 0
172 196 0
173 197 0
173 197 0
172 196 0
172 196 0
174 197 0
172 196 0
174 196 0
174 197 0
175 198 0
174 198 0
174 197 0
174 197 0
171 195 0
173 197 0
173 196 0
174 197 0
181 201 228
181 201 228
180 201 228
180 201 228
179 200 228
179 200 228
178 200 228
178 200 228
178 199 228
178 200 228
177 199 228
176 199 228
176 199 228
176 199 228
176 199 228
177 199 228
175 198 228
174 198 228
174 198 228
175 198 228
174 197 228
174 198 228
173 197 228
173 197 228
173 197 228
172 197 228
173 197 228
172 197 228
173 197 228
172 196 228
172 197 228
171 196 228
172 196 228
171 196 228
171 196 228
171 196 228
171 196 228
170 196 228
169 195 228
170 195 228
169 195 228
169 195 228
169 195 228
168 195 228
168 194 228
169 195 228
168 195 228
167 194 228
168 194 228
167 194 228
168 194 228
167 194 228
167 194 228
167 194 228
166 194 228
166 193 228
166 194 228
165 193 228
165 193 228
165 193 228
165 193 228
165 193 228
165 193 228
164 193 228
165 193 228
165 193 228
164 193 228
164 193 228
164 192 228
164 192 228
164 192 228
164 192 228
164 192 228
163 192 228
163 192 228
163 192 228
163 192 228
163 192 228
163 192 228
163 192 228
163 192 228
163 192 228
163 192 228
163 192 228
163 192 228
163 192 228
163 192 228
163 192 228
163 192 228
163 192 228
163 192 228
163 192 228
163 192 228
163 192 228
163 192 228
164 192 228
164 192 228
164 193 228
164 193 228
165 193 228
165 193 228
165 193 228
166 193 228
166 194 228
166 194 228
168 194 228
168 195 228
169 195 228
170 196 228
171 196 229
174 198 230
175 199 230
181 204 234
186 207 236
193 214 242
203 223 250
209 229 255
209 229 255
209 228 255
208 228 255
208 228 255
208 228 255
208 228 255
208 228 255
208 228 255
208 228 255
208 228 255
208 228 255
208 228 255
208 228 255
208 228 255
208 228 255
208 228 255
208 228 255
208 228 255
208 228 255
208 228 255
208 228 255
208 228 255
208 228 255
208 228 255
207 228 255
207 228 255
207 228 255
207 228 255
207 228 255
207 228 255
207 228 255
207 228 255
207 228 255
207 228 255
207 228 255
207 228 255
207 228 255
207 228 255
207 228 255
207 228 255
207 228 255
207 228 255
207 227 255
207 227 255
207 227 255
207 227 255
207 227 255
207 227 255
207 227 255
206 227 255
206 227 255
206 227 255
206 227 255
206 227 255
206 227 255
206 227 255
206 227 255
206 227 255
206 227 255
206 227 255
206 227 255
206 227 255
206 227 255
206 227 255
206 227 255
198 220 250
172 194 233
130 155 207
71 105 183
62 99 176
63 100 179
62 99 177
62 99 176
62 99 174
62 99 176
62 99 172
62 99 177
62 98 173
62 99 177
62 99 174
63 99 175
63 99 174
62 99 172
62 98 170
62 99 177
62 99 174
61 98 175
62 99 177
62 99 176
61 98 174
63 99 176
63 100 177
62 98 173
62 99 175
62 99 175
62 99 176
62 99 178
75 109 181
128 153 205
176 198 236
201 222 252
206 227 255
206 227 255
206 227 255
206 227 255
206 227 255
206 227 255
206 227 255
206 227 255
206 227 255
206 227 255
206 227 255
206 227 255
206 227 255
206 227 255
206 227 255
206 227 255
207 227 255
207 227 255
207 227 255
207 227 255
207 227 255
207 227 255
207 227 255
207 228 255
207 228 255
207 228 255
207 228 255
207 228 255
207 228 255
207 228 255
207 228 255
207 228 255
207 228 255
207 228 255
207 228 255
207 228 255
207 228 255
207 228 255
207 228 255
207 228 255
207 228 255
207 228 255
208 228 255
208 228 255
208 228 255
208 228 255
208 228 255
208 228 255
208 228 255
208 228 255
208 228 255
208 228 255
208 228 255
208 228 255
208 228 255
208 228 255
208 228 255
208 228 255
208 228 255
208 228 255
208 228 255
208 228 255
208 228 255
209 228 255
209 229 255
209 229 255
199 220 217
182 204 102
175 198 0
174 197 0
175 198 0
176 199 0
174 197 0
174 198 0
174 198 0
173 196 0
174 197 0
173 197 0
173 197 0
173 196 0
175 198 0
175 198 0
174 197 0
174 197 0
173 197 0
175 198 0
172 196 0
174 197 0
173 197 0
175 198 0
174 198 0
173 197 0
175 198 0
175 198 0
175 198 0
174 197 0
173 196 0
175 198 0
174 197 0
173 196 0
173 196 0
173 197 0
173 196 0
176 198 0
175 198 0
173 197 0
175 198 0
175 198 0
172 196 0
173 197 0
174 197 0
173 197 0
173 196 0
175 198 0
175 198 0
175 198 0
174 197 0
176 198 0
172 197 0
173 197 0
173 197 0
174 198 0
175 198 0
177 199 0
174 197 0
174 197 0
174 197 0
174 197 0
173 197 0
172 196 0
171 195 0
173 196 0
172 196 0
174 198 0
173 196 0
175 198 0
174 198 0
174 198 0
174 197 0
174 198 0
173 197 0
174 197 0
174 197 0
173 197 0
175 198 0
173 197 0
174 197 0
173 197 0
176 198 0
173 197 0
173 197 0
174 197 0
175 198 0
173 197 0
174 198 0
174 198 0
174 197 0
173 197 0
173 196 0
173 197 0
174 197 0
172 196 0
175 198 0
175 198 0
172 196 0
172 196 0
173 197 0
173 197 0
173 197 0
175 198 0
174 198 0
172 196 0
174 198 0
173 197 0
173 196 0
175 198 0
174 197 0
173 196 0
174 198 0
174 197 0
173 196 0
175 198 0
181 201 228
181 201 228
180 201 228
179 200 228
180 201 228
179 200 228
178 200 228
178 200 228
178 200 228
178 200 228
178 200 228
176 199 228
176 199 228
176 199 228
176 199 228
175 198 228
175 198 228
176 198 228
175 198 228
175 198 228
174 198 228
174 197 228
174 198 228
173 197 228
174 197 228
173 197 228
173 197 228
172 197 228
173 197 228
172 197 228
172 197 228
172 197 228
171 196 228
171 196 228
171 196 228
171 196 228
170 196 228
170 196 228
170 195 228
170 195 228
169 195 228
170 195 228
169 195 228
169 195 228
169 195 228
168 195 228
168 194 228
168 194 228
168 194 228
168 194 228
167 194 228
167 194 228
167 194 228
167 194 228
166 194 228
167 194 228
166 194 228
166 193 228
166 193 228
166 193 228
166 193 228
165 193 228
165 193 228
165 193 228
165 193 228
164 193 228
165 193 228
164 192 228
164 192 228
164 192 228
164 192 228
164 192 228
164 192 228
164 192 228
163 192 228
163 192 228
163 192 228
163 192 228
163 192 228
163 192 228
163 192 228
163 192 228
163 192 228
163 192 228
163 192 228
163 192 228
163 192 228
163 192 228
163 192 228
163 192 228
163 192 228
163 192 228
163 192 228
163 192 228
163 192 228
163 192 228
164 192 228
164 192 228
164 192 228
164 193 228
165 193 228
165 193 228
165 193 228
166 193 228
166 194 228
167 194 228
167 194 228
169 195 228
168 194 228
169 195 228
169 195 228
172 197 229
176 200 231
178 201 232
181 203 233
185 207 236
193 213 241
208 227 254
209 229 255
209 229 255
209 229 255
209 229 255
209 229 255
209 228 255
208 228 255
208 228 255
208 228 255
208 228 255
208 228 255
208 228 255
208 228 255
208 228 255
208 228 255
208 228 255
208 228 255
208 228 255
208 228 255
208 228 255
208 228 255
208 228 255
208 228 255
208 228 255
208 228 255
208 228 255
208 228 255
208 228 255
208 228 255
207 228 255
207 228 255
207 228 255
207 228 255
207 228 255
207 228 255
207 228 255
207 228 255
207 228 255
207 228 255
207 228 255
207 228 255
207 228 255
207 228 255
207 228 255
207 228 255
207 228 255
207 228 255
207 228 255
207 227 255
207 227 255
207 227 255
207 227 255
207 227 255
207 227 255
207 227 255
207 227 255
207 227 255
207 227 255
206 227 255
206 227 255
206 227 255
206 227 255
178 200 236
127 152 202
73 107 176
62 99 178
62 99 176
62 99 175
63 99 174
62 99 178
62 98 174
62 99 173
62 99 175
63 100 179
61 98 173
62 98 172
61 98 170
61 98 173
62 99 173
62 98 166
62 99 174
62 99 170
62 99 176
61 98 171
63 99 175
61 98 168
62 99 178
63 100 174
62 98 171
61 98 167
62 99 171
62 99 179
62 98 173
62 99 173
62 99 177
62 98 173
62 99 173
62 99 175
62 99 177
65 101 177
130 154 203
177 199 234
206 227 255
206 227 255
206 227 255
206 227 255
207 227 255
207 227 255
207 227 255
207 227 255
207 227 255
207 227 255
207 227 255
207 227 255
207 227 255
207 228 255
207 228 255
207 228 255
207 228 255
207 228 255
207 228 255
207 228 255
207 228 255
207 228 255
207 228 255
207 228 255
207 228 255
207 228 255
207 228 255
207 228 255
207 228 255
207 228 255
207 228 255
207 228 255
207 228 255
207 228 255
208 228 255
208 228 255
208 228 255
208 228 255
208 228 255
208 228 255
208 228 255
208 228 255
208 228 255
208 228 255
208 228 255
208 228 255
208 228 255
208 228 255
208 228 255
208 228 255
208 228 255
208 228 255
208 228 255
208 228 255
208 228 255
208 228 255
209 228 255
209 229 255
209 229 255
209 229 255
209 229 255
209 229 255
205 225 240
185 207 130
172 196 0
174 198 0
174 197 0
172 196 0
172 196 0
176 199 0
176 198 0
174 198 0
175 198 0
176 198 0
174 198 0
174 198 0
173 196 0
173 197 0
173 197 0
173 197 0
174 197 0
173 197 0
175 198 0
172 196 0
174 197 0
174 197 0
174 197 0
174 197 0
173 197 0
173 197 0
173 197 0
174 197 0
173 197 0
176 198 0
175 198 0
173 197 0
174 198 0
174 197 0
174 197 0
172 196 0
175 198 0
172 196 0
175 198 0
174 198 0
173 196 0
174 197 0
175 198 0
173 197 0
175 198 0
173 197 0
173 197 0
175 198 0
174 198 0
174 197 0
174 198 0
174 198 0
174 197 0
175 198 0
175 198 0
173 197 0
174 197 0
173 197 0
175 198 0
174 198 0
172 197 0
175 198 0
175 198 0
175 198 0
173 197 0
173 197 0
175 198 0
173 197 0
174 198 0
173 197 0
174 197 0
173 197 0
175 198 0
174 198 0
173 197 0
173 197 0
173 197 0
176 199 0
175 198 0
174 197 0
173 197 0
173 197 0
174 197 0
173 197 0
174 198 0
174 198 0
174 198 0
172 196 0
173 197 0
175 198 0
174 197 0
176 199 0
173 197 0
172 196 0
175 198 0
175 198 0
174 197 0
173 196 0
173 196 0
173 197 0
172 196 0
174 197 0
176 199 0
173 197 0
174 198 0
175 198 0
174 197 0
172 196 0
173 197 0
175 198 0
175 198 0
171 195 0
174 197 0
173 197 0
174 198 0
172 196 0
181 201 228
180 201 228
180 201 228
180 201 228
179 200 228
179 200 228
178 200 228
178 200 228
178 199 228
178 200 228
177 199 228
177 199 228
176 199 228
175 198 228
175 198 228
176 198 228
176 198 228
176 199 228
176 199 228
174 198 228
176 198 228
174 198 228
174 198 228
174 197 228
173 197 228
174 197 228
173 197 228
172 197 228
172 197 228
172 196 228
172 197 228
172 196 228
171 196 228
171 196 228
171 196 228
171 196 228
170 196 228
170 196 228
171 196 228
170 196 228
171 196 228
169 195 228
169 195 228
169 195 228
169 195 228
169 195 228
168 195 228
169 195 228
168 194 228
168 194 228
168 194 228
167 194 228
166 194 228
166 194 228
166 194 228
166 194 228
166 194 228
166 193 228
166 193 228
166 193 228
166 193 228
166 193 228
165 193 228
165 193 228
165 193 228
164 193 228
165 193 228
165 193 228
164 192 228
164 193 228
164 192 228
164 192 228
164 192 228
164 192 228
164 192 228
163 192 228
163 192 228
163 192 228
163 192 228
163 192 228
163 192 228
163 192 228
163 192 228
163 192 228
163 192 228
163 192 228
163 192 228
163 192 228
163 192 228
163 192 228
163 192 228
163 192 228
163 192 228
163 192 228
163 192 228
163 192 228
163 192 228
163 192 228
164 192 228
164 192 228
164 192 228
164 193 228
165 193 228
165 193 228
166 193 228
166 193 228
166 194 228
167 194 228
168 194 228
168 195 228
169 195 228
169 195 228
171 196 228
172 197 228
174 198 229
179 202 232
183 206 235
188 209 237
198 218 245
208 228 255
209 229 255
209 229 255
209 229 255
209 229 255
209 229 255
209 229 255
209 229 255
209 229 255
209 228 255
209 228 255
208 228 255
208 228 255
208 228 255
208 228 255
208 228 255
208 228 255
208 228 255
208 228 255
208 228 255
208 228 255
208 228 255
208 228 255
208 228 255
208 228 255
208 228 255
208 228 255
208 228 255
208 228 255
208 228 255
208 228 255
208 228 255
208 228 255
208 228 255
207 228 255
207 228 255
207 228 255
207 228 255
207 228 255
207 228 255
207 228 255
207 228 255
207 228 255
207 228 255
207 228 255
207 228 255
207 228 255
207 228 255
207 228 255
207 228 255
207 228 255
207 228 255
207 228 255
207 228 255
207 228 255
207 228 255
207 228 255
207 228 255
205 226 254
162 185 225
108 135 196
62 98 172
62 98 172
62 98 174
62 98 174
62 99 174
61 98 172
62 99 175
62 99 174
62 99 173
62 98 172
62 99 171
61 98 168
62 98 170
62 98 170
62 99 174
62 99 174
63 100 174
62 99 173
62 99 168
62 98 169
63 99 173
62 99 172
62 99 173
62 98 171
62 98 172
62 99 174
63 99 172
62 99 170
63 100 175
62 98 167
62 98 169
62 99 179
62 99 176
62 99 177
63 99 179
63 99 171
62 99 176
62 99 170
62 98 170
61 98 174
115 141 197
165 187 227
206 227 255
207 228 255
207 228 255
207 228 255
207 228 255
207 228 255
207 228 255
207 228 255
207 228 255
207 228 255
207 228 255
207 228 255
207 228 255
207 228 255
207 228 255
207 228 255
207 228 255
207 228 255
207 228 255
207 228 255
207 228 255
207 228 255
207 228 255
207 228 255
207 228 255
207 228 255
208 228 255
208 228 255
208 228 255
208 228 255
208 228 255
208 228 255
208 228 255
208 228 255
208 228 255
208 228 255
208 228 255
208 228 255
208 228 255
208 228 255
208 228 255
208 228 255
208 228 255
208 228 255
208 228 255
208 228 255
208 228 255
208 228 255
209 228 255
209 228 255
209 229 255
209 229 255
209 229 255
209 229 255
209 229 255
209 229 255
209 229 255
209 229 255
209 229 255
192 214 179
173 197 25
176 199 0
175 198 0
172 195 0
172 196 0
174 197 0
174 198 0
175 198 0
174 197 0
175 198 0
175 198 0
174 197 0
174 197 0
175 198 0
174 197 0
174 197 0
172 196 0
172 196 0
173 196 0
174 197 0
174 197 0
174 197 0
174 198 0
174 197 0
173 197 0
175 198 0
172 196 0
174 197 0
175 198 0
176 199 0
174 197 0
174 198 0
172 196 0
173 197 0
172 196 0
174 198 0
175 198 0
172 195 0
171 195 0
171 195 0
173 197 0
174 197 0
174 197 0
173 197 0
172 196 0
173 197 0
172 197 0
173 197 0
176 199 0
173 197 0
174 198 0
174 197 0
175 198 0
174 198 0
175 197 0
173 196 0
175 198 0
175 198 0
174 197 0
175 198 0
173 197 0
176 198 0
174 198 0
173 197 0
173 196 0
173 197 0
173 197 0
173 197 0
174 198 0
174 198 0
176 199 0
173 197 0
173 197 0
177 199 0
175 198 0
175 198 0
175 198 0
174 198 0
174 197 0
174 197 0
173 197 0
173 197 0
175 198 0
174 198 0
174 198 0
175 198 0
171 195 0
174 198 0
173 196 0
174 197 0
176 199 0
175 198 0
174 197 0
171 195 0
174 198 0
175 198 0
174 198 0
173 197 0
171 195 0
174 197 0
174 197 0
175 198 0
172 196 0
173 197 0
173 196 0
173 197 0
173 196 0
174 198 0
173 196 0
173 197 0
175 198 0
174 197 0
174 198 0
172 196 0
173 197 0
173 197 0
173 197 0
174 197 0
181 201 228
180 201 228
179 200 228
179 200 228
179 200 228
179 200 228
178 200 228
178 200 228
176 199 228
177 199 228
177 199 228
176 199 228
176 199 228
175 198 228
177 199 228
176 199 228
176 199 228
174 198 228
175 198 228
175 198 228
175 198 228
174 198 228
174 198 228
173 197 228
173 197 228
173 197 228
173 197 228
173 197 228
173 197 228
172 197 228
172 197 228
172 197 228
171 196 228
172 196 228
171 196 228
171 196 228
171 196 228
171 196 228
170 195 228
170 196 228
170 195 228
170 195 228
170 195 228
169 195 228
169 195 228
168 195 228
168 194 228
168 195 228
168 194 228
168 194 228
167 194 228
167 194 228
168 194 228
167 194 228
167 194 228
167 194 228
166 194 228
167 194 228
166 194 228
166 193 228
166 193 228
166 193 228
165 193 228
166 193 228
166 193 228
165 193 228
165 193 228
165 193 228
164 193 228
164 193 228
164 193 228
164 192 228
163 192 228
164 192 228
164 192 228
163 192 228
164 192 228
163 192 228
163 192 228
163 192 228
163 192 228
163 192 228
163 192 228
163 192 228
163 192 228
163 192 228
163 192 228
163 192 228
163 192 228
163 192 228
163 192 228
163 192 228
163 192 228
163 192 228
163 192 228
163 192 228
163 192 228
163 192 228
163 192 228
164 192 228
164 192 228
164 192 228
164 192 228
164 193 228
165 193 228
165 193 228
166 193 228
166 193 228
167 194 228
167 194 228
168 194 228
168 195 228
169 195 228
170 195 228
171 196 228
174 198 230
177 200 231
180 203 232
184 206 234
191 212 240
206 225 252
209 229 255
209 229 255
209 229 255
209 229 255
209 229 255
209 229 255
209 229 255
209 229 255
209 229 255
209 229 255
209 229 255
209 229 255
209 229 255
209 228 255
208 228 255
208 228 255
208 228 255
208 228 255
208 228 255
208 228 255
208 228 255
208 228 255
208 228 255
208 228 255
208 228 255
208 228 255
208 228 255
208 228 255
208 228 255
208 228 255
208 228 255
208 228 255
208 228 255
208 228 255
208 228 255
208 228 255
208 228 255
208 228 255
208 228 255
207 228 255
207 228 255
207 228 255
207 228 255
207 228 255
207 228 255
207 228 255
207 228 255
207 228 255
207 228 255
207 228 255
207 228 255
207 228 255
207 228 255
207 228 255
206 227 255
162 185 225
96 125 189
62 99 178
62 99 175
61 97 165
62 98 174
63 100 178
62 98 172
63 99 171
62 99 171
62 99 175
62 98 169
61 98 171
63 99 175
62 99 175
62 99 169
62 98 170
62 99 171
62 99 177
61 98 170
63 99 172
62 98 173
62 98 169
62 99 171
63 100 176
62 98 163
62 99 171
62 98 171
63 99 177
62 98 167
63 99 171
62 99 173
62 98 168
61 98 169
63 100 177
62 99 174
63 99 173
62 99 175
62 99 177
62 99 173
61 98 170
62 99 173
62 98 165
62 99 175
61 98 168
62 98 166
81 112 177
171 192 227
205 226 254
207 228 255
207 228 255
207 228 255
207 228 255
207 228 255
207 228 255
207 228 255
207 228 255
207 228 255
207 228 255
207 228 255
207 228 255
207 228 255
207 228 255
207 228 255
208 228 255
208 228 255
208 228 255
208 228 255
208 228 255
208 228 255
208 228 255
208 228 255
208 228 255
208 228 255
208 228 255
208 228 255
208 228 255
208 228 255
208 228 255
208 228 255
208 228 255
208 228 255
208 228 255
208 228 255
208 228 255
208 228 255
208 228 255
208 228 255
208 228 255
209 228 255
209 228 255
209 229 255
209 229 255
209 229 255
209 229 255
209 229 255
209 229 255
209 229 255
209 229 255
209 229 255
209 229 255
209 229 255
209 229 255
205 225 237
180 202 114
174 198 0
174 197 0
171 195 0
172 196 0
174 197 0
174 197 0
174 197 0
173 197 0
173 197 0
173 197 0
176 199 0
173 197 0
175 198 0
174 198 0
173 197 0
174 198 0
173 197 0
177 199 0
170 195 0
173 197 0
175 198 0
173 197 0
174 198 0
173 197 0
175 197 0
172 195 0
173 197 0
174 198 0
175 198 0
175 198 0
171 195 0
174 197 0
174 197 0
173 197 0
172 196 0
174 197 0
174 198 0
174 197 0
174 197 0
175 198 0
175 198 0
173 197 0
174 196 0
174 197 0
174 197 0
175 198 0
172 195 0
175 198 0
175 198 0
172 196 0
174 198 0
175 198 0
174 197 0
174 197 0
173 197 0
175 198 0
173 197 0
173 197 0
175 198 0
175 198 0
174 197 0
175 198 0
172 196 0
174 197 0
175 198 0
174 197 0
176 199 0
174 197 0
174 197 0
175 198 0
174 198 0
174 198 0
173 197 0
174 198 0
174 197 0
173 197 0
175 198 0
171 195 0
174 197 0
173 197 0
175 198 0
173 196 0
174 197 0
175 198 0
175 198 0
174 198 0
174 197 0
174 197 0
171 195 0
174 198 0
175 198 0
173 197 0
175 198 0
171 195 0
175 198 0
175 198 0
173 197 0
174 197 0
174 198 0
175 198 0
174 198 0
176 198 0
173 197 0
173 196 0
175 198 0
174 197 0
173 197 0
173 196 0
173 196 0
175 198 0
175 198 0
173 197 0
174 197 0
172 195 0
173 197 0
174 197 0
173 197 0
175 198 0
174 197 0
181 201 228
180 201 228
180 201 228
180 201 228
179 200 228
178 200 228
178 200 228
177 199 228
177 199 228
178 199 228
177 199 228
178 199 228
177 199 228
178 200 228
176 199 228
176 199 228
176 199 228
176 199 228
175 198 228
175 198 228
174 198 228
174 198 228
173 197 228
173 197 228
174 198 228
174 198 228
173 197 228
173 197 228
173 197 228
173 197 228
171 196 228
173 197 228
172 196 228
171 196 228
171 196 228
171 196 228
171 196 228
170 196 228
170 196 228
170 196 228
171 196 228
170 195 228
170 195 228
170 195 228
169 195 228
169 195 228
168 195 228
169 195 228
169 195 228
168 194 228
168 195 228
168 194 228
167 194 228
167 194 228
168 194 228
167 194 228
167 194 228
167 194 228
166 194 228
166 194 228
166 193 228
166 193 228
166 193 228
165 193 228
165 193 228
165 193 228
165 193 228
165 193 228
165 193 228
165 193 228
164 193 228
164 192 228
164 192 228
164 192 228
164 192 228
163 192 228
164 192 228
164 192 228
163 192 228
163 192 228
163 192 228
163 192 228
163 192 228
163 192 228
163 192 228
163 192 228
163 192 228
163 192 228
163 192 228
163 192 228
163 192 228
163 192 228
163 192 228
163 192 228
163 192 228
163 192 228
163 192 228
163 192 228
163 192 228
163 192 228
164 192 228
164 192 228
164 192 228
164 192 228
164 193 228
165 193 228
165 193 228
166 193 228
166 193 228
166 193 228
168 194 228
167 194 228
169 195 228
169 195 228
170 196 228
171 196 228
172 197 228
175 199 230
178 201 231
182 204 233
186 207 236
202 222 249
209 229 255
209 229 255
209 229 255
209 229 255
209 229 255
209 229 255
209 229 255
209 229 255
209 229 255
209 229 255
209 229 255
209 229 255
209 229 255
209 229 255
209 229 255
209 229 255
209 229 255
209 228 255
209 228 255
208 228 255
208 228 255
208 228 255
208 228 255
208 228 255
208 228 255
208 228 255
208 228 255
208 228 255
208 228 255
208 228 255
208 228 255
208 228 255
208 228 255
208 228 255
208 228 255
208 228 255
208 228 255
208 228 255
208 228 255
208 228 255
208 228 255
208 228 255
208 228 255
208 228 255
208 228 255
208 228 255
207 228 255
207 228 255
207 228 255
207 228 255
207 228 255
207 228 255
172 194 233
106 133 195
62 99 176
62 98 175
63 100 175
62 99 172
61 98 172
62 98 173
62 99 174
62 99 171
62 98 167
61 98 173
62 98 170
62 98 170
62 99 170
62 98 167
62 98 167
62 98 172
62 99 174
62 98 174
62 98 167
62 98 169
62 99 166
62 99 172
62 98 166
62 99 172
62 99 170
62 99 173
62 98 168
61 98 165
62 98 169
63 99 168
63 99 169
62 98 168
61 98 165
61 98 170
62 98 170
61 98 167
62 99 171
62 99 174
63 99 171
62 99 169
62 98 167
62 98 167
61 98 167
61 98 168
62 99 172
62 98 169
62 98 168
62 98 170
102 130 187
176 197 233
207 228 255
207 228 255
207 228 255
207 228 255
207 228 255
208 228 255
208 228 255
208 228 255
208 228 255
208 228 255
208 228 255
208 228 255
208 228 255
208 228 255
208 228 255
208 228 255
208 228 255
208 228 255
208 228 255
208 228 255
208 228 255
208 228 255
208 228 255
208 228 255
208 228 255
208 228 255
208 228 255
208 228 255
208 228 255
208 228 255
208 228 255
208 228 255
208 228 255
209 228 255
209 228 255
209 229 255
209 229 255
209 229 255
209 229 255
209 229 255
209 229 255
209 229 255
209 229 255
209 229 255
209 229 255
209 229 255
209 229 255
209 229 255
209 229 255
209 229 255
209 229 255
209 228 253
195 216 193
176 199 36
175 197 0
176 198 0
175 198 0
175 198 0
174 197 0
172 196 0
174 197 0
175 198 0
175 198 0
174 197 0
175 198 0
174 197 0
174 197 0
175 198 0
172 196 0
173 197 0
175 198 0
174 198 0
172 196 0
174 198 0
172 196 0
174 197 0
174 198 0
175 198 0
173 197 0
174 197 0
173 197 0
173 196 0
175 198 0
173 197 0
175 198 0
176 198 0
175 198 0
176 199 0
174 197 0
174 197 0
173 197 0
174 198 0
173 196 0
174 197 0
175 198 0
176 198 0
173 197 0
174 197 0
173 197 0
175 198 0
174 197 0
173 197 0
172 196 0
171 195 0
174 198 0
174 197 0
176 199 0
175 198 0
173 196 0
173 197 0
172 196 0
174 197 0
174 197 0
175 198 0
174 198 0
173 197 0
174 197 0
173 197 0
174 198 0
173 197 0
174 198 0
174 197 0
173 197 0
175 198 0
174 198 0
174 197 0
174 197 0
174 198 0
173 197 0
172 196 0
174 197 0
175 197 0
175 198 0
172 196 0
173 196 0
173 197 0
176 199 0
174 198 0
174 198 0
172 196 0
174 198 0
176 198 0
174 197 0
174 198 0
173 197 0
172 196 0
172 196 0
174 197 0
174 197 0
174 197 0
174 197 0
174 198 0
175 198 0
175 198 0
173 196 0
174 197 0
174 198 0
175 198 0
174 197 0
175 198 0
174 197 0
174 198 0
174 198 0
172 196 0
173 197 0
175 198 0
173 197 0
172 196 0
174 198 0
174 197 0
173 197 0
174 197 0
175 198 0
174 198 0
180 201 228
180 201 228
180 201 228
179 200 228
179 200 228
179 200 228
178 200 228
178 200 228
177 199 228
177 199 228
177 199 228
177 199 228
177 199 228
177 199 228
177 199 228
175 198 228
176 199 228
175 198 228
176 199 228
175 198 228
174 198 228
175 198 228
175 198 228
174 198 228
174 198 228
174 197 228
174 197 228
174 198 228
173 197 228
173 197 228
172 196 228
172 197 228
172 197 228
172 197 228
172 196 228
171 196 228
172 197 228
171 196 228
171 196 228
170 196 228
171 196 228
170 196 228
170 195 228
169 195 228
169 195 228
170 195 228
169 195 228
169 195 228
168 195 228
168 195 228
169 195 228
168 194 228
168 194 228
168 194 228
167 194 228
167 194 228
167 194 228
166 194 228
167 194 228
167 194 228
166 194 228
167 194 228
166 193 228
166 194 228
166 193 228
166 193 228
165 193 228
165 193 228
165 193 228
165 193 228
165 193 228
164 193 228
164 193 228
164 193 228
164 192 228
164 192 228
164 192 228
164 192 228
164 192 228
163 192 228
163 192 228
163 192 228
163 192 228
163 192 228
163 192 228
163 192 228
163 192 228
163 192 228
163 192 228
163 192 228
163 192 228
163 192 228
163 192 228
163 192 228
163 192 228
163 192 228
163 192 228
163 192 228
163 192 228
163 192 228
164 192 228
163 192 228
164 192 228
164 192 228
164 192 228
164 193 228
165 193 228
165 193 228
166 193 228
166 193 228
166 193 228
167 194 228
168 194 228
167 194 228
169 195 228
170 195 228
170 196 228
172 196 228
173 197 228
177 200 230
178 201 231
186 208 236
192 213 241
207 226 253
209 229 255
209 229 255
209 229 255
209 229 255
209 229 255
209 229 255
209 229 255
209 229 255
209 229 255
209 229 255
209 229 255
209 229 255
209 229 255
209 229 255
209 229 255
209 229 255
209 229 255
209 229 255
209 229 255
209 229 255
209 229 255
209 229 255
209 228 255
208 228 255
208 228 255
208 228 255
208 228 255
208 228 255
208 228 255
208 228 255
208 228 255
208 228 255
208 228 255
208 228 255
208 228 255
208 228 255
208 228 255
208 228 255
208 228 255
208 228 255
208 228 255
208 228 255
208 228 255
208 228 255
208 228 255
208 228 255
208 228 255
208 228 255
193 214 246
110 137 196
62 99 174
62 98 171
62 99 173
62 99 176
62 99 170
62 99 166
62 98 169
62 99 170
63 99 172
62 98 168
63 99 173
61 98 169
62 98 170
62 98 170
63 99 175
62 98 167
62 99 170
62 98 166
61 98 168
62 99 167
62 99 170
62 98 163
62 99 171
62 98 166
63 99 166
62 98 168
63 99 171
63 99 170
62 99 169
61 98 170
62 99 169
61 97 163
61 98 165
62 99 172
62 99 169
62 99 172
63 99 172
62 99 172
62 98 161
62 98 171
62 98 165
62 99 172
61 98 162
62 99 167
62 98 165
62 99 174
61 97 163
62 98 166
62 98 164
62 99 170
62 98 170
61 97 166
122 147 200
191 212 242
208 228 255
208 228 255
208 228 255
208 228 255
208 228 255
208 228 255
208 228 255
208 228 255
208 228 255
208 228 255
208 228 255
208 228 255
208 228 255
208 228 255
208 228 255
208 228 255
208 228 255
208 228 255
208 228 255
208 228 255
208 228 255
208 228 255
208 228 255
208 228 255
208 228 255
209 228 255
209 229 255
209 229 255
209 229 255
209 229 255
209 229 255
209 229 255
209 229 255
209 229 255
209 229 255
209 229 255
209 229 255
209 229 255
209 229 255
209 229 255
209 229 255
209 229 255
209 229 255
209 229 255
209 229 255
209 229 255
209 229 255
209 229 255
206 226 242
181 203 88
173 196 0
175 198 0
175 198 0
174 198 0
173 197 0
175 198 0
176 198 0
174 197 0
175 198 0
174 197 0
174 197 0
174 197 0
172 196 0
172 196 0
174 197 0
173 197 0
175 198 0
174 197 0
174 197 0
173 197 0
175 198 0
174 198 0
174 197 0
174 197 0
174 198 0
176 198 0
175 198 0
174 198 0
174 198 0
176 198 0
175 198 0
174 197 0
174 197 0
174 198 0
174 197 0
175 198 0
173 197 0
174 197 0
173 197 0
174 198 0
173 196 0
174 197 0
176 198 0
175 198 0
175 198 0
174 197 0
174 197 0
176 199 0
174 198 0
173 197 0
174 198 0
174 198 0
174 198 0
174 198 0
174 198 0
175 198 0
174 198 0
173 197 0
173 197 0
175 198 0
173 197 0
174 198 0
172 197 0
175 198 0
173 197 0
174 198 0
174 197 0
175 198 0
174 197 0
176 198 0
171 196 0
174 198 0
175 198 0
173 197 0
175 198 0
171 195 0
174 197 0
176 199 0
173 197 0
174 197 0
175 198 0
175 198 0
175 198 0
174 197 0
175 198 0
172 196 0
172 197 0
175 198 0
174 197 0
176 199 0
175 198 0
174 198 0
175 198 0
174 198 0
174 197 0
175 198 0
172 196 0
174 198 0
175 198 0
174 197 0
175 198 0
172 196 0
173 197 0
174 197 0
172 196 0
174 198 0
172 196 0
174 197 0
169 194 0
173 197 0
173 197 0
174 197 0
173 197 0
174 197 0
175 198 0
175 198 0
176 198 0
175 198 0
172 196 0
174 197 0
172 195 0
172 196 0
181 201 228
180 201 228
178 200 228
180 201 228
179 200 228
178 200 228
178 200 228
178 200 228
178 199 228
177 199 228
179 200 228
177 199 228
177 199 228
176 199 228
177 199 228
176 199 228
177 199 228
175 198 228
176 198 228
176 199 228
175 198 228
175 198 228
175 198 228
174 198 228
173 197 228
175 198 228
174 198 228
173 197 228
173 197 228
173 197 228
172 197 228
172 197 228
172 196 228
172 197 228
172 197 228
172 196 228
171 196 228
171 196 228
172 197 228
171 196 228
171 196 228
170 196 228
171 196 228
169 195 228
169 195 228
170 196 228
169 195 228
169 195 228
169 195 228
169 195 228
169 195 228
169 195 228
169 195 228
167 194 228
168 194 228
167 194 228
167 194 228
167 194 228
167 194 228
167 194 228
167 194 228
166 194 228
166 193 228
166 193 228
166 194 228
166 193 228
166 193 228
166 193 228
165 193 228
165 193 228
165 193 228
165 193 228
165 193 228
165 193 228
165 193 228
164 193 228
164 193 228
164 192 228
164 192 228
164 192 228
164 192 228
164 192 228
164 192 228
163 192 228
163 192 228
163 192 228
163 192 228
163 192 228
163 192 228
163 192 228
163 192 228
163 192 228
163 192 228
163 192 228
163 192 228
163 192 228
163 192 228
163 192 228
163 192 228
163 192 228
164 192 228
163 192 228
164 192 228
164 192 228
164 193 228
164 193 228
165 193 228
165 193 228
165 193 228
165 193 228
166 193 228
166 193 228
167 194 228
167 194 228
168 194 228
168 194 228
170 195 228
171 196 228
172 196 228
173 197 228
175 199 229
178 201 231
183 205 234
188 208 236
203 223 250
210 229 255
210 229 255
210 229 255
210 229 255
210 229 255
209 229 255
209 229 255
209 229 255
209 229 255
209 229 255
209 229 255
209 229 255
209 229 255
209 229 255
209 229 255
209 229 255
209 229 255
209 229 255
209 229 255
209 229 255
209 229 255
209 229 255
209 229 255
209 229 255
209 229 255
209 229 255
209 229 255
209 228 255
209 228 255
208 228 255
208 228 255
208 228 255
208 228 255
208 228 255
208 228 255
208 228 255
208 228 255
208 228 255
208 228 255
208 228 255
208 228 255
208 228 255
208 228 255
208 228 255
208 228 255
206 226 254
153 175 218
81 113 184
62 98 174
62 98 172
62 98 171
62 99 176
61 98 169
62 99 173
62 98 166
63 99 172
62 98 168
62 99 173
62 98 165
61 97 165
61 98 169
62 98 161
62 98 169
62 98 171
61 98 167
62 99 172
63 99 172
62 99 172
62 98 165
61 98 169
62 98 167
61 98 166
62 99 167
61 97 166
62 98 168
62 99 168
61 98 164
62 99 170
61 97 163
62 99 171
63 99 170
63 99 171
62 98 166
62 99 169
63 99 171
61 97 157
62 98 160
62 98 171
62 98 166
62 98 164
62 98 163
62 98 168
62 98 168
62 98 168
61 98 167
62 99 167
62 98 164
62 99 169
62 99 169
61 97 158
61 98 168
60 96 161
71 105 175
160 182 222
204 224 253
208 228 255
208 228 255
208 228 255
208 228 255
208 228 255
208 228 255
208 228 255
208 228 255
208 228 255
208 228 255
208 228 255
208 228 255
208 228 255
208 228 255
208 228 255
209 228 255
209 228 255
209 228 255
209 229 255
209 229 255
209 229 255
209 229 255
209 229 255
209 229 255
209 229 255
209 229 255
209 229 255
209 229 255
209 229 255
209 229 255
209 229 255
209 229 255
209 229 255
209 229 255
209 229 255
209 229 255
209 229 255
209 229 255
209 229 255
209 229 255
210 229 255
210 229 255
210 229 255
210 229 255
210 229 255
196 216 193
175 199 51
175 198 0
173 196 0
174 197 0
174 197 0
173 196 0
175 198 0
175 198 0
174 198 0
173 197 0
175 198 0
175 198 0
174 197 0
174 198 0
174 197 0
175 198 0
175 198 0
174 198 0
174 197 0
173 197 0
175 198 0
175 198 0
175 198 0
173 197 0
176 199 0
173 196 0
174 198 0
174 197 0
172 196 0
175 198 0
173 197 0
174 198 0
175 198 0
174 198 0
174 197 0
175 198 0
174 197 0
175 198 0
175 198 0
174 198 0
174 197 0
174 197 0
175 198 0
176 198 0
174 198 0
174 197 0
174 197 0
176 199 0
173 197 0
173 197 0
177 199 0
177 199 0
175 198 0
175 198 0
173 196 0
174 197 0
173 197 0
176 199 0
175 198 0
174 198 0
177 199 0
174 197 0
173 197 0
172 196 0
173 197 0
176 199 0
174 197 0
173 197 0
173 197 0
175 198 0
173 197 0
175 198 0
175 198 0
174 198 0
174 197 0
175 198 0
174 198 0
175 198 0
174 197 0
175 198 0
174 197 0
173 196 0
175 198 0
175 198 0
173 197 0
174 197 0
175 198 0
174 197 0
175 198 0
175 198 0
174 197 0
175 198 0
175 198 0
175 198 0
176 199 0
173 197 0
174 197 0
173 197 0
176 199 0
174 197 0
175 198 0
173 197 0
174 198 0
173 196 0
176 199 0
173 197 0
174 197 0
176 199 0
174 197 0
173 196 0
174 197 0
174 197 0
175 197 0
175 198 0
173 197 0
173 196 0
172 196 0
175 198 0
171 195 0
173 197 0
176 199 0
172 196 0
175 198 0
174 198 0
179 200 228
180 201 228
180 201 228
179 200 228
180 201 228
178 200 228
179 200 228
178 200 228
179 200 228
178 200 228
177 199 228
177 199 228
177 199 228
176 199 228
176 199 228
176 199 228
176 199 228
176 199 228
175 198 228
175 198 228
176 199 228
175 198 228
175 198 228
175 198 228
175 198 228
175 198 228
173 197 228
173 197 228
174 197 228
174 197 228
173 197 228
174 197 228
172 197 228
173 197 228
172 197 228
172 197 228
172 197 228
171 196 228
172 197 228
171 196 228
171 196 228
171 196 228
171 196 228
170 196 228
170 195 228
171 196 228
169 195 228
169 195 228
169 195 228
169 195 228
168 195 228
169 195 228
169 195 228
168 195 228
168 194 228
168 194 228
168 194 228
168 194 228
168 194 228
167 194 228
168 194 228
167 194 228
167 194 228
167 194 228
166 193 228
166 193 228
166 194 228
165 193 228
166 193 228
166 193 228
165 193 228
166 193 228
165 193 228
165 193 228
164 193 228
165 193 228
164 193 228
165 193 228
164 193 228
164 193 228
164 192 228
164 192 228
164 192 228
164 192 228
164 192 228
164 192 228
164 192 228
163 192 228
163 192 228
164 192 228
163 192 228
163 192 228
163 192 228
163 192 228
163 192 228
163 192 228
163 192 228
163 192 228
163 192 228
164 192 228
164 192 228
163 192 228
164 192 228
164 192 228
164 192 228
164 192 228
164 192 228
165 193 228
165 193 228
166 193 228
165 193 228
166 193 228
167 194 228
167 194 228
167 194 228
168 195 228
169 195 228
169 195 228
170 196 228
171 196 228
173 197 228
174 198 229
177 200 229
182 204 234
187 208 236
196 216 243
209 228 254
210 229 255
210 229 255
210 229 255
210 229 255
210 229 255
210 229 255
210 229 255
210 229 255
210 229 255
209 229 255
209 229 255
209 229 255
209 229 255
209 229 255
209 229 255
209 229 255
209 229 255
209 229 255
209 229 255
209 229 255
209 229 255
209 229 255
209 229 255
209 229 255
209 229 255
209 229 255
209 229 255
209 229 255
209 229 255
209 229 255
209 229 255
209 229 255
209 229 255
209 228 255
209 228 255
209 228 255
208 228 255
208 228 255
208 228 255
208 228 255
208 228 255
208 228 255
194 215 245
119 144 199
63 99 176
63 99 174
61 97 167
61 97 166
62 99 173
62 98 173
61 98 167
63 99 171
62 98 171
62 99 171
62 98 167
62 98 168
62 98 169
62 99 168
62 98 163
62 99 174
62 99 169
63 99 167
62 98 166
62 99 171
63 99 167
61 98 164
62 98 162
61 98 170
63 99 174
61 97 164
62 98 167
62 99 169
62 98 165
62 98 168
63 99 172
62 98 167
62 98 167
62 98 164
62 98 167
62 98 163
62 99 171
62 99 167
62 98 164
63 99 169
62 99 170
63 99 167
61 98 160
62 98 161
61 98 164
62 98 166
62 98 168
62 98 165
62 99 169
61 97 165
62 98 165
61 97 159
62 98 161
62 98 164
62 98 169
62 98 161
62 99 171
62 98 165
119 144 199
192 213 245
208 228 255
208 228 255
208 228 255
208 228 255
208 228 255
208 228 255
209 228 255
209 228 255
209 228 255
209 229 255
209 229 255
209 229 255
209 229 255
209 229 255
209 229 255
209 229 255
209 229 255
209 229 255
209 229 255
209 229 255
209 229 255
209 229 255
209 229 255
209 229 255
209 229 255
209 229 255
209 229 255
209 229 255
209 229 255
209 229 255
209 229 255
209 229 255
209 229 255
210 229 255
210 229 255
210 229 255
210 229 255
210 229 255
210 229 255
210 229 255
210 229 255
210 229 255
209 229 253
189 211 165
175 198 0
174 198 0
175 198 0
175 198 0
173 197 0
174 197 0
174 197 0
173 196 0
175 198 0
173 197 0
174 197 0
175 198 0
174 197 0
173 197 0
174 197 0
173 196 0
173 196 0
173 196 0
174 198 0
173 197 0
173 197 0
175 198 0
176 198 0
174 198 0
173 197 0
176 199 0
173 197 0
174 198 0
175 197 0
171 195 0
176 198 0
175 198 0
175 198 0
174 198 0
174 197 0
174 198 0
174 198 0
173 197 0
174 198 0
174 198 0
174 197 0
173 197 0
173 197 0
174 198 0
174 198 0
175 198 0
173 197 0
174 198 0
175 198 0
174 198 0
175 198 0
174 197 0
174 198 0
175 198 0
174 197 0
174 197 0
174 198 0
173 197 0
174 198 0
174 198 0
173 197 0
173 196 0
171 195 0
174 198 0
174 197 0
174 198 0
173 197 0
175 198 0
176 198 0
174 198 0
174 198 0
174 198 0
173 197 0
176 198 0
174 198 0
174 198 0
175 198 0
174 197 0
172 196 0
175 198 0
174 198 0
174 198 0
175 198 0
173 197 0
174 197 0
175 197 0
172 196 0
175 198 0
174 197 0
175 198 0
173 197 0
174 197 0
175 198 0
174 197 0
175 198 0
173 197 0
175 198 0
174 198 0
175 198 0
174 198 0
175 198 0
174 198 0
174 197 0
174 197 0
174 197 0
175 198 0
175 198 0
174 197 0
174 197 0
173 197 0
173 196 0
173 197 0
173 197 0
173 196 0
175 198 0
172 196 0
172 196 0
174 197 0
173 197 0
173 196 0
172 196 0
174 197 0
174 196 0
174 197 0
172 196 0
180 201 228
180 201 228
180 201 228
179 200 228
179 200 228
180 201 228
178 200 228
179 200 228
178 200 228
178 200 228
178 199 228
178 200 228
178 200 228
177 199 228
177 199 228
176 199 228
176 199 228
177 199 228
177 199 228
176 199 228
175 198 228
176 198 228
175 198 228
176 199 228
175 198 228
175 198 228
175 198 228
174 198 228
174 197 228
173 197 228
173 197 228
174 197 228
173 197 228
174 197 228
172 196 228
173 197 228
173 197 228
173 197 228
172 196 228
172 196 228
171 196 228
171 196 228
171 196 228
171 196 228
171 196 228
170 196 228
170 195 228
170 196 228
170 195 228
170 195 228
170 195 228
170 195 228
169 195 228
169 195 228
169 195 228
169 195 228
168 195 228
168 195 228
168 194 228
168 194 228
167 194 228
167 194 228
168 194 228
167 194 228
167 194 228
166 194 228
166 194 228
166 194 228
167 194 228
166 194 228
165 193 228
165 193 228
166 193 228
166 193 228
165 193 228
165 193 228
165 193 228
165 193 228
165 193 228
165 193 228
164 193 228
165 193 228
164 192 228
164 192 228
164 193 228
164 192 228
164 192 228
164 192 228
164 193 228
164 192 228
164 192 228
164 192 228
164 192 228
164 192 228
164 192 228
164 192 228
164 192 228
163 192 228
164 192 228
164 192 228
164 192 228
164 192 228
164 192 228
164 192 228
164 193 228
164 193 228
165 193 228
165 193 228
165 193 228
165 193 228
165 193 228
166 193 228
166 193 228
167 194 228
167 194 228
168 194 228
169 195 228
169 195 228
169 195 228
170 195 228
171 196 228
172 197 228
174 198 228
177 200 230
180 202 232
185 206 234
194 214 240
208 227 253
210 229 255
210 229 255
210 229 255
210 229 255
210 229 255
210 229 255
210 229 255
210 229 255
210 229 255
210 229 255
210 229 255
210 229 255
210 229 255
210 229 255
209 229 255
209 229 255
209 229 255
209 229 255
209 229 255
209 229 255
209 229 255
209 229 255
209 229 255
209 229 255
209 229 255
209 229 255
209 229 255
209 229 255
209 229 255
209 229 255
209 229 255
209 229 255
209 229 255
209 229 255
209 229 255
209 229 255
209 229 255
209 229 255
209 229 255
209 229 255
182 203 237
70 104 176
62 99 176
61 98 168
61 97 164
61 98 167
62 98 170
62 98 170
61 98 169
61 97 167
63 99 172
62 98 170
62 98 171
62 98 168
62 99 173
62 98 172
62 99 175
61 97 160
62 98 170
62 99 171
61 97 160
62 99 167
62 99 168
62 98 161
62 98 164
61 98 164
62 98 169
61 97 162
62 98 164
62 98 161
62 98 164
63 99 162
61 97 159
62 98 166
63 99 170
62 98 169
62 98 163
62 99 167
62 98 163
62 98 164
63 99 167
62 99 169
62 98 165
62 98 168
62 99 171
61 97 164
62 98 168
62 98 167
62 99 166
63 99 172
62 99 168
62 98 164
62 98 164
61 97 163
62 99 170
61 97 165
61 97 165
61 98 164
62 98 168
62 99 172
62 98 170
62 98 166
76 108 171
172 193 229
209 229 255
209 229 255
209 229 255
209 229 255
209 229 255
209 229 255
209 229 255
209 229 255
209 229 255
209 229 255
209 229 255
209 229 255
209 229 255
209 229 255
209 229 255
209 229 255
209 229 255
209 229 255
209 229 255
209 229 255
209 229 255
209 229 255
209 229 255
209 229 255
209 229 255
209 229 255
210 229 255
210 229 255
210 229 255
210 229 255
210 229 255
210 229 255
210 229 255
210 229 255
210 229 255
210 229 255
210 229 255
210 229 255
210 229 255
210 229 255
205 225 236
181 203 99
175 198 0
176 198 0
176 198 0
175 198 0
173 197 0
175 198 0
174 198 0
175 198 0
174 198 0
176 198 0
175 198 0
174 197 0
172 196 0
175 198 0
173 197 0
174 197 0
174 197 0
174 198 0
175 198 0
174 198 0
174 198 0
174 198 0
174 197 0
174 198 0
172 197 0
174 197 0
175 198 0
173 197 0
176 199 0
174 197 0
173 197 0
175 198 0
174 197 0
173 197 0
174 198 0
175 198 0
173 197 0
173 197 0
173 197 0
172 197 0
175 198 0
174 198 0
172 197 0
174 198 0
174 198 0
173 197 0
174 197 0
176 199 0
173 197 0
174 197 0
174 198 0
175 198 0
175 198 0
174 198 0
174 198 0
175 198 0
174 197 0
174 197 0
173 197 0
174 198 0
173 197 0
174 198 0
174 198 0
173 197 0
173 197 0
175 198 0
174 198 0
175 197 0
175 198 0
174 198 0
173 197 0
171 196 0
173 197 0
175 198 0
176 198 0
174 197 0
173 197 0
173 197 0
174 198 0
176 198 0
176 198 0
173 197 0
175 198 0
175 198 0
176 199 0
171 195 0
173 197 0
176 198 0
176 199 0
174 197 0
174 198 0
175 198 0
175 198 0
172 196 0
174 197 0
175 198 0
174 198 0
176 198 0
175 198 0
174 197 0
174 198 0
176 198 0
174 197 0
175 198 0
173 197 0
174 197 0
174 198 0
174 198 0
175 198 0
174 198 0
172 196 0
173 197 0
174 197 0
174 197 0
173 196 0
174 197 0
175 198 0
171 195 0
177 199 0
176 199 0
175 198 0
173 197 0
175 198 0
173 196 0
174 198 0
175 198 0
181 202 228
180 201 228
180 201 228
179 201 228
180 201 228
179 200 228
179 200 228
179 200 228
179 200 228
178 200 228
178 200 228
178 200 228
177 199 228
177 199 228
177 199 228
177 199 228
177 199 228
177 199 228
177 199 228
175 198 228
176 198 228
176 198 228
175 198 228
176 198 228
175 198 228
175 198 228
174 198 228
173 197 228
174 197 228
175 198 228
174 198 228
174 198 228
173 197 228
173 197 228
173 197 228
173 197 228
173 197 228
173 197 228
172 197 228
171 196 228
171 196 228
172 197 228
171 196 228
171 196 228
171 196 228
170 196 228
171 196 228
170 196 228
171 196 228
170 196 228
170 195 228
170 196 228
169 195 228
169 195 228
169 195 228
169 195 228
169 195 228
169 195 228
168 195 228
168 195 228
167 194 228
168 194 228
168 194 228
168 194 228
168 194 228
168 194 228
167 194 228
166 194 228
166 194 228
166 194 228
166 194 228
167 194 228
166 194 228
166 194 228
166 193 228
166 193 228
166 193 228
165 193 228
165 193 228
165 193 228
165 193 228
165 193 228
165 193 228
165 193 228
165 193 228
165 193 228
164 193 228
164 192 228
164 193 228
164 193 228
164 192 228
164 192 228
164 192 228
164 192 228
164 192 228
164 192 228
164 192 228
164 192 228
164 192 228
164 192 228
164 193 228
164 192 228
164 192 228
164 193 228
164 193 228
165 193 228
164 192 228
164 192 228
165 193 228
165 193 228
166 193 228
166 193 228
166 194 228
166 194 228
167 194 228
168 194 228
168 194 228
168 195 228
169 195 228
170 195 228
171 196 228
171 196 228
172 197 228
174 197 228
176 199 230
177 200 230
185 206 234
191 211 238
206 225 251
210 229 255
210 229 255
210 229 255
210 229 255
210 229 255
210 229 255
210 229 255
210 229 255
210 229 255
210 229 255
210 229 255
210 229 255
210 229 255
210 229 255
210 229 255
210 229 255
210 229 255
210 229 255
210 229 255
210 229 255
209 229 255
209 229 255
209 229 255
209 229 255
209 229 255
209 229 255
209 229 255
209 229 255
209 229 255
209 229 255
209 229 255
209 229 255
209 229 255
209 229 255
209 229 255
209 229 255
209 229 255
209 229 255
151 173 215
61 97 168
61 98 166
61 97 167
62 98 168
61 98 166
61 98 165
62 98 169
62 98 173
63 99 171
62 98 172
62 99 170
62 98 171
63 100 177
62 98 169
61 97 164
62 98 171
62 98 165
62 99 169
62 98 167
63 99 169
62 98 166
62 98 164
62 98 167
63 99 167
62 99 168
61 98 166
62 98 164
62 98 163
62 98 159
62 98 166
62 99 164
62 98 166
62 98 164
62 99 170
62 98 165
62 98 165
62 99 170
62 98 162
63 99 168
63 99 168
63 99 165
62 99 169
62 98 168
63 99 170
63 99 165
61 97 156
61 97 153
61 97 161
62 98 162
63 99 174
62 98 161
62 98 164
63 99 166
61 97 164
61 98 166
61 98 167
62 98 159
61 98 161
61 98 164
61 98 166
62 99 173
62 98 164
62 98 166
64 99 163
143 166 207
209 229 255
209 229 255
209 229 255
209 229 255
209 229 255
209 229 255
209 229 255
209 229 255
209 229 255
209 229 255
209 229 255
209 229 255
209 229 255
209 229 255
209 229 255
209 229 255
209 229 255
210 229 255
210 229 255
210 229 255
210 229 255
210 229 255
210 229 255
210 229 255
210 229 255
210 229 255
210 229 255
210 229 255
210 229 255
210 229 255
210 229 255
210 229 255
210 229 255
210 229 255
210 229 255
210 229 255
210 229 255
210 229 255
198 218 207
179 202 80
175 198 0
174 197 0
176 198 0
175 198 0
173 196 0
175 198 0
175 198 0
171 195 0
176 198 0
174 198 0
176 198 0
175 198 0
174 198 0
175 198 0
174 198 0
173 197 0
176 198 0
174 197 0
172 197 0
174 197 0
172 196 0
176 199 0
173 196 0
174 197 0
175 198 0
174 197 0
172 196 0
174 198 0
174 198 0
175 198 0
175 198 0
175 198 0
173 197 0
175 197 0
174 197 0
174 197 0
173 197 0
174 198 0
174 197 0
173 197 0
174 198 0
173 197 0
174 198 0
174 197 0
175 198 0
175 198 0
175 198 0
176 198 0
174 198 0
173 197 0
174 198 0
174 197 0
175 198 0
176 199 0
174 198 0
173 197 0
175 198 0
175 198 0
173 197 0
173 196 0
176 199 0
173 197 0
174 198 0
176 199 0
175 198 0
174 197 0
174 197 0
175 198 0
175 198 0
173 197 0
175 198 0
174 198 0
175 198 0
174 197 0
175 198 0
174 198 0
176 199 0
174 198 0
175 198 0
175 198 0
174 198 0
175 198 0
173 197 0
174 197 0
173 197 0
174 198 0
174 197 0
175 198 0
173 197 0
175 198 0
173 197 0
175 198 0
174 197 0
174 198 0
174 198 0
175 198 0
172 196 0
174 198 0
173 196 0
175 198 0
174 197 0
172 196 0
175 198 0
174 198 0
175 198 0
175 198 0
173 197 0
174 197 0
174 198 0
175 198 0
174 198 0
174 198 0
174 197 0
172 196 0
173 197 0
175 198 0
175 198 0
173 197 0
175 198 0
173 197 0
173 197 0
174 197 0
175 198 0
175 198 0
173 197 0
173 197 0
174 198 0
180 201 228
180 201 228
180 201 228
179 201 228
179 200 228
179 200 228
180 201 228
179 200 228
179 200 228
179 200 228
178 200 228
179 200 228
178 200 228
178 200 228
178 200 228
177 199 228
177 199 228
177 199 228
177 199 228
176 199 228
176 199 228
176 199 228
175 198 228
176 198 228
176 199 228
175 198 228
175 198 228
174 198 228
175 198 228
174 198 228
175 198 228
174 197 228
174 197 228
175 198 228
173 197 228
173 197 228
174 197 228
173 197 228
172 197 228
172 197 228
172 197 228
172 197 228
172 196 228
172 196 228
172 196 228
172 196 228
171 196 228
172 196 228
171 196 228
170 196 228
171 196 228
170 196 228
170 196 228
170 196 228
169 195 228
170 195 228
169 195 228
169 195 228
169 195 228
168 195 228
168 195 228
168 195 228
168 195 228
168 195 228
167 194 228
167 194 228
167 194 228
167 194 228
167 194 228
167 194 228
167 194 228
166 194 228
167 194 228
167 194 228
166 194 228
166 194 228
167 194 228
166 193 228
166 193 228
166 193 228
165 193 228
166 193 228
165 193 228
165 193 228
165 193 228
165 193 228
165 193 228
165 193 228
165 193 228
165 193 228
165 193 228
164 193 228
164 192 228
164 192 228
165 193 228
164 193 228
164 193 228
164 192 228
164 193 228
164 193 228
164 193 228
165 193 228
164 192 228
164 193 228
165 193 228
165 193 228
165 193 228
165 193 228
165 193 228
166 193 228
165 193 228
166 193 228
166 193 228
167 194 228
167 194 228
168 194 228
168 194 228
167 194 228
169 195 228
169 195 228
170 195 228
171 196 228
171 196 228
172 197 228
174 198 228
175 199 229
177 200 229
183 204 233
188 208 236
206 225 251
210 230 255
210 230 255
210 230 255
210 229 255
210 229 255
210 229 255
210 229 255
210 229 255
210 229 255
210 229 255
210 229 255
210 229 255
210 229 255
210 229 255
210 229 255
210 229 255
210 229 255
210 229 255
210 229 255
210 229 255
210 229 255
210 229 255
210 229 255
210 229 255
210 229 255
210 229 255
210 229 255
209 229 255
209 229 255
209 229 255
209 229 255
209 229 255
209 229 255
209 229 255
209 229 255
205 225 253
130 154 205
62 99 176
61 97 168
62 99 177
62 98 173
62 98 170
62 98 169
62 98 169
62 98 171
62 98 169
63 99 170
62 98 168
62 98 165
62 98 166
62 98 167
62 98 166
62 98 166
62 99 169
61 98 163
62 98 165
62 98 162
61 97 153
62 98 161
62 98 165
62 98 164
63 99 167
63 100 173
62 98 162
62 99 168
62 98 164
61 97 161
62 98 165
62 98 169
61 98 164
62 98 168
63 99 166
63 99 165
62 98 161
62 98 160
62 98 164
62 99 168
62 98 159
61 98 165
62 98 164
62 98 163
61 97 152
62 98 169
62 98 164
62 98 156
61 97 156
62 98 165
62 98 163
61 97 154
61 98 166
62 98 167
63 99 166
62 98 165
62 98 165
61 98 166
62 98 165
61 98 165
62 99 168
61 98 169
62 98 165
61 97 157
61 98 168
62 98 165
130 154 199
207 227 254
209 229 255
209 229 255
209 229 255
209 229 255
209 229 255
209 229 255
209 229 255
209 229 255
210 229 255
210 229 255
210 229 255
210 229 255
210 229 255
210 229 255
210 229 255
210 229 255
210 229 255
210 229 255
210 229 255
210 229 255
210 229 255
210 229 255
210 229 255
210 229 255
210 229 255
210 229 255
210 229 255
210 229 255
210 229 255
210 229 255
210 229 255
210 229 255
210 230 255
210 230 255
210 230 255
198 218 199
175 199 44
174 197 0
175 198 0
174 198 0
174 198 0
175 198 0
173 197 0
174 198 0
175 198 0
172 196 0
174 197 0
175 198 0
171 195 0
174 198 0
174 198 0
174 198 0
174 197 0
174 198 0
176 198 0
175 198 0
174 198 0
174 198 0
171 196 0
173 197 0
174 198 0
173 197 0
174 197 0
175 198 0
174 197 0
175 198 0
175 198 0
174 197 0
174 198 0
176 199 0
173 197 0
175 198 0
174 198 0
173 197 0
173 197 0
175 198 0
175 198 0
174 198 0
175 198 0
174 197 0
176 198 0
174 197 0
174 198 0
174 197 0
172 195 0
175 198 0
176 199 0
174 198 0
174 198 0
176 198 0
173 197 0
175 198 0
174 198 0
174 198 0
173 196 0
174 198 0
174 197 0
174 197 0
174 198 0
174 198 0
173 197 0
174 198 0
174 198 0
173 197 0
176 198 0
174 198 0
176 199 0
174 198 0
174 198 0
174 198 0
173 197 0
174 197 0
175 198 0
175 198 0
172 196 0
174 198 0
175 198 0
174 198 0
174 197 0
173 197 0
175 198 0
174 197 0
173 197 0
175 198 0
176 198 0
174 198 0
174 197 0
174 197 0
174 197 0
172 196 0
174 197 0
175 198 0
174 198 0
174 198 0
175 198 0
174 197 0
173 197 0
174 198 0
174 198 0
175 198 0
172 196 0
173 197 0
175 198 0
174 198 0
173 197 0
174 198 0
175 198 0
173 197 0
175 198 0
172 195 0
174 197 0
175 198 0
173 197 0
174 198 0
174 197 0
173 197 0
172 196 0
174 197 0
174 197 0
175 198 0
173 196 0
174 197 0
175 198 0
175 198 0
173 197 0
181 201 228
181 201 228
180 201 228
179 200 228
180 201 228
178 200 228
180 201 228
179 201 228
179 200 228
179 200 228
179 200 228
179 200 228
178 200 228
178 200 228
178 200 228
177 199 228
178 200 228
176 199 228
177 199 228
178 200 228
177 199 228
176 199 228
176 199 228
176 199 228
176 198 228
176 199 228
175 198 228
175 198 228
175 198 228
175 198 228
175 198 228
174 198 228
174 198 228
175 198 228
174 198 228
174 197 228
174 197 228
173 197 228
173 197 228
172 197 228
172 197 228
172 197 228
172 197 228
172 197 228
172 197 228
172 196 228
172 196 228
172 196 228
172 197 228
171 196 228
170 196 228
170 196 228
171 196 228
170 195 228
170 196 228
170 195 228
170 196 228
170 196 228
170 195 228
169 195 228
169 195 228
169 195 228
169 195 228
169 195 228
168 195 228
168 194 228
168 194 228
168 194 228
168 195 228
167 194 228
167 194 228
168 194 228
167 194 228
168 194 228
167 194 228
167 194 228
166 194 228
166 194 228
166 194 228
166 193 228
166 193 228
166 193 228
166 193 228
166 193 228
165 193 228
165 193 228
165 193 228
165 193 228
165 193 228
165 193 228
165 193 228
165 193 228
165 193 228
165 193 228
165 193 228
164 193 228
165 193 228
165 193 228
164 193 228
164 193 228
165 193 228
165 193 228
165 193 228
164 193 228
165 193 228
165 193 228
165 193 228
166 193 228
165 193 228
166 193 228
166 193 228
165 193 228
166 193 228
166 194 228
167 194 228
167 194 228
167 194 228
167 194 228
168 194 228
169 195 228
170 195 228
169 195 228
171 196 228
171 196 228
172 197 228
174 197 228
176 199 228
178 200 229
181 202 231
188 208 236
203 223 249
211 230 255
211 230 255
211 230 255
211 230 255
211 230 255
211 230 255
210 230 255
210 230 255
210 230 255
210 229 255
210 229 255
210 229 255
210 229 255
210 229 255
210 229 255
210 229 255
210 229 255
210 229 255
210 229 255
210 229 255
210 229 255
210 229 255
210 229 255
210 229 255
210 229 255
210 229 255
210 229 255
210 229 255
210 229 255
210 229 255
210 229 255
210 229 255
210 229 255
200 219 248
101 128 188
61 98 171
61 97 169
62 98 167
61 98 170
61 98 174
61 97 169
61 98 166
62 98 163
62 98 170
62 97 163
61 97 161
62 98 163
62 98 168
61 98 168
61 98 168
61 97 164
61 98 167
62 98 166
62 98 166
61 97 163
61 97 162
61 98 165
63 99 171
61 97 163
62 98 162
61 97 159
62 98 164
62 98 162
63 98 160
62 98 161
62 98 162
63 99 172
61 98 166
63 99 168
61 98 164
62 98 166
62 98 161
61 97 157
62 98 158
62 98 164
62 98 166
62 98 161
62 98 166
62 99 171
62 98 165
61 98 163
62 98 164
61 98 163
63 99 168
61 97 159
62 98 162
62 98 163
61 97 157
62 98 163
61 98 161
61 97 157
62 98 167
62 99 172
61 98 161
61 97 161
61 97 160
62 98 168
62 98 166
61 98 162
61 97 158
62 99 168
61 98 163
61 97 166
121 145 190
203 222 250
210 229 255
210 229 255
210 229 255
210 229 255
210 229 255
210 229 255
210 229 255
210 229 255
210 229 255
210 229 255
210 229 255
210 229 255
210 229 255
210 229 255
210 229 255
210 229 255
210 229 255
210 229 255
210 229 255
210 229 255
210 229 255
210 229 255
210 229 255
210 229 255
210 230 255
210 230 255
210 230 255
211 230 255
211 230 255
211 230 255
211 230 255
211 230 255
211 230 255
193 214 181
173 197 0
174 197 0
174 197 0
172 196 0
176 199 0
174 197 0
173 197 0
175 198 0
174 198 0
173 197 0
175 198 0
175 198 0
173 196 0
174 198 0
173 197 0
172 196 0
174 198 0
175 198 0
174 198 0
172 196 0
174 198 0
170 194 0
174 198 0
174 197 0
174 198 0
174 198 0
174 197 0
175 198 0
173 197 0
175 198 0
174 198 0
175 198 0
174 198 0
176 199 0
175 198 0
175 198 0
174 197 0
175 198 0
173 197 0
174 198 0
175 198 0
175 198 0
175 198 0
175 198 0
174 198 0
173 197 0
174 198 0
174 198 0
174 197 0
174 198 0
173 197 0
175 198 0
174 198 0
174 198 0
175 198 0
173 197 0
174 197 0
174 198 0
174 198 0
174 198 0
175 198 0
174 198 0
175 198 0
173 197 0
176 199 0
174 198 0
176 199 0
174 198 0
174 198 0
173 197 0
173 196 0
174 198 0
173 197 0
174 197 0
173 197 0
174 198 0
176 199 0
173 197 0
173 197 0
175 198 0
173 197 0
175 198 0
174 198 0
174 197 0
174 198 0
175 198 0
173 197 0
172 196 0
173 196 0
174 197 0
173 196 0
175 198 0
176 198 0
176 199 0
175 198 0
173 197 0
174 197 0
176 198 0
174 197 0
175 198 0
173 197 0
174 197 0
174 197 0
175 197 0
174 198 0
173 197 0
175 198 0
175 198 0
175 198 0
175 198 0
174 198 0
174 197 0
174 198 0
173 197 0
173 197 0
173 197 0
174 198 0
175 198 0
174 197 0
174 197 0
173 197 0
173 197 0
173 197 0
172 197 0
175 198 0
174 197 0
172 197 0
174 198 0
174 198 0
175 198 0
181 201 228
180 201 228
182 202 228
181 201 228
180 201 228
179 200 228
180 201 228
179 200 228
180 201 228
179 200 228
179 200 228
179 200 228
179 200 228
179 200 228
178 200 228
178 200 228
177 199 228
178 200 228
177 199 228
177 199 228
177 199 228
177 199 228
177 199 228
176 199 228
176 199 228
176 199 228
176 199 228
175 198 228
176 198 228
176 199 228
176 199 228
175 198 228
175 198 228
174 198 228
174 197 228
174 198 228
175 198 228
174 198 228
173 197 228
173 197 228
174 197 228
173 197 228
173 197 228
173 197 228
172 197 228
173 197 228
172 196 228
173 197 228
172 197 228
172 197 228
171 196 228
171 196 228
171 196 228
171 196 228
171 196 228
171 196 228
171 196 228
170 195 228
170 196 228
170 196 228
169 195 228
169 195 228
170 195 228
169 195 228
169 195 228
169 195 228
169 195 228
169 195 228
168 194 228
168 194 228
168 194 228
167 194 228
168 194 228
167 194 228
167 194 228
167 194 228
167 194 228
167 194 228
166 194 228
167 194 228
166 194 228
166 194 228
166 193 228
166 193 228
166 193 228
166 194 228
166 194 228
166 193 228
165 193 228
166 193 228
166 193 228
165 193 228
165 193 228
165 193 228
165 193 228
165 193 228
165 193 228
165 193 228
165 193 228
165 193 228
165 193 228
165 193 228
165 193 228
165 193 228
165 193 228
166 193 228
166 193 228
166 193 228
166 193 228
166 193 228
166 193 228
167 194 228
166 194 228
167 194 228
167 194 228
168 194 228
168 194 228
167 194 228
168 195 228
168 195 228
170 195 228
170 195 228
170 196 228
171 196 228
171 196 228
172 197 228
174 198 228
176 199 229
177 199 229
182 203 231
187 207 234
201 220 246
211 230 255
211 230 255
211 230 255
211 230 255
211 230 255
211 230 255
211 230 255
211 230 255
211 230 255
211 230 255
211 230 255
211 230 255
210 230 255
210 230 255
210 230 255
210 229 255
210 229 255
210 229 255
210 229 255
210 229 255
210 229 255
210 229 255
210 229 255
210 229 255
210 229 255
210 229 255
210 229 255
210 229 255
210 229 255
210 229 255
210 229 255
201 221 249
96 124 185
62 98 171
62 98 166
62 98 173
61 97 165
60 96 166
61 98 169
62 98 166
61 97 162
61 98 169
62 98 170
62 98 168
62 98 167
61 98 166
61 98 168
62 99 167
62 98 159
62 98 167
61 98 165
60 96 151
61 97 157
62 98 167
62 98 163
60 96 151
62 98 162
62 98 160
62 98 162
62 98 162
61 97 158
62 97 155
62 98 166
62 98 163
61 97 159
62 98 162
62 98 161
63 99 169
62 97 161
63 99 166
61 97 162
62 98 167
62 99 167
62 98 160
62 98 161
62 98 163
62 98 161
62 98 164
62 98 164
63 99 163
63 99 161
62 98 163
62 99 164
61 97 154
61 97 163
63 99 166
62 98 161
62 98 164
62 98 164
62 97 157
61 96 151
62 98 164
62 99 165
61 97 158
61 97 163
62 98 163
61 97 157
62 99 166
61 97 161
61 98 162
63 99 165
61 97 165
61 97 157
101 128 182
201 221 250
210 229 255
210 229 255
210 229 255
210 229 255
210 229 255
210 229 255
210 229 255
210 229 255
210 229 255
210 229 255
210 229 255
210 229 255
210 229 255
210 229 255
210 229 255
210 230 255
210 230 255
210 230 255
210 230 255
211 230 255
211 230 255
211 230 255
211 230 255
211 230 255
211 230 255
211 230 255
211 230 255
211 230 255
211 230 255
211 230 255
211 230 255
195 215 184
174 197 0
174 198 0
174 198 0
174 198 0
174 197 0
175 198 0
175 198 0
173 197 0
174 197 0
174 197 0
174 197 0
173 197 0
174 198 0
174 198 0
174 197 0
174 198 0
173 197 0
173 197 0
173 197 0
173 197 0
175 198 0
175 198 0
173 197 0
175 198 0
176 198 0
176 198 0
174 197 0
174 197 0
175 198 0
174 198 0
173 197 0
174 197 0
174 198 0
176 198 0
173 197 0
174 198 0
173 197 0
175 198 0
174 198 0
174 198 0
176 199 0
173 197 0
175 198 0
173 197 0
175 198 0
175 198 0
175 198 0
174 198 0
173 197 0
174 198 0
174 197 0
175 198 0
174 198 0
174 197 0
173 197 0
173 197 0
173 197 0
175 198 0
174 198 0
174 197 0
174 198 0
176 199 0
173 197 0
174 198 0
176 199 0
173 197 0
173 197 0
174 197 0
173 197 0
175 198 0
174 197 0
174 198 0
174 198 0
174 198 0
175 198 0
175 198 0
174 197 0
175 198 0
175 198 0
174 198 0
175 198 0
174 198 0
175 198 0
174 197 0
173 197 0
174 197 0
175 198 0
174 198 0
176 198 0
176 198 0
175 198 0
173 197 0
173 197 0
175 198 0
174 198 0
173 197 0
175 198 0
173 197 0
175 198 0
175 198 0
171 195 0
175 198 0
174 198 0
175 198 0
173 197 0
175 198 0
175 198 0
173 197 0
173 197 0
173 197 0
175 198 0
175 198 0
173 197 0
173 197 0
175 198 0
173 197 0
175 198 0
174 198 0
173 197 0
173 197 0
174 198 0
174 197 0
174 197 0
174 198 0
175 198 0
174 197 0
173 196 0
173 197 0
173 197 0
173 197 0
174 198 0
181 201 228
180 201 228
181 201 228
180 201 228
180 201 228
180 201 228
181 201 228
179 200 228
181 202 228
179 201 228
179 200 228
180 201 228
179 200 228
179 200 228
178 200 228
179 200 228
178 200 228
178 200 228
177 199 228
178 200 228
178 200 228
177 199 228
178 200 228
177 199 228
178 200 228
176 199 228
176 199 228
176 199 228
176 199 228
175 198 228
175 198 228
175 198 228
175 198 228
175 198 228
174 198 228
174 198 228
174 198 228
175 198 228
174 198 228
173 197 228
174 197 228
173 197 228
173 197 228
173 197 228
173 197 228
172 197 228
173 197 228
173 197 228
171 196 228
172 197 228
172 196 228
172 196 228
172 197 228
171 196 228
171 196 228
171 196 228
171 196 228
171 196 228
171 196 228
170 195 228
170 196 228
170 196 228
171 196 228
169 195 228
170 195 228
170 195 228
170 195 228
169 195 228
169 195 228
169 195 228
168 194 228
168 194 228
168 195 228
168 195 228
168 194 228
168 194 228
168 194 228
168 194 228
168 194 228
168 194 228
167 194 228
167 194 228
167 194 228
167 194 228
167 194 228
166 194 228
166 193 228
166 194 228
166 193 228
166 193 228
166 193 228
166 193 228
166 193 228
166 193 228
166 193 228
166 193 228
166 193 228
165 193 228
166 194 228
166 193 228
166 193 228
166 193 228
165 193 228
166 193 228
166 193 228
166 193 228
165 193 228
166 193 228
166 193 228
166 194 228
166 194 228
166 194 228
167 194 228
167 194 228
166 193 228
167 194 228
168 195 228
168 194 228
169 195 228
169 195 228
170 195 228
170 195 228
170 196 228
171 196 228
172 197 228
172 196 228
173 197 228
175 198 228
176 199 228
178 201 230
185 206 234
189 209 236
200 219 245
211 230 255
211 230 255
211 230 255
211 230 255
211 230 255
211 230 255
211 230 255
211 230 255
211 230 255
211 230 255
211 230 255
211 230 255
211 230 255
211 230 255
211 230 255
211 230 255
211 230 255
211 230 255
211 230 255
210 230 255
210 230 255
210 230 255
210 230 255
210 229 255
210 229 255
210 229 255
210 229 255
210 229 255
210 229 255
195 215 244
108 134 189
61 97 171
61 97 168
62 98 171
61 96 159
62 98 171
62 98 167
62 98 170
61 97 162
62 98 169
62 98 168
62 98 170
62 98 165
62 98 162
60 96 157
62 98 166
61 97 165
61 98 165
62 98 165
62 98 160
63 99 168
62 98 168
61 97 161
61 98 161
62 98 167
61 97 157
61 97 159
62 98 164
62 98 159
63 99 168
61 97 154
62 98 163
63 99 164
61 98 165
63 99 162
63 99 163
62 98 160
62 98 162
62 98 165
62 98 162
61 97 158
62 99 172
62 98 163
62 98 162
61 97 155
62 98 162
61 97 159
60 96 159
63 99 166
61 97 157
62 99 172
62 98 164
61 98 166
62 98 163
62 98 169
62 97 155
62 98 166
61 97 158
62 98 161
63 99 163
62 98 156
63 99 164
61 97 153
62 99 164
62 98 162
62 97 157
62 98 160
61 97 156
61 98 160
62 98 158
61 96 154
61 97 156
61 98 163
95 123 181
203 223 251
210 229 255
210 229 255
210 229 255
210 229 255
210 229 255
210 229 255
210 229 255
210 230 255
210 230 255
211 230 255
211 230 255
211 230 255
211 230 255
211 230 255
211 230 255
211 230 255
211 230 255
211 230 255
211 230 255
211 230 255
211 230 255
211 230 255
211 230 255
211 230 255
211 230 255
211 230 255
211 230 255
211 230 255
211 230 254
190 212 165
174 197 0
174 198 0
175 198 0
175 198 0
176 198 0
173 197 0
174 198 0
173 197 0
175 198 0
174 197 0
175 198 0
174 197 0
174 198 0
175 198 0
175 198 0
172 197 0
174 198 0
173 197 0
173 197 0
173 197 0
173 197 0
171 196 0
175 198 0
174 197 0
176 199 0
173 197 0
172 196 0
176 198 0
174 198 0
174 198 0
176 199 0
175 198 0
174 197 0
173 197 0
176 198 0
174 198 0
175 198 0
174 198 0
173 197 0
173 197 0
175 198 0
176 199 0
173 197 0
174 198 0
173 197 0
175 198 0
173 197 0
173 196 0
175 198 0
175 198 0
175 198 0
174 197 0
173 197 0
173 197 0
174 197 0
174 198 0
175 198 0
174 197 0
175 198 0
173 197 0
174 198 0
173 197 0
175 198 0
175 198 0
172 197 0
174 198 0
176 199 0
175 198 0
173 196 0
174 198 0
175 198 0
176 199 0
175 198 0
175 198 0
173 196 0
175 198 0
174 198 0
175 198 0
176 199 0
176 198 0
175 198 0
174 198 0
173 197 0
174 198 0
175 198 0
174 198 0
174 197 0
174 197 0
174 198 0
175 198 0
173 197 0
174 197 0
173 197 0
174 198 0
173 197 0
174 197 0
175 198 0
174 198 0
174 198 0
175 198 0
173 197 0
174 198 0
174 198 0
175 198 0
175 198 0
173 197 0
175 198 0
174 198 0
176 198 0
175 198 0
175 198 0
174 197 0
174 197 0
174 197 0
175 198 0
175 198 0
174 198 0
176 199 0
175 198 0
175 198 0
175 198 0
175 198 0
175 198 0
174 198 0
174 198 0
173 197 0
174 198 0
173 197 0
174 197 0
175 198 0
174 198 0
172 196 0
181 201 228
182 202 228
182 202 228
181 201 228
182 202 228
181 201 228
180 201 228
180 201 228
179 200 228
180 201 228
180 201 228
179 200 228
179 200 228
180 201 228
179 200 228
179 200 228
179 200 228
178 200 228
178 200 228
179 200 228
177 199 228
178 200 228
178 200 228
178 199 228
177 199 228
178 200 228
177 199 228
177 199 228
177 199 228
176 199 228
176 199 228
176 199 228
175 198 228
175 198 228
175 198 228
175 198 228
175 198 228
175 198 228
175 198 228
174 198 228
174 198 228
174 198 228
173 197 228
174 197 228
174 197 228
173 197 228
173 197 228
173 197 228
173 197 228
173 197 228
173 197 228
172 197 228
171 196 228
172 196 228
172 196 228
171 196 228
171 196 228
171 196 228
171 196 228
171 196 228
171 196 228
171 196 228
170 195 228
171 196 228
170 196 228
170 196 228
170 195 228
169 195 228
169 195 228
169 195 228
169 195 228
169 195 228
169 195 228
169 195 228
168 195 228
168 195 228
168 195 228
168 195 228
168 195 228
167 194 228
168 194 228
167 194 228
167 194 228
167 194 228
167 194 228
167 194 228
167 194 228
167 194 228
167 194 228
167 194 228
167 194 228
167 194 228
167 194 228
167 194 228
166 194 228
167 194 228
167 194 228
166 193 228
166 194 228
166 194 228
166 193 228
166 194 228
166 194 228
166 194 228
166 193 228
167 194 228
166 194 228
166 194 228
166 194 228
167 194 228
166 194 228
167 194 228
167 194 228
167 194 228
167 194 228
168 194 228
168 195 228
168 195 228
169 195 228
169 195 228
169 195 228
169 195 228
170 196 228
171 196 228
171 196 228
172 197 228
173 197 228
173 197 228
175 198 228
177 199 228
179 200 229
184 205 232
190 210 236
202 221 246
211 230 255
211 230 255
211 230 255
211 230 255
211 230 255
211 230 255
211 230 255
211 230 255
211 230 255
211 230 255
211 230 255
211 230 255
211 230 255
211 230 255
211 230 255
211 230 255
211 230 255
211 230 255
211 230 255
211 230 255
211 230 255
211 230 255
211 230 255
211 230 255
211 230 255
211 230 255
211 230 255
204 223 251
97 125 187
61 97 163
62 97 165
61 97 169
61 97 160
60 96 165
62 98 169
61 97 167
62 98 163
62 98 168
61 97 163
61 97 156
61 97 160
60 97 159
62 98 161
62 98 160
62 98 166
62 98 163
62 98 167
61 97 157
61 97 156
62 98 164
61 97 161
62 98 164
62 98 160
62 98 161
62 98 163
62 98 163
61 97 152
62 98 166
62 98 162
61 97 160
62 98 164
61 96 150
62 97 158
61 97 159
62 98 160
62 98 164
62 97 156
62 97 156
62 98 162
62 98 160
62 98 164
61 97 154
62 98 162
63 99 161
61 97 155
62 98 164
62 98 169
62 98 164
62 98 157
61 97 155
62 98 161
62 99 165
62 97 155
62 98 161
62 98 164
62 98 159
62 98 162
61 97 158
62 98 163
62 98 162
61 97 161
61 97 159
60 96 153
60 96 152
61 97 158
62 98 158
61 97 152
61 97 164
62 98 165
61 97 162
62 98 164
60 96 157
62 98 157
107 133 184
207 226 253
211 230 255
211 230 255
211 230 255
211 230 255
211 230 255
211 230 255
211 230 255
211 230 255
211 230 255
211 230 255
211 230 255
211 230 255
211 230 255
211 230 255
211 230 255
211 230 255
211 230 255
211 230 255
211 230 255
211 230 255
211 230 255
211 230 255
211 230 255
211 230 255
211 230 255
211 230 255
211 230 255
190 211 161
173 197 0
174 197 0
172 196 0
173 197 0
175 198 0
174 197 0
173 196 0
173 196 0
174 197 0
174 198 0
175 198 0
172 196 0
175 197 0
174 197 0
174 197 0
175 198 0
174 197 0
174 197 0
176 199 0
172 195 0
174 197 0
174 197 0
174 198 0
173 197 0
174 197 0
173 197 0
175 198 0
174 198 0
174 197 0
174 198 0
175 198 0
174 197 0
174 198 0
174 197 0
176 199 0
174 197 0
174 197 0
175 198 0
173 196 0
174 198 0
174 198 0
174 197 0
173 197 0
175 198 0
175 198 0
172 196 0
176 199 0
174 197 0
175 198 0
175 198 0
174 197 0
175 198 0
175 198 0
173 197 0
173 197 0
173 197 0
175 198 0
175 198 0
175 198 0
175 198 0
174 197 0
174 198 0
173 197 0
174 198 0
173 197 0
174 197 0
174 198 0
172 196 0
175 198 0
175 198 0
174 198 0
174 198 0
176 198 0
175 198 0
175 198 0
174 198 0
173 197 0
175 198 0
174 197 0
174 198 0
174 197 0
173 197 0
173 197 0
174 197 0
173 197 0
174 198 0
175 198 0
174 198 0
173 197 0
174 198 0
176 199 0
173 197 0
173 197 0
173 197 0
175 198 0
174 198 0
172 196 0
174 198 0
176 199 0
173 197 0
176 198 0
174 198 0
175 198 0
173 197 0
173 197 0
175 198 0
173 197 0
173 197 0
174 197 0
173 197 0
173 197 0
172 197 0
174 198 0
173 197 0
174 198 0
174 198 0
174 198 0
175 198 0
175 198 0
174 198 0
175 198 0
175 198 0
174 197 0
174 198 0
174 198 0
174 198 0
174 197 0
172 196 0
174 198 0
176 199 0
174 198 0
175 198 0
173 197 0
181 201 228
181 201 228
182 202 228
181 202 228
182 202 228
181 202 228
181 201 228
181 201 228
180 201 228
180 201 228
180 201 228
180 201 228
179 200 228
180 201 228
180 201 228
179 200 228
179 200 228
179 200 228
178 200 228
179 200 228
178 200 228
177 199 228
178 200 228
178 199 228
177 199 228
178 200 228
178 199 228
177 199 228
177 199 228
177 199 228
177 199 228
176 199 228
176 199 228
176 198 228
176 199 228
175 198 228
176 199 228
175 198 228
175 198 228
175 198 228
175 198 228
175 198 228
174 198 228
174 198 228
174 198 228
174 198 228
174 198 228
174 197 228
173 197 228
173 197 228
172 197 228
173 197 228
172 196 228
172 196 228
172 197 228
172 196 228
172 196 228
172 197 228
172 196 228
172 196 228
172 196 228
171 196 228
172 197 228
171 196 228
171 196 228
170 195 228
170 196 228
170 195 228
170 196 228
170 195 228
170 196 228
170 195 228
170 195 228
169 195 228
169 195 228
170 195 228
169 195 228
168 195 228
169 195 228
168 194 228
169 195 228
169 195 228
168 194 228
167 194 228
168 194 228
168 195 228
168 194 228
168 195 228
168 194 228
167 194 228
168 194 228
167 194 228
168 194 228
167 194 228
167 194 228
167 194 228
167 194 228
167 194 228
167 194 228
166 194 228
167 194 228
167 194 228
166 194 228
167 194 228
166 194 228
167 194 228
167 194 228
166 194 228
167 194 228
167 194 228
168 194 228
168 194 228
167 194 228
168 194 228
168 194 228
168 195 228
169 195 228
169 195 228
169 195 228
169 195 228
169 195 228
171 196 228
170 195 228
171 196 228
171 196 228
171 196 228
172 197 228
173 197 228
175 198 228
175 198 228
176 199 228
179 201 230
184 204 232
188 208 235
202 221 247
212 230 255
212 230 255
212 230 255
212 230 255
211 230 255
211 230 255
211 230 255
211 230 255
211 230 255
211 230 255
211 230 255
211 230 255
211 230 255
211 230 255
211 230 255
211 230 255
211 230 255
211 230 255
211 230 255
211 230 255
211 230 255
211 230 255
211 230 255
211 230 255
211 230 255
207 226 253
116 141 195
61 97 167
61 97 164
62 98 167
61 97 168
61 97 163
61 97 166
61 97 161
62 98 164
61 97 159
60 96 155
62 98 166
62 99 169
62 98 162
62 98 160
61 97 164
62 98 164
61 97 157
61 97 162
62 97 161
62 98 165
61 97 159
62 97 162
62 98 162
62 98 165
62 99 169
62 98 162
63 99 164
61 98 164
61 97 155
62 98 161
62 98 164
62 98 165
62 98 163
63 99 164
62 98 161
61 97 153
62 98 163
62 98 164
61 97 158
61 97 158
63 99 167
61 97 156
62 98 161
62 98 162
62 98 165
62 99 165
62 98 159
63 99 164
62 98 159
61 97 162
62 97 158
61 98 160
62 98 163
61 97 154
62 98 156
61 97 159
61 97 150
63 99 164
62 98 163
62 98 161
61 98 161
61 97 158
62 98 165
61 98 158
62 98 158
61 97 152
62 98 162
62 97 154
61 97 156
61 97 156
61 97 156
61 98 159
61 97 155
62 98 161
61 97 159
60 96 154
122 146 192
210 229 254
211 230 255
211 230 255
211 230 255
211 230 255
211 230 255
211 230 255
211 230 255
211 230 255
211 230 255
211 230 255
211 230 255
211 230 255
211 230 255
211 230 255
211 230 255
211 230 255
211 230 255
211 230 255
211 230 255
211 230 255
211 230 255
212 230 255
212 230 255
212 230 255
212 230 255
191 212 171
173 197 0
174 197 0
175 198 0
174 198 0
174 197 0
172 196 0
175 198 0
173 197 0
174 198 0
173 197 0
173 197 0
173 197 0
172 196 0
175 198 0
174 198 0
174 197 0
174 197 0
175 198 0
173 197 0
173 197 0
173 197 0
175 198 0
174 197 0
174 198 0
176 198 0
173 197 0
173 197 0
175 198 0
174 197 0
174 198 0
173 197 0
173 197 0
174 198 0
176 199 0
176 198 0
174 198 0
175 198 0
174 198 0
174 198 0
175 198 0
175 198 0
173 196 0
174 198 0
174 197 0
174 197 0
175 198 0
174 197 0
175 198 0
175 198 0
175 198 0
174 198 0
173 197 0
174 198 0
174 197 0
174 198 0
175 198 0
174 198 0
174 198 0
175 198 0
174 198 0
176 199 0
175 198 0
173 197 0
175 198 0
174 198 0
174 198 0
177 199 0
173 197 0
175 198 0
173 197 0
174 198 0
174 197 0
175 198 0
175 198 0
175 198 0
173 197 0
175 198 0
174 198 0
173 197 0
175 198 0
171 195 0
174 198 0
175 198 0
175 198 0
173 197 0
174 198 0
174 197 0
175 198 0
173 197 0
175 198 0
174 197 0
175 198 0
173 197 0
176 198 0
173 197 0
175 198 0
175 198 0
173 197 0
174 198 0
174 198 0
176 199 0
174 198 0
174 198 0
176 198 0
173 197 0
172 197 0
174 198 0
175 198 0
172 197 0
175 198 0
171 195 0
174 197 0
173 197 0
174 198 0
174 198 0
175 198 0
174 198 0
175 198 0
174 198 0
174 197 0
175 198 0
173 197 0
175 198 0
173 197 0
175 198 0
174 197 0
174 197 0
175 198 0
177 199 0
175 198 0
176 199 0
174 197 0
175 198 0
175 198 0
182 202 228
182 202 228
182 202 228
182 202 228
181 201 228
182 202 228
181 201 228
181 201 228
181 202 228
181 201 228
181 201 228
180 201 228
180 201 228
179 200 228
180 201 228
180 201 228
179 200 228
179 200 228
178 200 228
180 201 228
178 200 228
178 200 228
177 199 228
179 200 228
178 199 228
178 200 228
177 199 228
178 200 228
177 199 228
177 199 228
177 199 228
177 199 228
177 199 228
177 199 228
176 198 228
175 198 228
176 199 228
176 199 228
176 199 228
175 198 228
175 198 228
176 198 228
174 198 228
174 198 228
174 198 228
174 198 228
174 198 228
174 197 228
174 197 228
173 197 228
173 197 228
173 197 228
174 197 228
173 197 228
173 197 228
173 197 228
173 197 228
173 197 228
172 196 228
172 196 228
172 197 228
171 196 228
171 196 228
171 196 228
171 196 228
171 196 228
171 196 228
170 196 228
170 196 228
171 196 228
170 196 228
170 196 228
171 196 228
170 196 228
170 195 228
169 195 228
170 195 228
170 195 228
169 195 228
169 195 228
169 195 228
169 195 228
169 195 228
168 194 228
169 195 228
169 195 228
169 195 228
169 195 228
168 195 228
168 195 228
169 195 228
168 194 228
168 194 228
168 194 228
168 194 228
168 194 228
168 194 228
167 194 228
167 194 228
167 194 228
167 194 228
168 195 228
168 194 228
167 194 228
168 194 228
168 194 228
167 194 228
168 194 228
167 194 228
167 194 228
168 194 228
168 194 228
168 194 228
168 194 228
168 195 228
169 195 228
169 195 228
168 195 228
169 195 228
169 195 228
170 195 228
170 195 228
170 196 228
171 196 228
172 196 228
172 197 228
172 197 228
173 197 228
174 198 228
175 198 228
176 199 228
177 199 228
177 199 228
184 205 232
189 209 236
203 222 247
212 230 255
212 230 255
212 230 255
212 230 255
212 230 255
212 230 255
212 230 255
212 230 255
212 230 255
212 230 255
212 230 255
211 230 255
211 230 255
211 230 255
211 230 255
211 230 255
211 230 255
211 230 255
211 230 255
211 230 255
211 230 255
211 230 255
211 230 255
211 230 255
138 160 201
60 96 168
60 96 163
60 95 160
61 97 164
61 97 162
62 98 167
62 98 166
61 97 161
62 98 163
61 96 161
61 97 163
61 97 165
62 98 164
62 98 161
61 97 158
62 98 162
63 99 167
62 97 167
62 98 162
62 98 165
61 98 161
62 98 164
62 98 168
62 98 161
61 97 156
62 98 157
62 98 164
62 98 161
61 97 158
61 98 160
61 97 162
61 97 156
61 98 160
61 97 152
62 98 161
62 98 158
63 98 161
63 99 163
62 99 165
62 98 156
62 98 160
62 98 158
62 98 157
63 99 165
62 98 161
62 97 159
62 98 162
61 97 157
62 98 162
62 98 157
62 98 158
62 98 158
61 97 153
62 98 161
63 99 166
61 97 156
62 98 154
61 97 158
62 98 164
62 98 163
63 99 161
62 97 156
62 97 153
62 98 157
61 96 149
61 97 158
61 98 163
62 98 163
62 97 156
61 97 151
62 98 156
62 98 162
61 97 157
61 97 158
60 96 148
61 98 161
61 97 160
61 97 159
139 161 203
211 230 255
211 230 255
211 230 255
211 230 255
211 230 255
211 230 255
211 230 255
211 230 255
211 230 255
211 230 255
211 230 255
211 230 255
212 230 255
212 230 255
212 230 255
212 230 255
212 230 255
212 230 255
212 230 255
212 230 255
212 230 255
212 230 255
212 230 255
212 230 255
196 217 191
172 196 0
174 198 0
175 198 0
174 198 0
175 198 0
174 197 0
172 197 0
175 198 0
173 197 0
175 198 0
173 197 0
175 198 0
173 197 0
174 197 0
176 198 0
174 198 0
175 198 0
175 198 0
174 197 0
174 198 0
174 198 0
174 197 0
176 199 0
175 198 0
175 198 0
172 196 0
174 198 0
174 197 0
174 198 0
175 198 0
174 198 0
175 198 0
174 198 0
174 197 0
175 198 0
174 197 0
174 197 0
175 198 0
174 197 0
173 197 0
173 197 0
173 197 0
174 198 0
175 198 0
174 198 0
174 198 0
174 198 0
174 198 0
175 198 0
174 197 0
173 197 0
173 197 0
173 197 0
175 198 0
173 197 0
175 198 0
173 197 0
174 197 0
174 198 0
175 198 0
175 198 0
174 198 0
175 198 0
175 198 0
174 198 0
174 197 0
173 197 0
174 197 0
175 198 0
175 198 0
174 198 0
173 197 0
175 198 0
175 198 0
175 198 0
173 197 0
173 197 0
174 198 0
173 197 0
174 197 0
175 198 0
174 198 0
174 197 0
174 197 0
175 198 0
175 198 0
174 198 0
175 198 0
175 198 0
174 197 0
175 198 0
173 197 0
173 197 0
174 198 0
174 197 0
173 197 0
174 198 0
175 198 0
174 198 0
176 199 0
175 198 0
174 198 0
176 199 0
175 198 0
174 198 0
176 199 0
174 197 0
175 198 0
175 198 0
175 198 0
175 198 0
173 197 0
174 198 0
172 196 0
174 197 0
173 197 0
171 196 0
174 198 0
174 197 0
175 198 0
174 197 0
172 196 0
175 198 0
174 197 0
175 198 0
175 198 0
174 198 0
174 198 0
175 198 0
175 198 0
173 197 0
175 198 0
174 198 0
172 197 0
174 198 0
182 202 228
182 202 228
182 202 228
182 202 228
182 202 228
182 202 228
182 202 228
181 202 228
181 201 228
180 201 228
181 201 228
181 201 228
180 201 228
180 201 228
180 201 228
180 201 228
181 201 228
180 201 228
179 200 228
181 201 228
180 201 228
179 200 228
180 201 228
179 200 228
178 200 228
178 200 228
178 200 228
178 200 228
178 200 228
178 200 228
178 200 228
177 199 228
177 199 228
177 199 228
177 199 228
176 199 228
177 199 228
177 199 228
176 198 228
177 199 228
176 199 228
176 198 228
176 198 228
175 198 228
175 198 228
175 198 228
175 198 228
174 198 228
175 198 228
175 198 228
174 198 228
174 197 228
174 198 228
175 198 228
174 197 228
173 197 228
173 197 228
174 197 228
173 197 228
172 197 228
173 197 228
173 197 228
172 196 228
172 196 228
172 197 228
172 196 228
172 196 228
172 197 228
172 196 228
171 196 228
171 196 228
172 196 228
171 196 228
171 196 228
170 196 228
170 196 228
170 195 228
170 196 228
170 195 228
170 196 228
170 195 228
169 195 228
170 196 228
169 195 228
169 195 228
169 195 228
169 195 228
169 195 228
169 195 228
168 195 228
169 195 228
168 195 228
168 195 228
168 195 228
169 195 228
168 195 228
168 195 228
168 195 228
168 195 228
168 194 228
168 195 228
169 195 228
168 194 228
168 195 228
168 195 228
168 195 228
168 194 228
168 195 228
168 194 228
168 194 228
168 195 228
169 195 228
169 195 228
169 195 228
169 195 228
168 194 228
169 195 228
169 195 228
170 195 228
169 195 228
170 195 228
171 196 228
170 195 228
171 196 228
171 196 228
173 197 228
173 197 228
173 197 228
174 197 228
174 198 228
175 198 228
177 199 228
178 200 228
179 200 228
185 205 232
190 209 235
206 225 250
212 230 255
212 230 255
212 230 255
212 230 255
212 230 255
212 230 255
212 230 255
212 230 255
212 230 255
212 230 255
212 230 255
212 230 255
212 230 255
212 230 255
212 230 255
212 230 255
212 230 255
212 230 255
212 230 255
212 230 255
211 230 255
211 230 255
161 181 220
61 96 165
61 97 169
61 97 167
60 96 164
62 97 163
61 97 165
60 96 160
62 98 163
62 98 168
61 97 161
61 98 165
62 98 163
62 97 160
61 97 166
62 98 165
61 97 160
62 97 159
61 97 156
61 98 167
61 96 158
62 98 165
62 98 160
62 97 161
61 96 151
62 98 165
62 98 159
62 98 163
62 98 159
61 97 158
62 98 159
62 98 160
62 98 164
62 97 159
63 99 166
62 98 164
61 97 155
62 98 158
62 98 163
62 98 162
62 98 162
62 97 161
62 98 155
62 98 156
62 98 163
61 97 161
61 97 160
61 97 153
61 97 156
63 99 166
62 98 162
62 98 160
61 97 155
62 97 159
62 98 159
62 97 157
61 97 158
62 98 158
62 98 159
62 97 155
62 98 160
62 97 154
60 96 154
62 98 157
62 98 163
61 97 155
62 97 151
61 97 158
62 98 159
63 99 168
62 98 159
62 98 156
62 98 157
60 96 152
62 98 156
61 96 149
61 97 158
60 96 144
61 97 158
61 97 154
61 97 151
164 184 219
211 230 255
211 230 255
212 230 255
212 230 255
212 230 255
212 230 255
212 230 255
212 230 255
212 230 255
212 230 255
212 230 255
212 230 255
212 230 255
212 230 255
212 230 255
212 230 255
212 230 255
212 230 255
212 230 255
212 230 255
212 230 255
212 230 255
201 221 214
175 198 25
173 197 0
174 197 0
174 197 0
173 197 0
175 198 0
176 199 0
173 197 0
176 199 0
173 197 0
175 198 0
174 198 0
173 196 0
174 198 0
173 197 0
174 197 0
174 197 0
173 197 0
173 197 0
175 198 0
174 197 0
175 198 0
174 198 0
175 198 0
175 198 0
173 197 0
173 197 0
174 198 0
174 198 0
173 197 0
173 197 0
173 197 0
175 198 0
173 197 0
173 197 0
175 198 0
173 197 0
175 198 0
175 198 0
176 199 0
175 198 0
174 197 0
176 198 0
174 198 0
174 197 0
175 198 0
175 198 0
174 198 0
176 199 0
175 198 0
175 198 0
175 198 0
173 197 0
175 198 0
174 198 0
174 198 0
176 198 0
173 197 0
175 198 0
175 198 0
174 198 0
174 198 0
174 198 0
175 198 0
176 199 0
173 197 0
174 198 0
175 198 0
176 199 0
174 198 0
175 198 0
175 198 0
174 198 0
175 198 0
175 198 0
175 198 0
174 197 0
175 198 0
173 197 0
172 197 0
174 197 0
174 198 0
173 197 0
174 197 0
175 198 0
175 198 0
177 199 0
173 197 0
175 198 0
174 198 0
174 198 0
175 198 0
174 197 0
174 197 0
174 198 0
175 198 0
174 197 0
176 198 0
174 198 0
175 198 0
174 198 0
175 198 0
174 197 0
174 198 0
175 198 0
175 198 0
174 198 0
174 198 0
174 197 0
174 198 0
174 197 0
174 197 0
174 197 0
174 198 0
174 197 0
174 198 0
174 198 0
173 197 0
175 198 0
174 198 0
174 197 0
175 198 0
176 199 0
173 197 0
175 198 0
176 198 0
173 197 0
174 197 0
175 198 0
169 194 0
173 197 0
173 197 0
173 197 0
175 198 0
173 197 0
174 198 0
183 202 228
182 202 228
183 202 228
182 202 228
182 202 228
182 202 228
182 202 228
182 202 228
182 202 228
181 202 228
181 201 228
180 201 228
181 201 228
180 201 228
179 200 228
181 201 228
180 201 228
181 201 228
181 201 228
179 200 228
180 201 228
180 201 228
180 201 228
180 201 228
179 200 228
179 200 228
178 200 228
179 200 228
179 200 228
178 200 228
177 199 228
178 200 228
178 200 228
177 199 228
177 199 228
177 199 228
177 199 228
177 199 228
176 199 228
177 199 228
177 199 228
176 198 228
177 199 228
177 199 228
176 199 228
174 198 228
175 198 228
174 198 228
175 198 228
175 198 228
175 198 228
175 198 228
175 198 228
173 197 228
175 198 228
174 198 228
174 198 228
175 198 228
173 197 228
173 197 228
173 197 228
173 197 228
172 197 228
172 197 228
173 197 228
172 197 228
173 197 228
172 197 228
172 197 228
172 196 228
172 196 228
171 196 228
172 197 228
172 196 228
172 197 228
171 196 228
171 196 228
171 196 228
171 196 228
170 196 228
170 195 228
170 196 228
170 196 228
170 195 228
170 196 228
170 195 228
170 195 228
171 196 228
169 195 228
170 195 228
169 195 228
169 195 228
170 195 228
170 195 228
169 195 228
169 195 228
169 195 228
169 195 228
169 195 228
169 195 228
168 195 228
169 195 228
168 195 228
169 195 228
169 195 228
168 195 228
169 195 228
169 195 228
169 195 228
169 195 228
168 194 228
169 195 228
169 195 228
170 195 228
169 195 228
169 195 228
169 195 228
170 196 228
169 195 228
170 195 228
170 195 228
170 196 228
172 196 228
171 196 228
171 196 228
172 197 228
172 197 228
174 197 228
173 197 228
175 198 228
176 199 228
176 199 228
177 199 228
178 200 228
183 203 231
185 205 232
192 211 236
210 228 253
212 231 255
212 231 255
212 231 255
212 231 255
212 231 255
212 230 255
212 230 255
212 230 255
212 230 255
212 230 255
212 230 255
212 230 255
212 230 255
212 230 255
212 230 255
212 230 255
212 230 255
212 230 255
212 230 255
212 230 255
189 208 239
67 100 170
60 96 164
61 97 164
62 97 164
60 95 159
61 96 161
62 98 164
62 97 163
61 97 166
61 97 158
61 97 162
62 98 166
61 96 157
62 98 166
61 97 158
62 98 165
61 97 157
62 98 163
63 99 171
61 97 153
61 97 160
63 99 166
61 97 160
61 97 159
61 97 154
62 99 166
61 97 158
62 98 160
61 97 157
63 99 166
62 97 158
62 98 158
61 97 157
61 97 156
62 98 163
62 98 159
62 98 157
62 98 158
61 97 152
63 99 159
60 96 153
61 97 151
62 98 153
62 98 158
62 98 157
62 97 158
62 97 155
63 99 168
62 98 158
62 98 155
61 96 149
63 98 158
61 97 159
61 97 155
62 98 159
62 98 159
62 98 155
61 97 149
61 97 153
62 98 158
61 96 151
62 98 161
61 97 159
61 97 155
62 98 160
62 98 161
61 97 158
61 97 153
61 97 158
61 97 155
62 98 162
62 98 157
61 97 153
61 97 150
61 97 153
61 98 158
61 97 154
61 97 159
61 97 152
61 97 151
61 97 160
69 102 152
190 209 236
212 230 255
212 230 255
212 230 255
212 230 255
212 230 255
212 230 255
212 230 255
212 230 255
212 230 255
212 230 255
212 230 255
212 230 255
212 230 255
212 230 255
212 230 255
212 230 255
212 231 255
212 231 255
212 231 255
212 231 255
206 225 233
173 197 36
175 198 0
174 198 0
172 196 0
172 196 0
173 196 0
172 196 0
175 198 0
172 196 0
175 198 0
173 197 0
174 197 0
175 198 0
174 198 0
174 197 0
174 198 0
175 198 0
174 198 0
173 197 0
174 197 0
174 198 0
173 197 0
175 198 0
174 198 0
174 197 0
177 199 0
176 199 0
174 198 0
174 198 0
175 198 0
173 197 0
173 197 0
175 198 0
175 198 0
175 198 0
174 197 0
175 198 0
175 198 0
174 197 0
175 198 0
175 198 0
175 198 0
176 198 0
175 198 0
176 199 0
175 198 0
173 197 0
175 198 0
176 198 0
175 198 0
174 197 0
174 198 0
175 198 0
174 198 0
175 198 0
172 196 0
173 197 0
173 197 0
174 197 0
174 198 0
174 198 0
177 199 0
174 197 0
173 197 0
176 199 0
174 197 0
174 198 0
174 198 0
175 198 0
174 197 0
173 197 0
175 198 0
174 197 0
175 198 0
175 198 0
174 198 0
175 198 0
175 198 0
174 198 0
173 197 0
174 198 0
175 198 0
173 197 0
172 196 0
175 198 0
174 198 0
174 197 0
174 198 0
175 198 0
174 198 0
175 198 0
176 199 0
173 197 0
175 198 0
174 197 0
176 199 0
174 198 0
175 198 0
175 198 0
171 196 0
174 198 0
175 198 0
174 197 0
174 198 0
175 198 0
176 198 0
173 197 0
173 197 0
175 197 0
175 198 0
174 198 0
174 198 0
175 198 0
174 198 0
174 198 0
174 197 0
173 197 0
174 198 0
174 197 0
173 197 0
175 198 0
173 197 0
173 197 0
174 198 0
175 198 0
175 198 0
174 197 0
175 198 0
174 197 0
173 197 0
174 198 0
175 198 0
174 198 0
174 198 0
173 196 0
176 198 0
174 197 0
184 203 228
183 203 228
183 202 228
182 202 228
182 202 228
182 202 228
182 202 228
182 202 228
182 202 228
182 202 228
182 202 228
181 201 228
181 201 228
182 202 228
181 201 228
181 201 228
181 201 228
181 202 228
180 201 228
181 201 228
181 201 228
181 201 228
181 201 228
179 200 228
180 201 228
179 200 228
180 201 228
179 200 228
179 200 228
179 200 228
179 200 228
178 200 228
178 200 228
178 200 228
178 200 228
177 199 228
178 200 228
176 199 228
177 199 228
177 199 228
177 199 228
177 199 228
176 199 228
177 199 228
176 199 228
176 199 228
176 199 228
177 199 228
176 199 228
175 198 228
175 198 228
175 198 228
175 198 228
174 198 228
176 198 228
175 198 228
175 198 228
174 198 228
174 198 228
173 197 228
175 198 228
174 197 228
174 197 228
174 198 228
174 198 228
174 197 228
173 197 228
172 197 228
173 197 228
172 197 228
173 197 228
172 197 228
171 196 228
172 197 228
172 197 228
172 197 228
171 196 228
172 196 228
171 196 228
172 196 228
171 196 228
172 196 228
171 196 228
171 196 228
171 196 228
171 196 228
171 196 228
170 196 228
170 196 228
170 195 228
171 196 228
170 195 228
170 196 228
170 196 228
171 196 228
170 195 228
169 195 228
170 195 228
170 195 228
169 195 228
170 195 228
169 195 228
170 195 228
169 195 228
170 195 228
169 195 228
169 195 228
169 195 228
169 195 228
170 196 228
169 195 228
169 195 228
170 195 228
170 195 228
170 195 228
170 196 228
171 196 228
170 196 228
170 195 228
171 196 228
171 196 228
171 196 228
172 196 228
171 196 228
172 197 228
172 196 228
173 197 228
174 197 228
173 197 228
173 197 228
175 198 228
176 198 228
177 199 228
177 199 228
179 200 228
182 202 229
187 207 233
194 212 238
211 229 254
213 231 255
213 231 255
213 231 255
212 231 255
212 231 255
212 231 255
212 231 255
212 231 255
212 231 255
212 231 255
212 231 255
212 231 255
212 231 255
212 230 255
212 230 255
212 230 255
212 230 255
212 230 255
204 223 250
89 117 170
60 95 161
59 95 163
60 96 163
61 96 158
61 97 161
59 95 152
60 95 159
61 96 163
61 97 162
61 96 156
62 97 166
62 98 164
61 97 159
61 96 156
62 97 162
60 96 152
61 97 160
62 98 159
62 98 165
62 97 157
61 97 159
62 98 160
62 98 161
61 97 157
61 97 154
60 96 154
61 97 159
62 98 162
61 97 155
61 97 153
61 96 150
62 98 160
62 98 155
62 97 153
62 98 159
62 98 160
62 99 168
62 98 160
61 97 156
62 98 160
62 98 156
62 98 159
63 99 163
61 97 157
62 98 159
61 97 156
61 97 154
61 97 154
61 97 152
61 97 155
61 97 153
61 97 150
61 97 155
61 97 159
62 98 158
63 99 163
62 98 166
61 97 158
62 98 160
62 98 158
62 98 163
61 97 150
61 97 154
62 98 154
61 97 154
61 97 155
62 97 156
61 97 152
62 97 157
62 97 152
62 98 163
61 97 153
61 97 158
61 97 154
59 95 139
61 97 156
61 97 154
62 98 160
60 96 155
61 97 154
61 97 155
60 96 148
97 123 161
207 226 252
212 230 255
212 230 255
212 230 255
212 230 255
212 230 255
212 231 255
212 231 255
212 231 255
212 231 255
212 231 255
212 231 255
212 231 255
212 231 255
212 231 255
213 231 255
213 231 255
213 231 255
213 231 255
210 228 245
178 201 80
174 197 0
174 198 0
175 198 0
175 198 0
172 195 0
173 197 0
174 197 0
174 198 0
173 197 0
175 198 0
175 198 0
175 198 0
173 197 0
175 198 0
175 198 0
172 196 0
175 198 0
173 197 0
175 198 0
174 198 0
174 197 0
172 196 0
175 198 0
174 197 0
175 198 0
175 198 0
175 198 0
173 197 0
175 198 0
174 198 0
171 196 0
174 198 0
174 197 0
175 198 0
174 197 0
175 198 0
174 198 0
174 197 0
175 198 0
174 198 0
175 198 0
174 198 0
175 198 0
174 198 0
175 198 0
175 198 0
174 198 0
175 198 0
176 198 0
175 198 0
175 198 0
175 198 0
174 198 0
174 198 0
173 197 0
172 196 0
174 197 0
174 197 0
177 199 0
175 198 0
174 198 0
175 198 0
175 198 0
174 198 0
175 198 0
173 197 0
175 198 0
174 198 0
175 198 0
175 198 0
174 197 0
174 198 0
175 198 0
175 198 0
175 198 0
174 198 0
174 198 0
175 198 0
174 197 0
174 198 0
174 198 0
175 198 0
174 198 0
175 198 0
174 198 0
173 197 0
174 198 0
174 198 0
174 197 0
174 198 0
173 197 0
173 197 0
174 198 0
175 198 0
173 197 0
176 199 0
174 197 0
174 197 0
175 198 0
173 197 0
174 198 0
173 197 0
176 198 0
174 197 0
173 197 0
174 198 0
174 198 0
174 198 0
175 198 0
174 197 0
174 197 0
172 196 0
176 198 0
174 198 0
174 198 0
174 197 0
174 197 0
173 197 0
175 198 0
174 198 0
173 197 0
174 198 0
172 197 0
174 198 0
174 198 0
175 198 0
174 198 0
174 198 0
174 198 0
173 197 0
174 198 0
172 196 0
174 197 0
173 197 0
174 197 0
174 198 0
174 198 0
184 203 228
184 203 228
184 203 228
182 202 228
184 203 228
184 203 228
183 202 228
182 202 228
182 202 228
182 202 228
183 203 228
182 202 228
182 202 228
181 201 228
182 202 228
182 202 228
181 201 228
181 202 228
180 201 228
181 201 228
181 201 228
180 201 228
180 201 228
180 201 228
180 201 228
180 201 228
179 200 228
180 201 228
179 200 228
179 200 228
180 201 228
178 200 228
179 200 228
179 200 228
179 200 228
178 200 228
179 200 228
178 200 228
178 200 228
178 200 228
178 200 228
177 199 228
177 199 228
177 199 228
177 199 228
177 199 228
177 199 228
176 199 228
176 199 228
176 199 228
175 198 228
175 198 228
176 198 228
175 198 228
175 198 228
176 198 228
176 198 228
176 198 228
174 198 228
175 198 228
174 198 228
175 198 228
175 198 228
175 198 228
175 198 228
174 198 228
173 197 228
174 198 228
174 198 228
174 198 228
174 198 228
174 198 228
173 197 228
173 197 228
172 196 228
172 197 228
173 197 228
172 196 228
172 197 228
173 197 228
172 196 228
172 196 228
171 196 228
172 196 228
172 197 228
172 196 228
171 196 228
171 196 228
171 196 228
171 196 228
171 196 228
171 196 228
171 196 228
171 196 228
171 196 228
171 196 228
171 196 228
170 195 228
170 196 228
171 196 228
170 196 228
170 195 228
170 195 228
170 196 228
170 196 228
170 195 228
170 196 228
170 196 228
170 196 228
170 196 228
170 196 228
170 196 228
170 196 228
170 195 228
170 196 228
171 196 228
171 196 228
171 196 228
171 196 228
171 196 228
172 197 228
172 196 228
172 197 228
172 197 228
173 197 228
173 197 228
174 197 228
174 197 228
174 198 228
174 198 228
175 198 228
176 198 228
177 199 228
177 199 228
179 200 228
181 201 229
183 204 231
190 209 235
198 217 242
213 231 255
213 231 255
213 231 255
213 231 255
213 231 255
213 231 255
213 231 255
213 231 255
213 231 255
213 231 255
213 231 255
213 231 255
213 231 255
212 231 255
212 231 255
212 231 255
212 231 255
212 231 255
128 151 200
58 94 156
59 94 161
61 96 161
61 97 169
58 93 150
60 96 163
60 96 155
61 97 164
61 97 162
61 96 159
60 96 151
60 95 156
61 97 158
62 98 162
61 97 153
60 95 151
61 97 160
61 97 159
61 97 154
60 96 145
62 98 162
62 97 155
61 97 160
62 97 159
62 98 162
61 96 151
62 98 163
62 98 163
62 98 163
62 98 164
62 98 162
62 98 163
61 97 161
61 97 159
62 98 157
60 95 146
62 98 165
63 99 160
61 97 155
62 98 159
63 99 163
62 98 163
61 97 161
60 96 151
61 97 156
62 98 160
61 97 156
62 98 164
61 97 153
62 97 154
61 97 152
62 98 155
61 97 154
62 98 157
61 97 155
61 96 155
61 97 151
61 97 154
61 96 147
62 98 164
62 97 155
63 98 159
62 97 153
61 96 150
61 97 153
61 97 150
61 97 157
61 97 149
62 97 154
61 96 145
60 96 149
62 97 154
61 97 154
62 97 153
61 97 157
61 96 152
61 97 153
61 97 151
61 97 153
61 97 152
61 97 152
61 97 154
61 97 159
59 95 135
135 157 197
212 231 255
212 231 255
212 231 255
212 231 255
212 231 255
213 231 255
213 231 255
213 231 255
213 231 255
213 231 255
213 231 255
213 231 255
213 231 255
213 231 255
213 231 255
213 231 255
213 231 255
212 231 254
183 205 130
173 197 0
174 197 0
173 197 0
174 196 0
174 197 0
176 198 0
174 197 0
175 198 0
174 198 0
174 198 0
174 197 0
174 198 0
173 197 0
174 197 0
173 197 0
175 198 0
174 198 0
174 197 0
174 198 0
175 198 0
173 197 0
174 198 0
173 197 0
174 198 0
175 198 0
175 198 0
174 198 0
174 198 0
174 198 0
174 198 0
174 198 0
172 197 0
174 198 0
173 197 0
173 197 0
173 197 0
174 198 0
175 198 0
175 198 0
174 197 0
176 198 0
174 198 0
174 198 0
174 198 0
175 198 0
175 198 0
175 198 0
175 198 0
174 197 0
174 197 0
173 197 0
173 197 0
173 196 0
174 198 0
175 198 0
175 198 0
174 198 0
175 198 0
175 198 0
174 198 0
173 197 0
174 198 0
175 198 0
174 198 0
174 198 0
175 198 0
175 198 0
173 197 0
174 197 0
175 198 0
173 197 0
173 197 0
173 197 0
175 198 0
175 198 0
174 197 0
175 198 0
175 198 0
174 197 0
174 197 0
174 197 0
173 197 0
175 198 0
176 199 0
175 198 0
174 198 0
174 198 0
174 198 0
175 198 0
175 198 0
175 198 0
174 198 0
174 198 0
176 199 0
174 198 0
175 198 0
174 197 0
175 198 0
175 198 0
174 198 0
174 198 0
175 198 0
173 197 0
174 198 0
173 197 0
174 198 0
174 198 0
176 198 0
175 198 0
175 198 0
174 198 0
175 198 0
175 198 0
175 198 0
173 197 0
175 198 0
175 198 0
175 198 0
172 197 0
172 197 0
174 198 0
174 198 0
174 198 0
174 198 0
175 198 0
173 197 0
173 197 0
176 198 0
175 198 0
175 198 0
174 198 0
173 197 0
175 198 0
175 198 0
174 197 0
176 199 0
175 198 0
173 197 0
185 203 228
184 203 228
185 203 228
184 203 228
184 203 228
183 202 228
183 202 228
183 203 228
184 203 228
182 202 228
182 202 228
182 202 228
182 202 228
182 202 228
181 201 228
182 202 228
181 201 228
181 201 228
181 202 228
181 201 228
181 201 228
182 202 228
180 201 228
180 201 228
181 202 228
181 201 228
179 200 228
181 201 228
181 201 228
179 200 228
179 200 228
179 200 228
178 200 228
180 201 228
179 200 228
179 200 228
179 201 228
179 200 228
178 200 228
179 200 228
178 200 228
178 200 228
178 200 228
178 200 228
177 199 228
177 199 228
177 199 228
177 199 228
176 199 228
177 199 228
176 198 228
177 199 228
177 199 228
177 199 228
176 199 228
177 199 228
176 199 228
176 199 228
176 198 228
176 199 228
176 199 228
174 198 228
175 198 228
175 198 228
176 198 228
175 198 228
174 198 228
174 198 228
174 198 228
174 198 228
174 197 228
174 198 228
174 198 228
174 197 228
174 198 228
173 197 228
173 197 228
173 197 228
174 197 228
174 197 228
173 197 228
173 197 228
173 197 228
173 197 228
173 197 228
172 197 228
172 197 228
173 197 228
173 197 228
172 196 228
172 197 228
172 197 228
173 197 228
171 196 228
171 196 228
171 196 228
171 196 228
171 196 228
171 196 228
171 196 228
171 196 228
171 196 228
171 196 228
171 196 228
170 196 228
171 196 228
171 196 228
171 196 228
171 196 228
171 196 228
171 196 228
171 196 228
171 196 228
170 196 228
172 196 228
171 196 228
171 196 228
171 196 228
172 196 228
172 196 228
172 197 228
173 197 228
172 197 228
172 197 228
174 197 228
173 197 228
174 197 228
174 198 228
174 197 228
174 198 228
175 198 228
176 199 228
177 199 228
177 199 228
179 200 228
180 201 228
182 202 230
185 205 231
192 210 236
205 223 248
213 231 255
213 231 255
213 231 255
213 231 255
213 231 255
213 231 255
213 231 255
213 231 255
213 231 255
213 231 255
213 231 255
213 231 255
213 231 255
213 231 255
213 231 255
213 231 255
185 204 234
60 95 166
59 95 162
59 94 156
60 96 162
60 95 158
61 97 159
60 96 159
62 97 164
60 96 162
61 97 159
60 96 156
61 97 157
61 97 159
61 97 151
62 98 161
61 97 161
59 94 141
61 96 159
61 97 155
60 96 154
61 96 151
61 96 155
62 98 163
61 96 148
62 98 156
61 97 152
62 98 158
62 98 157
61 97 156
62 98 154
61 96 153
62 98 164
61 97 153
62 97 149
62 98 161
62 98 156
61 97 152
62 98 155
62 97 155
61 97 159
60 96 148
61 97 157
61 97 152
61 97 156
61 97 156
63 98 159
62 98 158
61 97 149
61 97 155
62 97 151
62 98 159
62 99 164
62 98 156
61 97 153
61 97 155
62 98 158
61 97 162
62 98 160
62 98 158
61 97 156
61 97 156
61 97 155
62 97 152
61 96 145
61 97 156
61 97 151
62 98 154
61 97 152
61 96 154
61 97 152
62 98 154
62 98 155
61 97 154
62 98 163
61 97 152
62 98 159
60 96 148
61 96 153
62 97 152
61 97 153
60 96 147
62 98 157
62 98 161
61 96 143
59 95 141
61 97 150
182 201 230
213 231 255
213 231 255
213 231 255
213 231 255
213 231 255
213 231 255
213 231 255
213 231 255
213 231 255
213 231 255
213 231 255
213 231 255
213 231 255
213 231 255
213 231 255
213 231 255
194 214 181
174 197 0
174 198 0
173 197 0
176 199 0
175 198 0
175 198 0
174 198 0
175 198 0
175 198 0
174 198 0
173 197 0
172 196 0
173 197 0
174 198 0
173 196 0
173 197 0
174 197 0
175 197 0
175 198 0
174 198 0
174 198 0
176 199 0
175 198 0
173 197 0
174 197 0
173 197 0
174 198 0
175 198 0
176 198 0
174 197 0
174 198 0
175 198 0
176 198 0
174 198 0
174 197 0
173 197 0
174 198 0
174 198 0
175 198 0
174 197 0
174 197 0
175 198 0
175 198 0
173 197 0
174 198 0
174 197 0
175 198 0
174 198 0
175 198 0
174 197 0
174 197 0
175 198 0
173 197 0
174 198 0
174 198 0
174 198 0
174 198 0
173 197 0
173 197 0
175 198 0
174 198 0
174 197 0
175 198 0
177 199 0
175 198 0
174 198 0
174 198 0
174 198 0
174 197 0
176 199 0
173 197 0
174 198 0
175 198 0
174 198 0
175 198 0
173 197 0
175 198 0
173 197 0
177 199 0
176 198 0
175 198 0
174 198 0
175 198 0
174 197 0
173 197 0
175 198 0
174 198 0
175 198 0
175 198 0
174 198 0
175 198 0
174 197 0
174 198 0
174 198 0
175 198 0
174 198 0
174 197 0
174 197 0
175 198 0
173 197 0
175 198 0
174 198 0
174 197 0
174 198 0
173 197 0
175 198 0
175 198 0
174 198 0
173 197 0
175 198 0
174 197 0
174 198 0
175 198 0
174 198 0
174 198 0
172 196 0
173 197 0
175 198 0
174 198 0
173 197 0
174 198 0
175 198 0
174 197 0
175 198 0
175 198 0
174 198 0
173 197 0
174 198 0
174 197 0
175 198 0
175 198 0
174 198 0
175 198 0
175 198 0
174 197 0
176 199 0
175 198 0
174 198 0
176 199 0
185 203 228
185 203 228
185 204 228
184 203 228
184 203 228
184 203 228
183 203 228
183 202 228
184 203 228
183 202 228
183 202 228
182 202 228
182 202 228
183 202 228
182 202 228
183 202 228
182 202 228
182 202 228
182 202 228
182 202 228
181 202 228
182 202 228
182 202 228
182 202 228
181 201 228
181 201 228
181 201 228
179 201 228
181 201 228
180 201 228
180 201 228
180 201 228
179 200 228
180 201 228
180 201 228
180 201 228
179 200 228
180 201 228
179 200 228
179 200 228
179 200 228
180 201 228
179 200 228
179 200 228
178 200 228
177 199 228
178 199 228
179 200 228
178 200 228
177 199 228
177 199 228
177 199 228
178 199 228
178 200 228
177 199 228
177 199 228
177 199 228
177 199 228
176 199 228
176 199 228
177 199 228
175 198 228
176 198 228
175 198 228
175 198 228
175 198 228
175 198 228
176 198 228
175 198 228
176 199 228
175 198 228
175 198 228
175 198 228
174 198 228
174 198 228
175 198 228
173 197 228
175 198 228
174 198 228
174 198 228
173 197 228
174 198 228
173 197 228
173 197 228
173 197 228
174 197 228
173 197 228
172 197 228
173 197 228
173 197 228
172 197 228
173 197 228
172 196 228
173 197 228
171 196 228
172 197 228
172 196 228
172 197 228
171 196 228
172 196 228
172 196 228
172 196 228
172 196 228
172 196 228
172 197 228
172 196 228
172 197 228
173 197 228
172 197 228
172 196 228
172 196 228
172 196 228
171 196 228
172 197 228
172 196 228
172 197 228
172 196 228
173 197 228
172 197 228
173 197 228
173 197 228
173 197 228
172 197 228
172 196 228
172 196 228
173 196 227
171 195 227
173 197 228
175 198 228
173 196 227
174 196 227
176 198 228
176 199 228
177 199 228
179 200 228
179 200 228
181 201 228
183 202 229
186 205 231
193 212 236
210 228 252
213 231 255
213 231 255
213 231 255
213 231 255
213 231 255
213 231 255
213 231 255
213 231 255
213 231 255
213 231 255
213 231 255
213 231 255
213 231 255
213 231 255
208 226 252
85 114 177
60 95 160
60 96 162
60 95 156
60 95 158
60 96 157
60 96 157
61 97 156
60 95 154
61 96 158
61 97 158
60 95 147
61 96 159
61 97 156
61 97 156
61 97 154
62 97 157
61 97 156
62 98 158
61 96 156
60 96 150
61 97 159
61 97 151
61 97 157
61 97 150
61 97 152
61 96 149
61 97 152
61 96 151
61 97 156
61 97 152
61 97 158
62 97 156
62 97 156
61 97 153
61 97 153
62 97 156
61 97 153
61 97 151
62 98 157
62 98 152
62 98 158
62 98 159
62 98 160
61 97 153
62 98 158
61 97 152
61 97 149
61 96 151
61 97 157
62 98 163
62 98 157
62 97 153
61 97 147
61 96 148
62 98 157
62 98 158
62 98 162
61 97 153
61 97 150
61 97 152
62 98 156
61 97 156
62 97 154
61 97 156
61 97 148
62 97 152
61 97 148
61 96 151
62 97 150
62 98 161
61 97 152
61 97 152
62 98 158
62 98 158
62 97 151
61 97 156
60 96 142
61 97 152
61 97 152
61 97 157
61 97 149
61 97 150
62 98 159
60 96 150
61 97 158
60 96 144
86 114 155
207 225 250
213 231 255
213 231 255
213 231 255
213 231 255
213 231 255
213 231 255
213 231 255
213 231 255
213 231 255
213 231 255
213 231 255
213 231 255
213 231 255
213 231 255
204 223 223
176 199 51
173 196 0
174 198 0
175 198 0
173 196 0
173 197 0
174 197 0
174 198 0
175 198 0
174 198 0
174 198 0
174 197 0
174 197 0
174 197 0
176 198 0
173 197 0
174 198 0
174 198 0
173 197 0
174 198 0
175 198 0
174 197 0
175 198 0
175 198 0
174 198 0
174 198 0
176 199 0
174 198 0
174 198 0
173 197 0
174 197 0
175 198 0
176 198 0
173 197 0
174 198 0
175 198 0
176 199 0
175 198 0
174 197 0
177 199 0
174 197 0
175 198 0
175 198 0
175 198 0
175 198 0
174 197 0
173 197 0
175 198 0
173 197 0
174 198 0
173 197 0
174 197 0
174 197 0
174 198 0
174 197 0
174 198 0
175 198 0
173 197 0
174 198 0
175 198 0
174 198 0
175 198 0
174 198 0
174 197 0
175 198 0
173 197 0
176 198 0
175 198 0
174 197 0
173 197 0
175 198 0
173 197 0
174 198 0
175 198 0
174 198 0
174 198 0
175 198 0
175 198 0
173 197 0
174 198 0
174 198 0
174 197 0
174 198 0
174 198 0
175 198 0
174 198 0
173 197 0
175 198 0
177 199 0
173 197 0
176 198 0
175 198 0
175 198 0
176 198 0
175 198 0
174 197 0
173 197 0
176 199 0
175 198 0
175 198 0
174 198 0
174 198 0
175 198 0
173 197 0
176 198 0
175 198 0
175 198 0
175 198 0
174 197 0
174 198 0
174 198 0
175 198 0
173 197 0
175 198 0
174 198 0
173 197 0
173 197 0
174 197 0
175 198 0
174 197 0
173 197 0
175 198 0
174 198 0
176 198 0
175 198 0
174 198 0
174 197 0
174 198 0
173 197 0
174 197 0
173 197 0
175 198 0
174 197 0
174 198 0
174 198 0
174 197 0
174 197 0
173 197 0
173 197 0
173 197 0
185 204 228
185 203 228
184 203 228
184 203 228
184 203 228
183 203 228
184 203 228
185 203 228
184 203 228
183 203 228
185 203 228
183 202 228
184 203 228
182 202 228
182 202 228
184 203 228
182 202 228
183 202 228
183 203 228
182 202 228
182 202 228
182 202 228
182 202 228
181 202 228
182 202 228
181 201 228
182 202 228
182 202 228
181 201 228
180 201 228
181 201 228
180 201 228
180 201 228
180 201 228
180 201 228
181 201 228
180 201 228
181 201 228
180 201 228
180 201 228
180 201 228
180 201 228
179 200 228
180 201 228
179 200 228
178 200 228
178 200 228
178 200 228
179 200 228
178 200 228
178 200 228
178 199 228
178 200 228
178 199 228
178 200 228
178 200 228
177 199 228
177 199 228
177 199 228
176 199 228
177 199 228
177 199 228
176 199 228
176 199 228
176 199 228
177 199 228
176 199 228
177 199 228
176 199 228
176 199 228
175 198 228
176 198 228
176 198 228
175 198 228
174 198 228
174 198 228
175 198 228
175 198 228
175 198 228
174 198 228
174 198 228
174 198 228
174 198 228
174 198 228
174 198 228
175 198 228
174 198 228
174 197 228
173 197 228
173 197 228
173 197 228
174 198 228
173 197 228
173 197 228
173 197 228
173 197 228
173 197 228
173 197 228
173 197 228
172 197 228
173 197 228
172 197 228
172 197 228
172 196 228
172 197 228
172 197 228
173 197 228
173 197 228
173 197 228
172 197 228
172 197 228
172 197 228
171 196 228
172 196 228
173 197 228
172 197 228
172 197 228
173 197 228
174 198 228
173 197 228
172 196 228
172 196 228
169 192 224
171 195 227
168 191 224
167 191 223
170 193 226
169 193 225
166 189 222
163 187 221
170 193 224
172 194 225
174 196 227
177 199 228
178 200 228
179 200 228
181 201 228
181 201 228
184 204 230
191 210 236
198 216 240
212 230 254
214 231 255
214 231 255
214 231 255
214 231 255
214 231 255
213 231 255
213 231 255
213 231 255
213 231 255
213 231 255
213 231 255
213 231 255
213 231 255
158 178 214
59 94 162
58 94 164
61 96 160
61 96 169
61 96 160
60 95 156
59 94 154
61 97 159
62 98 165
62 97 162
61 97 164
62 97 164
61 96 158
61 97 151
61 96 152
61 96 150
62 97 158
62 98 167
62 98 160
61 97 157
61 97 155
62 98 156
62 98 160
61 96 156
61 97 146
61 97 152
61 96 144
62 98 158
61 97 155
61 97 152
62 98 157
62 98 159
61 97 153
63 99 164
61 97 144
61 96 153
62 98 156
61 96 151
62 98 154
63 99 161
61 97 149
61 96 150
63 98 162
61 97 156
61 97 153
62 98 164
62 98 162
61 96 145
62 98 156
62 97 160
61 97 150
63 98 156
63 98 154
60 96 150
61 96 148
62 98 153
61 97 151
61 97 152
62 98 155
62 97 153
62 98 156
62 97 152
62 98 162
61 96 150
61 97 152
61 97 149
62 98 152
62 97 151
61 97 148
62 98 154
60 95 144
61 97 149
61 97 155
62 98 157
62 98 154
60 96 148
62 98 162
61 96 150
61 97 153
62 97 155
61 96 150
61 96 148
61 96 144
61 97 152
61 97 153
61 96 143
60 96 149
60 96 142
158 178 209
213 231 255
213 231 255
213 231 255
213 231 255
213 231 255
213 231 255
213 231 255
213 231 255
214 231 255
214 231 255
214 231 255
214 231 255
214 231 255
211 229 248
177 199 88
174 198 0
174 197 0
174 197 0
174 198 0
174 196 0
174 198 0
174 198 0
172 196 0
172 197 0
174 197 0
175 198 0
175 198 0
175 198 0
174 198 0
174 198 0
173 197 0
174 198 0
176 199 0
174 198 0
173 196 0
175 198 0
173 197 0
174 198 0
173 197 0
174 197 0
174 198 0
175 198 0
174 197 0
173 197 0
173 197 0
175 198 0
174 198 0
175 198 0
174 197 0
174 197 0
173 197 0
175 198 0
176 198 0
176 199 0
176 199 0
174 198 0
175 198 0
175 198 0
173 197 0
174 198 0
175 198 0
175 198 0
175 198 0
174 198 0
176 199 0
173 197 0
174 197 0
174 198 0
174 198 0
176 199 0
176 198 0
175 198 0
175 198 0
175 198 0
176 199 0
174 198 0
174 198 0
174 198 0
174 198 0
174 198 0
174 198 0
175 198 0
175 198 0
175 198 0
175 198 0
176 198 0
174 198 0
173 197 0
175 198 0
176 199 0
174 198 0
175 198 0
173 197 0
174 198 0
175 198 0
174 198 0
175 198 0
174 198 0
175 198 0
174 198 0
174 197 0
174 198 0
175 198 0
175 198 0
174 198 0
175 198 0
173 197 0
176 198 0
175 198 0
175 198 0
174 198 0
175 198 0
175 198 0
174 197 0
176 199 0
174 198 0
176 199 0
175 198 0
175 198 0
173 197 0
174 198 0
174 198 0
174 198 0
176 198 0
177 199 0
174 198 0
173 197 0
174 197 0
173 197 0
175 198 0
173 197 0
174 198 0
175 198 0
175 197 0
175 198 0
174 197 0
176 198 0
174 198 0
174 198 0
174 198 0
174 197 0
175 198 0
175 198 0
173 197 0
174 197 0
175 198 0
175 198 0
173 197 0
175 198 0
171 196 0
175 198 0
172 196 0
175 198 0
172 196 0
174 198 0
186 204 228
185 204 228
185 204 228
185 204 228
186 204 228
184 203 228
185 203 228
185 204 228
183 203 228
184 203 228
183 203 228
184 203 228
184 203 228
185 203 228
184 203 228
185 203 228
183 202 228
183 203 228
182 202 228
183 203 228
183 202 228
182 202 228
182 202 228
183 203 228
182 202 228
183 202 228
182 202 228
181 201 228
182 202 228
181 201 228
181 201 228
182 202 228
182 202 228
181 201 228
181 201 228
181 201 228
180 201 228
180 201 228
180 201 228
181 201 228
179 200 228
180 201 228
180 201 228
181 201 228
179 200 228
179 200 228
179 200 228
179 201 228
179 200 228
178 200 228
178 200 228
179 200 228
178 200 228
178 200 228
178 200 228
178 200 228
178 200 228
178 200 228
178 200 228
178 200 228
177 199 228
177 199 228
178 199 228
178 200 228
177 199 228
178 200 228
177 199 228
176 199 228
177 199 228
177 199 228
176 199 228
177 199 228
175 198 228
176 198 228
176 199 228
175 198 228
176 199 228
176 199 228
175 198 228
176 199 228
175 198 228
176 198 228
175 198 228
174 198 228
175 198 228
175 198 228
175 198 228
174 198 228
174 198 228
174 198 228
174 197 228
174 198 228
174 198 228
174 198 228
174 198 228
174 198 228
174 197 228
174 198 228
174 198 228
173 197 228
173 197 228
174 197 228
173 197 228
173 197 228
173 197 228
174 198 228
173 197 228
173 197 228
173 197 228
174 197 228
174 197 228
173 197 228
174 197 228
173 197 228
174 197 228
174 198 228
173 197 228
174 198 228
172 196 228
173 197 228
171 195 227
170 194 226
169 193 224
163 187 221
167 190 223
164 188 220
159 183 217
167 190 223
163 186 220
158 182 216
160 183 218
160 183 218
166 189 221
170 192 222
173 195 225
178 200 228
180 201 228
181 201 228
182 202 228
184 204 230
191 209 234
203 221 245
214 231 255
214 231 255
214 231 255
214 231 255
214 231 255
214 231 255
214 231 255
214 231 255
214 231 255
214 231 255
214 231 255
214 231 255
208 225 250
68 100 165
57 91 159
60 94 155
60 96 160
61 96 162
60 96 159
60 95 153
61 96 158
62 98 163
61 96 155
61 97 165
61 97 160
61 96 156
60 95 151
61 96 163
62 97 156
62 97 155
61 96 149
61 96 154
61 97 155
61 96 153
62 98 160
60 96 153
60 95 148
61 97 158
61 97 151
62 98 161
61 97 156
62 97 157
61 97 153
62 97 160
62 98 154
62 97 157
62 97 149
62 98 158
61 97 159
61 97 151
62 98 159
62 98 160
61 97 155
61 97 152
61 97 160
61 97 151
62 98 160
62 98 161
61 97 153
62 98 164
62 97 156
61 97 145
60 96 148
62 98 158
61 97 153
62 98 157
61 98 159
62 98 162
62 98 156
62 98 159
62 97 151
62 98 158
61 96 152
62 98 161
61 97 153
61 97 154
62 98 158
62 97 151
62 98 157
62 98 153
61 97 153
62 98 159
62 98 159
62 98 158
61 96 150
61 97 156
62 97 144
61 97 145
61 96 148
61 97 158
62 97 152
61 96 145
62 97 156
61 96 145
61 97 149
60 95 142
60 96 141
60 96 154
61 96 147
61 97 154
59 95 135
60 96 145
66 100 148
209 226 250
214 231 255
214 231 255
214 231 255
214 231 255
214 231 255
214 231 255
214 231 255
214 231 255
214 231 255
214 231 255
214 231 255
214 231 255
192 213 167
175 198 0
175 198 0
173 197 0
173 197 0
174 198 0
172 197 0
174 197 0
174 198 0
175 198 0
176 198 0
174 198 0
175 198 0
174 198 0
174 197 0
175 198 0
174 198 0
174 198 0
173 197 0
174 197 0
174 197 0
174 198 0
173 197 0
174 197 0
175 198 0
175 198 0
175 198 0
173 197 0
176 198 0
173 197 0
174 197 0
173 197 0
175 198 0
174 198 0
174 197 0
174 198 0
174 198 0
174 198 0
175 198 0
174 198 0
174 197 0
173 197 0
176 199 0
175 198 0
174 198 0
175 198 0
174 198 0
176 198 0
174 198 0
174 198 0
175 198 0
174 197 0
173 196 0
174 197 0
174 198 0
175 198 0
175 198 0
175 198 0
175 198 0
174 198 0
173 197 0
175 198 0
174 198 0
173 197 0
175 198 0
175 198 0
174 197 0
176 198 0
175 198 0
174 198 0
175 198 0
175 198 0
176 199 0
172 197 0
173 197 0
175 198 0
176 198 0
175 198 0
174 198 0
174 197 0
175 198 0
174 198 0
175 198 0
175 198 0
172 196 0
175 198 0
174 198 0
174 198 0
174 198 0
172 197 0
175 198 0
176 199 0
176 199 0
176 199 0
175 198 0
175 198 0
174 198 0
173 197 0
175 198 0
174 198 0
176 198 0
175 198 0
174 197 0
173 197 0
174 198 0
174 197 0
174 197 0
174 198 0
174 197 0
174 197 0
175 198 0
172 197 0
175 198 0
174 197 0
174 197 0
173 197 0
174 198 0
173 197 0
174 198 0
175 198 0
175 198 0
173 197 0
175 198 0
175 198 0
174 197 0
173 197 0
173 197 0
175 198 0
174 198 0
174 198 0
174 197 0
174 198 0
173 197 0
175 198 0
175 198 0
175 198 0
174 198 0
175 198 0
175 198 0
173 197 0
174 197 0
176 199 0
186 204 228
185 203 228
185 204 228
186 204 228
186 204 228
185 204 228
185 204 228
186 204 228
185 204 228
185 204 228
184 203 228
183 203 228
185 203 228
184 203 228
183 202 228
184 203 228
184 203 228
184 203 228
183 202 228
184 203 228
183 203 228
183 203 228
183 202 228
183 202 228
183 203 228
183 202 228
183 202 228
183 202 228
183 202 228
182 202 228
181 202 228
183 202 228
182 202 228
181 202 228
181 201 228
182 202 228
181 201 228
181 201 228
181 201 228
181 201 228
181 201 228
180 201 228
180 201 228
180 201 228
180 201 228
180 201 228
180 201 228
180 201 228
180 201 228
179 200 228
180 201 228
180 201 228
179 200 228
180 201 228
178 199 228
179 200 228
178 200 228
178 200 228
178 200 228
179 200 228
178 200 228
178 200 228
179 200 228
178 200 228
179 200 228
178 200 228
178 200 228
178 200 228
177 199 228
178 200 228
178 199 228
177 199 228
177 199 228
177 199 228
177 199 228
176 199 228
177 199 228
176 199 228
176 199 228
175 198 228
176 199 228
176 199 228
177 199 228
175 198 228
176 199 228
176 199 228
176 198 228
175 198 228
174 198 228
175 198 228
176 199 228
175 198 228
176 199 228
175 198 228
175 198 228
175 198 228
175 198 228
174 198 228
174 198 228
174 198 228
174 198 228
174 198 228
174 198 228
173 197 228
174 198 228
174 198 228
174 197 228
174 198 228
175 198 228
174 198 228
176 199 228
174 197 228
174 198 228
175 198 228
175 198 228
175 198 228
174 198 228
174 197 228
172 195 227
170 193 224
172 195 227
164 187 221
159 183 217
158 182 217
162 185 218
159 183 218
157 180 215
162 185 218
154 178 214
157 180 214
158 181 215
158 181 215
157 180 215
162 184 217
166 188 220
169 190 221
179 199 227
181 201 228
182 202 228
183 203 229
187 206 231
193 211 235
213 230 254
214 232 255
214 232 255
214 232 255
214 232 255
214 232 255
214 232 255
214 232 255
214 231 255
214 231 255
214 231 255
214 231 255
120 142 189
57 91 151
59 94 162
61 96 160
60 94 155
61 97 158
60 95 153
60 95 156
60 96 158
61 96 158
60 95 151
61 96 153
60 96 160
61 97 156
61 96 153
62 97 158
61 97 156
60 96 151
61 97 158
60 95 141
61 97 157
62 98 158
61 97 154
62 98 160
62 97 148
61 96 147
61 96 155
62 97 159
60 96 150
61 97 151
62 97 157
60 96 145
61 96 150
61 97 154
61 97 155
61 97 152
62 98 159
61 96 145
62 97 152
60 95 144
62 98 159
62 98 157
61 97 159
61 97 154
62 97 145
62 97 152
62 97 150
62 97 154
62 98 156
62 98 156
62 97 155
62 97 156
62 98 156
62 97 149
61 97 150
61 96 145
61 97 147
61 97 154
62 98 151
61 97 155
62 98 155
62 97 149
62 98 154
62 98 154
62 98 156
61 96 147
62 98 154
62 97 149
62 98 152
62 97 150
61 97 152
61 97 153
60 96 148
61 96 147
62 97 152
61 96 150
61 97 150
62 98 157
61 97 156
62 98 156
61 97 158
61 96 143
61 97 150
61 97 148
62 97 157
60 96 141
61 96 148
59 95 134
60 96 145
60 95 143
59 95 135
146 166 197
214 231 255
214 231 255
214 231 255
214 231 255
214 232 255
214 232 255
214 232 255
214 232 255
214 232 255
214 232 255
214 232 255
211 229 244
173 196 25
174 197 0
174 197 0
174 198 0
174 198 0
173 197 0
174 197 0
175 198 0
175 198 0
173 197 0
173 197 0
174 197 0
174 198 0
174 198 0
174 198 0
174 197 0
174 198 0
175 198 0
173 197 0
174 198 0
175 198 0
174 197 0
176 198 0
175 198 0
173 197 0
175 198 0
176 198 0
173 197 0
173 197 0
175 198 0
176 199 0
176 199 0
175 198 0
173 197 0
176 199 0
175 198 0
174 197 0
175 198 0
174 197 0
175 198 0
175 198 0
175 198 0
174 197 0
175 198 0
175 198 0
174 198 0
175 198 0
175 198 0
174 198 0
175 198 0
174 197 0
174 198 0
175 198 0
175 198 0
174 198 0
174 198 0
175 198 0
175 198 0
174 198 0
174 197 0
175 198 0
173 197 0
175 198 0
175 198 0
175 198 0
174 198 0
175 198 0
175 198 0
174 198 0
175 198 0
175 198 0
174 198 0
174 197 0
176 199 0
175 198 0
174 198 0
176 199 0
173 197 0
173 197 0
174 198 0
175 198 0
174 198 0
176 198 0
175 198 0
173 197 0
173 197 0
173 197 0
175 198 0
175 198 0
174 197 0
175 198 0
175 198 0
174 198 0
175 198 0
175 198 0
173 197 0
175 198 0
174 198 0
174 198 0
174 197 0
174 198 0
174 198 0
175 198 0
174 198 0
174 198 0
174 197 0
173 197 0
174 198 0
175 198 0
174 198 0
174 198 0
174 198 0
174 197 0
173 197 0
174 198 0
173 197 0
174 198 0
175 198 0
173 197 0
174 198 0
175 198 0
174 198 0
175 198 0
174 197 0
172 197 0
173 197 0
173 197 0
175 198 0
175 198 0
174 198 0
175 198 0
175 198 0
174 198 0
175 198 0
173 197 0
176 198 0
175 198 0
175 198 0
174 197 0
174 198 0
173 197 0
174 198 0
187 205 228
186 204 228
187 205 228
187 205 228
187 204 228
186 204 228
187 205 228
185 204 228
186 204 228
185 203 228
185 204 228
185 203 228
185 203 228
184 203 228
185 204 228
185 203 228
184 203 228
185 203 228
183 203 228
184 203 228
184 203 228
185 203 228
183 203 228
184 203 228
183 202 228
183 202 228
183 203 228
183 202 228
182 202 228
182 202 228
184 203 228
182 202 228
183 202 228
182 202 228
182 202 228
182 202 228
182 202 228
182 202 228
181 201 228
182 202 228
180 201 228
181 201 228
182 202 228
181 201 228
181 202 228
181 201 228
181 201 228
180 201 228
180 201 228
180 201 228
180 201 228
180 201 228
180 201 228
180 201 228
180 201 228
179 200 228
180 201 228
179 200 228
178 200 228
179 200 228
179 200 228
178 200 228
179 200 228
179 200 228
178 200 228
179 200 228
178 200 228
178 200 228
178 200 228
178 200 228
178 200 228
179 200 228
177 199 228
177 199 228
177 199 228
177 199 228
177 199 228
177 199 228
177 199 228
177 199 228
176 199 228
177 199 228
176 199 228
176 199 228
177 199 228
176 199 228
176 198 228
177 199 228
177 199 228
177 199 228
176 199 228
176 199 228
175 198 228
177 199 228
175 198 228
175 198 228
176 199 228
175 198 228
176 198 228
175 198 228
175 198 228
176 199 228
176 199 228
175 198 228
176 198 228
175 198 228
175 198 228
174 198 228
175 198 228
175 198 228
175 198 228
176 199 228
175 198 228
175 198 228
175 198 228
175 198 228
174 197 228
172 195 226
170 193 225
166 189 222
166 190 222
162 185 217
159 183 216
155 179 215
156 179 214
151 175 210
146 170 207
143 167 205
150 173 210
155 179 215
145 168 206
149 172 209
147 169 207
151 173 209
159 181 214
162 183 214
165 187 218
176 197 225
182 202 228
183 202 228
186 204 230
191 209 233
202 219 242
214 232 255
214 232 255
214 232 255
214 232 255
214 232 255
214 232 255
214 232 255
214 232 255
214 232 255
214 232 255
196 214 242
65 98 165
60 95 161
59 94 158
59 94 148
60 95 157
60 95 155
59 95 154
61 96 160
60 95 155
59 95 147
61 96 152
61 96 149
60 96 157
60 96 152
60 95 153
60 96 149
62 97 155
62 97 162
62 97 162
61 97 154
61 97 157
61 97 161
62 98 159
61 97 157
61 97 159
61 96 154
61 97 156
62 98 160
62 97 149
62 98 162
61 97 159
62 98 158
61 97 156
61 96 155
60 96 152
61 96 143
62 97 154
62 98 155
61 96 141
62 98 155
62 98 157
62 97 153
61 96 152
61 97 156
61 97 150
62 98 158
61 96 148
62 98 151
61 96 145
62 97 153
63 98 157
61 97 156
61 97 153
62 98 157
62 98 158
61 97 154
62 97 152
62 98 158
62 97 161
61 97 150
61 97 152
61 97 151
61 97 153
62 97 156
61 97 149
61 97 149
61 97 150
61 96 148
60 96 141
61 96 145
61 97 154
61 97 152
61 97 148
61 96 145
62 97 154
62 97 158
62 97 150
61 96 147
60 96 143
61 96 144
61 97 151
62 97 157
61 97 154
61 97 152
61 96 141
61 96 145
61 97 149
60 95 143
60 95 133
60 95 143
60 95 136
69 102 141
199 217 242
214 232 255
214 232 255
214 232 255
214 232 255
214 232 255
214 232 255
214 232 255
214 232 255
214 232 255
213 231 252
177 200 102
173 197 0
172 196 0
174 197 0
172 196 0
174 198 0
173 197 0
176 198 0
174 198 0
173 197 0
172 196 0
175 198 0
175 198 0
173 197 0
174 198 0
175 198 0
173 197 0
173 197 0
175 198 0
174 197 0
175 198 0
174 198 0
174 198 0
174 197 0
174 198 0
174 198 0
176 199 0
175 198 0
174 197 0
174 198 0
175 198 0
174 198 0
175 198 0
177 199 0
176 198 0
173 197 0
174 197 0
175 198 0
175 198 0
175 198 0
174 198 0
174 198 0
173 197 0
175 198 0
176 199 0
176 199 0
174 198 0
176 199 0
176 199 0
175 198 0
175 198 0
176 199 0
174 197 0
175 198 0
175 198 0
175 198 0
174 198 0
175 198 0
174 197 0
175 198 0
174 198 0
174 197 0
176 198 0
177 199 0
175 198 0
176 199 0
173 197 0
175 198 0
175 198 0
175 198 0
176 199 0
176 199 0
173 197 0
174 198 0
175 198 0
174 198 0
174 198 0
173 197 0
175 198 0
174 197 0
174 198 0
175 198 0
175 198 0
174 198 0
174 198 0
174 198 0
173 197 0
174 197 0
175 198 0
175 198 0
174 197 0
176 198 0
175 198 0
175 198 0
175 198 0
174 198 0
173 197 0
175 198 0
174 198 0
173 197 0
174 198 0
175 198 0
174 198 0
174 198 0
174 198 0
173 197 0
175 198 0
175 198 0
175 198 0
175 198 0
175 198 0
173 197 0
175 198 0
175 198 0
175 198 0
174 198 0
174 198 0
177 199 0
174 197 0
174 197 0
174 198 0
175 198 0
175 198 0
175 198 0
175 198 0
175 198 0
175 198 0
175 198 0
175 198 0
174 198 0
173 197 0
175 198 0
174 198 0
174 197 0
174 198 0
173 197 0
174 198 0
176 198 0
175 198 0
174 198 0
174 198 0
175 198 0
175 198 0
187 204 228
186 204 228
187 205 228
186 204 228
186 204 228
186 204 228
186 204 228
186 204 228
185 204 228
185 204 228
186 204 228
184 203 228
186 204 228
185 204 228
185 204 228
185 204 228
185 204 228
185 204 228
184 203 228
185 203 228
185 203 228
185 203 228
184 203 228
184 203 228
184 203 228
184 203 228
184 203 228
184 203 228
184 203 228
183 202 228
183 202 228
183 202 228
183 202 228
184 203 228
182 202 228
183 202 228
183 203 228
183 202 228
182 202 228
183 202 228
183 202 228
182 202 228
182 202 228
182 202 228
182 202 228
182 202 228
181 201 228
181 201 228
181 201 228
181 201 228
182 202 228
180 201 228
181 201 228
180 201 228
181 201 228
181 201 228
180 201 228
180 201 228
180 201 228
180 201 228
179 200 228
180 201 228
179 200 228
179 200 228
179 200 228
179 200 228
179 200 228
179 200 228
179 200 228
179 200 228
179 200 228
179 200 228
178 200 228
179 201 228
178 200 228
178 200 228
178 200 228
178 200 228
178 200 228
177 199 228
178 200 228
178 200 228
177 199 228
178 200 228
178 199 228
178 200 228
177 199 228
177 199 228
177 199 228
178 200 228
177 199 228
176 199 228
176 199 228
176 199 228
176 199 228
177 199 228
176 199 228
176 198 228
175 198 228
176 199 228
177 199 228
176 199 228
176 199 228
176 199 228
175 198 228
176 199 228
176 199 228
176 199 228
176 199 228
176 199 228
176 199 228
176 199 228
176 199 228
175 198 228
176 198 228
175 197 227
174 196 227
171 194 226
164 187 220
166 189 220
156 179 213
155 179 215
157 180 214
150 173 210
146 169 204
151 175 210
140 164 201
142 166 206
138 162 199
143 166 204
136 159 200
139 162 201
137 160 200
153 175 210
143 165 202
154 175 211
157 178 211
164 185 216
172 191 220
181 201 227
184 203 229
187 205 230
194 212 235
211 229 252
215 232 255
215 232 255
215 232 255
215 232 255
215 232 255
215 232 255
215 232 255
215 232 255
215 232 255
144 164 203
59 94 161
58 92 152
59 93 150
61 96 157
59 94 153
59 93 149
60 95 158
60 95 151
61 96 159
60 95 153
60 95 147
61 96 156
61 96 156
60 95 148
62 98 163
60 95 151
62 97 160
60 95 146
61 97 158
60 96 154
61 97 152
61 96 152
60 95 146
61 97 155
61 96 151
60 95 139
61 97 153
60 96 151
60 96 144
61 96 151
61 96 143
60 96 156
61 96 153
62 97 155
61 97 154
62 97 154
62 98 158
61 96 150
61 97 148
63 98 158
62 98 159
61 97 149
61 97 148
62 98 158
62 97 155
62 98 153
60 95 147
62 98 156
61 97 151
62 97 153
61 97 155
61 97 147
61 97 155
62 97 152
60 95 149
62 97 151
62 98 154
62 97 152
60 96 143
62 98 154
61 97 148
60 96 150
61 96 148
61 97 150
62 98 157
62 98 157
61 96 143
60 96 139
61 97 153
61 97 150
61 96 143
61 97 145
61 97 151
60 96 136
61 96 144
62 97 154
61 97 148
61 97 149
60 96 149
60 96 145
61 97 154
61 96 142
61 97 150
61 97 148
60 95 139
62 97 149
61 96 151
60 96 140
61 97 150
59 95 130
59 94 133
59 95 143
140 161 188
215 232 255
215 232 255
215 232 255
215 232 255
215 232 255
215 232 255
215 232 255
215 232 255
215 232 255
200 219 203
173 197 0
171 195 0
173 197 0
174 197 0
175 198 0
174 197 0
174 197 0
174 197 0
174 198 0
174 197 0
174 197 0
174 197 0
173 197 0
174 197 0
176 198 0
176 199 0
174 198 0
174 197 0
174 197 0
175 198 0
175 198 0
175 198 0
174 198 0
174 197 0
174 198 0
174 198 0
173 197 0
174 197 0
174 198 0
176 198 0
174 198 0
174 198 0
174 198 0
172 197 0
175 198 0
174 198 0
173 197 0
176 199 0
174 198 0
175 198 0
174 197 0
175 198 0
174 198 0
173 197 0
175 198 0
174 198 0
174 198 0
176 199 0
175 198 0
174 197 0
175 198 0
174 198 0
175 198 0
174 198 0
174 198 0
173 197 0
174 198 0
175 198 0
174 198 0
175 198 0
174 198 0
174 197 0
175 198 0
175 198 0
174 198 0
173 197 0
176 198 0
174 198 0
175 198 0
174 198 0
173 197 0
174 198 0
175 198 0
176 198 0
175 198 0
176 198 0
175 198 0
175 198 0
175 198 0
175 198 0
174 198 0
175 198 0
175 198 0
175 198 0
172 197 0
174 197 0
176 199 0
174 198 0
174 198 0
176 199 0
175 198 0
172 197 0
176 199 0
174 198 0
175 198 0
174 198 0
175 198 0
174 198 0
176 199 0
174 198 0
173 197 0
174 198 0
176 199 0
175 198 0
174 198 0
175 198 0
174 198 0
174 198 0
175 198 0
173 197 0
175 198 0
174 197 0
175 198 0
175 198 0
175 198 0
175 198 0
174 197 0
175 198 0
174 198 0
172 197 0
174 197 0
173 197 0
175 198 0
174 197 0
175 198 0
175 198 0
176 199 0
174 197 0
174 198 0
173 197 0
176 199 0
176 199 0
175 198 0
174 198 0
174 198 0
173 197 0
173 197 0
175 198 0
175 198 0
176 198 0
174 198 0
175 198 0
174 198 0
187 204 228
187 205 228
186 204 228
188 205 228
187 205 228
187 204 228
186 204 228
186 204 228
186 204 228
186 204 228
186 204 228
186 204 228
185 204 228
186 204 228
186 204 228
186 204 228
185 204 228
186 204 228
186 204 228
185 204 228
185 203 228
185 204 228
184 203 228
185 203 228
185 203 228
184 203 228
183 203 228
184 203 228
185 204 228
185 204 228
184 203 228
184 203 228
184 203 228
184 203 228
184 203 228
183 203 228
184 203 228
183 202 228
183 202 228
184 203 228
183 202 228
183 202 228
182 202 228
182 202 228
182 202 228
183 202 228
182 202 228
181 201 228
182 202 228
183 202 228
182 202 228
182 202 228
182 202 228
182 202 228
180 201 228
181 201 228
181 201 228
181 201 228
180 201 228
181 201 228
180 201 228
181 202 228
180 201 228
180 201 228
180 201 228
180 201 228
181 201 228
179 200 228
179 200 228
180 201 228
180 201 228
180 201 228
178 200 228
179 200 228
179 200 228
179 200 228
179 200 228
179 200 228
179 200 228
180 201 228
178 200 228
179 200 228
179 200 228
178 200 228
179 200 228
177 199 228
178 200 228
177 199 228
178 200 228
178 200 228
179 200 228
177 199 228
177 199 228
178 200 228
178 200 228
177 199 228
177 199 228
177 199 228
176 199 228
177 199 228
177 199 228
177 199 228
177 199 228
177 199 228
177 199 228
177 199 228
177 199 228
176 199 228
177 199 228
178 200 228
176 199 228
177 199 228
177 199 228
176 199 228
177 199 228
172 195 225
169 192 223
169 192 223
162 185 218
160 183 217
157 180 213
147 171 207
150 173 208
150 173 209
144 167 206
135 159 198
136 159 198
134 157 197
133 156 195
135 158 197
130 153 194
130 153 194
134 157 194
126 148 190
139 161 198
130 152 193
152 173 208
153 174 208
164 185 216
172 191 220
183 203 228
186 204 229
191 209 232
198 215 239
215 232 255
215 232 255
215 232 255
215 232 255
215 232 255
215 232 255
215 232 255
215 232 255
206 223 248
56 90 155
58 92 153
58 92 157
59 94 152
61 96 161
60 95 157
61 96 161
60 94 150
60 95 151
61 96 155
60 95 154
60 95 151
61 97 158
60 95 148
60 95 150
60 95 151
60 96 149
60 95 152
60 96 155
62 98 157
61 96 148
62 97 156
61 96 151
61 96 147
60 95 138
60 96 149
61 96 151
61 97 151
61 97 149
63 98 157
62 97 151
62 97 153
62 97 153
61 96 149
61 96 147
61 96 149
61 97 148
62 97 146
61 96 146
62 97 149
60 95 139
61 96 144
61 97 151
60 96 148
60 95 145
61 97 151
62 97 155
60 95 137
62 97 152
60 96 144
60 95 145
61 96 145
60 95 139
62 98 151
62 98 158
61 96 142
62 98 162
61 96 149
61 97 155
62 97 158
62 98 155
62 97 151
61 96 147
61 96 151
62 98 160
61 96 148
62 97 155
62 98 156
61 96 151
61 97 151
60 96 149
61 97 147
61 97 149
61 96 149
61 96 145
61 96 148
61 96 141
61 97 143
60 95 140
61 97 153
61 97 148
62 98 157
60 96 141
61 96 150
61 97 147
61 97 149
60 96 147
61 97 148
60 95 137
60 95 140
60 96 141
60 95 136
60 95 134
64 96 128
209 226 249
215 232 255
215 232 255
215 232 255
215 232 255
215 232 255
215 232 255
215 232 255
215 232 254
178 200 76
173 197 0
173 196 0
172 196 0
174 198 0
175 198 0
174 198 0
173 197 0
173 197 0
175 198 0
174 198 0
172 197 0
174 198 0
175 198 0
174 198 0
172 197 0
175 198 0
175 198 0
174 198 0
177 199 0
173 197 0
175 198 0
175 198 0
174 197 0
174 198 0
174 198 0
173 197 0
174 197 0
175 198 0
174 198 0
174 198 0
175 198 0
174 198 0
173 197 0
175 198 0
173 197 0
175 198 0
174 198 0
173 197 0
175 198 0
174 198 0
175 198 0
175 198 0
175 198 0
176 198 0
176 199 0
175 198 0
174 198 0
175 198 0
174 198 0
173 197 0
173 197 0
172 197 0
174 198 0
175 198 0
174 198 0
173 197 0
175 198 0
176 199 51
181 203 84
182 204 95
188 208 128
191 210 135
194 213 155
199 217 169
199 217 169
203 220 186
205 221 193
209 225 206
213 228 218
208 224 203
213 228 220
212 227 215
213 228 221
218 232 233
216 230 228
217 231 230
221 234 241
219 233 236
220 233 240
223 236 249
221 234 241
218 232 234
218 232 233
220 233 238
223 235 246
220 234 241
216 231 228
217 231 228
212 227 215
215 230 226
213 228 217
210 226 211
210 225 207
212 227 215
210 225 209
206 222 191
205 222 193
205 221 193
196 215 163
197 215 165
200 218 175
190 210 133
189 209 128
184 205 108
181 203 99
180 202 72
177 200 57
175 198 25
174 198 0
174 197 0
174 198 0
173 197 0
175 198 0
175 198 0
174 198 0
175 198 0
174 198 0
174 197 0
175 198 0
177 199 0
174 198 0
174 198 0
174 198 0
175 198 0
173 197 0
176 199 0
174 198 0
174 198 0
175 198 0
174 197 0
175 198 0
174 198 0
175 198 0
175 198 0
173 197 0
176 199 0
175 198 0
174 198 0
175 198 0
174 197 0
173 197 0
175 198 0
174 198 0
187 204 228
187 204 228
188 205 228
188 205 228
188 205 228
188 205 228
187 204 228
186 204 228
187 204 228
187 205 228
187 205 228
186 204 228
186 204 228
186 204 228
186 204 228
187 205 228
186 204 228
186 204 228
186 204 228
185 203 228
185 204 228
185 203 228
186 204 228
185 204 228
185 204 228
185 204 228
185 204 228
184 203 228
185 203 228
185 203 228
184 203 228
184 203 228
185 204 228
184 203 228
185 203 228
184 203 228
183 202 228
184 203 228
184 203 228
184 203 228
183 202 228
183 202 228
183 203 228
182 202 228
184 203 228
183 203 228
183 202 228
182 202 228
183 202 228
183 202 228
183 202 228
182 202 228
182 202 228
182 202 228
182 202 228
182 202 228
182 202 228
181 201 228
181 202 228
181 201 228
182 202 228
181 201 228
182 202 228
181 201 228
181 202 228
181 201 228
181 201 228
181 201 228
180 201 228
181 201 228
180 201 228
182 202 228
180 201 228
180 201 228
180 201 228
180 201 228
180 201 228
180 201 228
180 201 228
180 201 228
180 201 228
179 200 228
180 201 228
180 201 228
179 200 228
179 200 228
179 200 228
179 200 228
180 201 228
179 200 228
179 200 228
178 200 228
178 200 228
178 200 228
179 200 228
179 200 228
178 200 228
179 200 228
178 200 228
179 200 228
178 200 228
178 200 228
178 200 228
178 200 228
178 200 228
178 200 228
178 200 228
177 199 228
177 199 228
178 200 228
179 200 228
179 200 228
177 199 228
177 199 228
175 197 227
172 195 226
171 193 224
162 184 218
167 189 221
158 180 214
156 179 213
158 181 215
152 175 209
143 166 204
138 161 198
131 155 195
134 157 197
134 157 197
133 156 193
130 153 193
136 159 198
119 142 186
117 141 186
130 153 194
129 151 192
134 156 196
139 160 196
144 165 202
157 178 211
161 181 213
172 192 221
184 202 227
188 206 230
192 209 233
210 227 250
215 232 255
215 232 255
215 232 255
215 232 255
215 232 255
215 232 255
215 232 255
161 180 215
58 92 156
57 91 153
58 93 147
58 92 148
58 93 150
58 93 149
61 96 156
60 94 151
59 94 142
60 94 152
61 96 154
60 95 153
59 94 148
60 95 152
60 95 145
62 98 161
61 97 156
62 97 152
60 95 145
60 95 148
60 96 146
60 95 150
61 96 150
61 96 150
61 96 149
61 96 146
61 96 143
62 98 162
62 97 151
61 97 152
59 94 136
61 96 151
60 95 144
62 97 153
61 96 144
62 98 160
61 97 151
62 97 147
61 96 149
61 96 142
62 97 150
61 97 146
62 97 149
62 97 150
62 97 152
61 97 151
61 97 151
61 97 152
61 96 141
62 98 157
61 97 153
61 97 143
61 96 148
61 96 148
61 97 145
61 96 145
62 97 150
62 97 156
62 97 154
61 97 148
62 97 149
62 98 154
61 96 143
62 97 147
62 97 147
62 97 158
62 97 156
61 96 148
62 98 154
61 97 148
61 97 153
61 96 149
60 95 145
61 97 152
61 96 143
62 98 156
61 97 153
60 95 136
61 97 149
61 97 154
62 98 154
60 96 142
61 96 147
61 97 149
61 97 159
60 95 141
59 95 137
59 94 135
61 96 136
60 96 140
61 96 147
61 96 139
60 95 141
59 94 126
159 179 206
215 232 255
215 232 255
215 232 255
215 232 255
215 232 255
215 232 255
215 232 255
194 213 184
172 195 0
173 196 0
175 198 0
175 198 0
172 197 0
173 197 0
174 197 0
175 197 0
174 197 0
174 198 0
174 198 0
174 197 0
176 199 0
175 198 0
175 198 0
173 197 0
175 198 0
173 197 0
173 197 0
173 197 0
174 197 0
173 197 0
175 198 0
176 199 0
176 199 0
176 198 0
173 197 0
175 198 0
174 198 0
176 198 0
173 197 0
175 198 0
173 197 0
174 198 0
175 198 0
175 198 0
176 198 0
175 198 0
176 199 0
175 198 0
174 198 0
176 199 0
174 197 0
174 197 0
177 199 0
174 198 0
175 198 0
176 199 0
180 202 76
184 205 102
194 212 149
193 212 149
202 219 184
204 220 186
211 226 212
215 230 224
219 233 237
223 236 248
226 238 255
226 238 255
226 238 255
226 238 255
226 238 255
225 238 255
225 238 255
225 238 255
225 238 255
225 238 255
225 238 255
225 238 255
225 238 255
225 238 255
225 238 255
225 238 255
225 238 255
225 238 255
225 238 255
225 238 255
225 238 255
225 238 255
225 238 255
225 238 255
225 238 255
225 238 255
225 238 255
225 238 255
225 238 255
225 238 255
225 238 255
225 238 255
225 238 255
225 238 255
225 238 255
225 238 255
225 238 255
225 238 255
225 238 255
225 238 255
225 238 255
225 238 255
225 238 255
225 238 255
225 238 255
225 238 255
225 238 255
225 238 255
225 238 255
225 238 255
225 238 255
224 237 250
222 235 246
220 233 238
216 230 226
214 229 221
208 224 203
204 221 191
201 218 175
196 214 155
192 211 140
189 209 133
186 207 120
179 202 80
176 199 36
174 198 0
174 198 0
175 198 0
173 197 0
174 198 0
175 198 0
175 198 0
174 197 0
174 198 0
175 198 0
174 198 0
174 198 0
174 197 0
176 198 0
175 198 0
174 198 0
175 198 0
175 198 0
174 197 0
174 198 0
174 197 0
188 205 228
189 206 228
188 205 228
188 205 228
187 205 228
189 206 228
187 205 228
187 205 228
188 205 228
187 205 228
186 204 228
187 205 228
187 205 228
187 205 228
187 205 228
187 205 228
186 204 228
186 204 228
185 204 228
185 204 228
187 205 228
185 204 228
185 203 228
186 204 228
186 204 228
187 205 228
185 204 228
186 204 228
185 203 228
185 204 228
185 203 228
185 204 228
185 204 228
184 203 228
184 203 228
184 203 228
184 203 228
184 203 228
185 204 228
185 204 228
184 203 228
184 203 228
183 202 228
184 203 228
183 203 228
183 203 228
184 203 228
183 203 228
184 203 228
184 203 228
183 203 228
183 202 228
183 202 228
184 203 228
183 203 228
183 202 228
182 202 228
183 203 228
183 202 228
182 202 228
181 201 228
182 202 228
182 202 228
182 202 228
182 202 228
182 202 228
182 202 228
182 202 228
182 202 228
180 201 228
182 202 228
181 201 228
182 202 228
181 202 228
181 202 228
181 201 228
181 201 228
181 202 228
181 201 228
180 201 228
181 201 228
181 201 228
180 201 228
180 201 228
180 201 228
180 201 228
180 201 228
179 200 228
179 200 228
179 200 228
180 201 228
179 200 228
180 201 228
179 200 228
180 201 228
180 201 228
179 200 228
180 201 228
178 200 228
179 200 228
179 200 228
179 200 228
179 200 228
179 200 228
179 200 228
178 200 228
179 200 228
178 200 228
179 200 228
179 201 228
179 200 228
179 200 228
178 200 228
174 196 226
175 197 226
171 193 223
165 187 219
160 182 213
162 184 215
158 181 214
158 180 214
145 168 203
131 154 191
140 162 198
127 150 191
128 152 194
124 148 193
131 154 196
118 142 186
112 136 180
114 138 182
112 136 182
125 147 189
120 143 186
116 139 184
129 151 194
131 152 193
135 157 197
138 160 199
148 168 203
158 177 209
170 189 217
184 203 228
191 208 232
200 217 240
215 232 255
216 232 255
216 232 255
216 232 255
216 232 255
216 232 255
211 228 252
78 106 165
59 94 162
59 94 154
58 92 144
59 94 150
60 95 157
60 95 147
60 94 150
61 96 157
59 94 148
60 95 148
61 97 153
61 96 157
60 95 153
60 96 153
61 97 156
61 97 154
60 96 142
59 94 146
61 96 146
61 97 152
61 97 157
61 96 149
62 98 158
62 98 158
60 95 145
62 98 155
62 98 155
60 95 144
59 95 140
61 96 144
62 97 155
60 96 145
61 97 158
60 95 148
62 97 154
61 97 154
62 97 151
62 98 156
61 96 151
60 95 147
61 97 151
62 98 161
63 98 155
60 96 149
61 97 152
60 96 144
61 97 155
62 97 151
61 96 145
61 97 148
61 96 149
61 97 154
61 96 145
63 98 160
61 96 150
61 97 149
61 97 154
62 97 148
61 96 150
61 96 145
61 97 150
62 98 154
62 97 147
62 97 153
60 96 143
61 96 149
62 97 152
60 95 137
60 95 139
62 97 153
62 97 151
62 97 149
61 97 144
62 98 153
62 98 153
60 96 141
61 97 150
61 97 151
62 97 155
62 98 159
62 97 149
62 97 143
61 96 150
60 95 142
61 96 141
60 95 137
60 96 143
60 95 137
60 96 142
60 96 139
60 96 142
59 94 141
60 95 136
59 94 134
83 112 149
211 228 251
215 232 255
215 232 255
216 232 255
216 232 255
216 232 255
216 232 255
179 202 88
171 196 0
174 198 0
172 196 0
173 197 0
175 198 0
174 197 0
174 197 0
174 197 0
174 198 0
173 197 0
174 197 0
175 198 0
174 197 0
173 197 0
173 197 0
173 197 0
173 197 0
175 198 0
174 198 0
174 198 0
174 198 0
174 197 0
175 198 0
174 198 0
173 197 0
176 198 0
175 198 0
173 197 0
173 197 0
175 198 0
175 198 0
174 197 0
175 198 0
175 198 0
174 197 0
174 198 0
176 198 0
174 198 0
176 198 0
174 197 0
175 198 0
181 203 80
186 206 111
194 213 155
206 222 194
211 226 209
215 229 224
221 235 244
226 238 255
226 238 255
226 238 255
226 238 255
225 238 255
225 238 255
225 238 255
225 238 255
225 238 255
225 238 255
225 238 255
225 238 255
225 238 255
225 238 255
225 238 255
225 238 255
225 238 255
225 238 255
225 238 255
225 238 255
225 238 255
225 238 255
225 238 255
225 238 255
225 238 255
225 238 255
225 238 255
225 238 255
225 238 255
225 238 255
225 238 255
225 238 255
225 238 255
225 238 255
225 238 255
225 238 255
225 238 255
225 238 255
225 238 255
225 238 255
225 238 255
225 238 255
225 238 255
225 238 255
225 238 255
225 238 255
225 238 255
225 238 255
225 238 255
225 238 255
225 238 255
225 238 255
225 238 255
225 238 255
225 238 255
225 238 255
225 238 255
225 238 255
225 238 255
225 238 255
225 238 255
225 238 255
225 238 255
225 238 255
225 238 255
225 238 255
225 238 255
225 238 255
225 238 255
225 238 255
225 238 255
225 238 255
225 238 255
225 238 255
225 237 254
223 236 248
219 233 237
214 229 223
208 224 203
208 224 201
202 219 182
194 213 153
193 212 142
188 209 133
186 206 108
178 201 67
173 197 0
176 198 0
175 198 0
175 198 0
176 199 0
174 197 0
174 198 0
175 198 0
175 198 0
175 198 0
189 206 228
187 205 228
188 205 228
189 205 228
188 205 228
187 205 228
190 206 228
188 205 228
188 205 228
187 205 228
187 205 228
187 205 228
187 205 228
187 205 228
187 205 228
187 205 228
187 205 228
187 204 228
187 204 228
186 204 228
188 205 228
186 204 228
187 205 228
187 205 228
186 204 228
186 204 228
186 204 228
186 204 228
186 204 228
185 204 228
185 204 228
186 204 228
186 204 228
186 204 228
186 204 228
186 204 228
186 204 228
185 203 228
184 203 228
185 203 228
185 204 228
185 204 228
184 203 228
185 203 228
185 203 228
184 203 228
184 203 228
184 203 228
184 203 228
184 203 228
184 203 228
185 203 228
184 203 228
184 203 228
184 203 228
183 202 228
184 203 228
182 202 228
183 202 228
182 202 228
184 203 228
183 202 228
183 202 228
182 202 228
183 203 228
182 202 228
183 202 228
182 202 228
183 203 228
182 202 228
183 202 228
183 203 228
183 202 228
183 202 228
182 202 228
181 201 228
182 202 228
181 202 228
182 202 228
182 202 228
180 201 228
181 202 228
182 202 228
181 202 228
181 201 228
181 201 228
181 201 228
181 201 228
182 202 228
180 201 228
181 201 228
180 201 228
181 201 228
180 201 228
181 202 228
181 201 228
180 201 228
181 201 228
180 201 228
180 201 228
181 201 228
180 201 228
180 201 228
180 201 228
180 201 228
180 201 228
180 201 228
180 201 228
179 201 228
180 201 228
179 200 228
180 201 228
177 198 227
175 196 225
172 194 224
172 193 224
163 184 215
157 178 211
163 185 216
152 174 209
148 171 206
144 167 205
144 166 204
128 151 190
117 141 187
131 154 194
127 150 189
114 138 181
111 135 178
108 132 176
112 135 181
106 129 174
107 131 175
113 136 180
108 131 176
109 133 181
110 132 177
120 142 183
126 148 190
130 150 188
141 161 197
160 179 210
176 194 220
189 207 231
196 212 236
211 227 250
216 233 255
216 233 255
216 232 255
216 232 255
216 232 255
178 196 227
55 88 141
58 92 156
59 94 158
59 94 152
58 93 152
59 94 156
59 94 151
58 93 147
60 95 148
61 96 156
60 95 146
61 96 155
60 95 147
61 96 153
61 96 150
61 96 150
60 96 146
60 96 154
60 95 152
60 95 139
61 96 147
60 95 149
61 96 146
61 97 155
62 97 153
62 97 154
61 96 146
61 96 156
60 95 142
60 96 150
62 98 150
62 97 157
61 96 146
61 96 152
61 97 148
61 96 149
61 96 151
61 97 156
61 97 145
60 96 145
61 97 152
61 97 152
61 97 152
62 97 150
62 97 153
60 95 134
61 97 154
61 96 144
61 97 148
61 96 150
62 97 144
62 98 152
61 96 149
61 96 144
60 96 148
61 96 145
61 97 149
61 97 153
62 98 160
62 97 152
61 97 148
61 96 143
60 96 149
61 97 151
61 96 142
61 96 149
62 97 150
62 97 154
62 97 153
61 96 144
61 97 149
61 96 139
61 96 153
61 96 151
61 97 152
61 96 143
63 99 164
61 96 143
62 98 153
61 97 147
60 96 147
60 96 141
61 96 139
62 97 152
61 96 141
62 98 155
61 96 149
61 96 142
61 96 144
60 95 133
61 97 149
59 95 137
60 96 148
61 96 145
59 94 128
58 93 124
175 193 218
216 232 255
216 232 255
216 233 255
216 233 255
216 233 255
201 220 203
174 197 0
171 195 0
175 198 0
175 198 0
172 196 0
174 197 0
174 197 0
175 198 0
175 198 0
174 198 0
175 198 0
173 197 0
174 197 0
174 198 0
174 197 0
174 198 0
175 198 0
175 198 0
173 197 0
174 198 0
174 198 0
173 197 0
175 198 0
176 199 0
173 197 0
175 198 0
174 198 0
173 197 0
176 199 0
174 198 0
176 199 0
175 198 0
175 198 0
172 197 0
175 198 0
174 198 0
177 199 36
187 207 120
197 215 161
205 222 193
217 231 228
222 235 245
226 238 255
226 238 255
225 238 255
225 238 255
225 238 255
225 238 255
225 238 255
225 238 255
225 238 255
225 238 255
225 238 255
225 238 255
225 238 255
225 238 255
225 238 255
225 238 255
225 238 255
225 238 255
225 238 255
225 238 255
225 238 255
225 238 255
225 238 255
225 238 255
225 238 255
225 238 255
225 238 255
225 238 255
225 238 255
225 238 255
225 238 255
225 238 255
225 238 255
225 238 255
225 238 255
225 238 255
225 238 255
225 238 255
225 238 255
225 238 255
225 238 255
225 238 255
225 238 255
225 238 255
225 238 255
225 238 255
225 238 255
225 238 255
225 238 255
225 238 255
225 238 255
225 238 255
225 238 255
225 238 255
225 238 255
225 238 255
225 238 255
225 238 255
225 238 255
225 238 255
225 238 255
225 238 255
225 238 255
225 238 255
225 238 255
225 238 255
225 238 255
225 238 255
225 238 255
225 238 255
225 238 255
225 238 255
225 238 255
225 238 255
225 238 255
225 238 255
225 238 255
225 238 255
225 238 255
225 238 255
225 238 255
225 238 255
225 238 255
225 238 255
225 238 255
225 238 255
225 238 255
225 238 255
225 238 255
225 238 255
225 238 255
225 238 255
225 238 255
223 236 249
219 233 237
213 228 218
206 223 196
205 221 191
203 219 182
199 217 173
187 207 122
182 204 92
180 201 62
189 205 228
189 206 228
189 206 228
189 206 228
188 205 228
189 206 228
188 205 228
189 206 228
188 205 228
189 205 228
189 205 228
187 205 228
188 205 228
188 205 228
188 205 228
187 205 228
187 205 228
188 205 228
187 205 228
187 205 228
188 205 228
188 205 228
187 204 228
188 205 228
187 204 228
186 204 228
187 204 228
187 205 228
187 205 228
187 204 228
186 204 228
187 204 228
186 204 228
186 204 228
185 204 228
186 204 228
186 204 228
186 204 228
186 204 228
185 204 228
185 204 228
186 204 228
186 204 228
185 204 228
185 204 228
184 203 228
185 203 228
184 203 228
185 204 228
185 204 228
185 204 228
185 203 228
184 203 228
185 204 228
185 204 228
184 203 228
184 203 228
185 204 228
184 203 228
184 203 228
184 203 228
182 202 228
185 203 228
184 203 228
183 202 228
184 203 228
184 203 228
183 203 228
183 202 228
184 203 228
182 202 228
182 202 228
183 203 228
182 202 228
182 202 228
182 202 228
182 202 228
183 202 228
183 202 228
183 202 228
182 202 228
182 202 228
181 201 228
183 202 228
182 202 228
182 202 228
181 202 228
181 202 228
182 202 228
182 202 228
183 202 228
182 202 228
182 202 228
181 202 228
181 201 228
182 202 228
181 201 228
181 201 228
181 201 228
180 201 228
181 201 228
181 201 228
180 201 228
181 201 228
181 201 228
181 201 228
180 201 228
180 201 228
181 201 228
180 201 228
180 201 228
180 201 228
179 199 227
176 196 223
170 191 220
169 190 220
161 182 214
154 176 211
157 178 210
145 167 202
146 169 203
144 166 204
133 156 193
126 149 189
116 139 181
123 147 187
110 134 180
109 132 177
108 132 176
95 119 164
92 117 167
87 113 166
83 108 163
89 114 162
89 114 161
95 119 170
103 125 167
109 132 175
113 134 177
128 148 186
133 152 189
147 166 198
171 190 217
185 202 227
190 207 231
203 219 242
216 233 255
216 233 255
216 233 255
216 233 255
216 233 255
122 143 189
57 90 153
58 92 151
59 94 154
58 93 149
59 94 152
60 95 153
60 95 156
59 94 145
60 94 149
60 95 147
60 95 151
60 95 146
60 95 154
60 95 145
60 95 150
60 95 150
60 96 145
61 96 148
60 95 151
61 96 150
61 96 145
59 94 144
60 95 137
61 96 149
61 96 148
61 96 150
61 97 149
60 95 139
61 97 149
60 95 144
61 96 149
61 97 155
60 95 141
59 95 139
60 96 148
62 97 148
62 97 154
61 96 147
61 96 150
61 95 141
61 96 152
61 97 145
62 97 148
60 95 137
61 97 156
61 96 147
61 97 145
62 97 148
61 96 148
61 95 143
59 94 134
61 96 144
61 97 145
60 95 137
61 97 150
61 97 150
61 96 144
60 95 143
59 94 143
61 97 149
61 96 147
62 98 161
62 98 154
61 97 151
61 97 149
62 97 156
61 97 151
61 96 145
62 98 155
60 95 139
62 97 154
61 96 147
60 95 136
60 96 148
60 95 134
61 97 144
61 96 145
60 95 134
62 97 151
61 97 151
60 95 137
60 95 139
61 97 147
61 96 141
62 97 155
61 97 152
61 97 152
61 96 142
61 96 142
61 96 137
61 96 142
60 96 141
60 95 141
60 96 136
60 95 136
60 94 125
123 145 168
216 233 255
216 233 255
216 233 255
216 233 255
216 233 255
183 204 137
173 196 0
171 195 0
175 198 0
173 197 0
174 198 0
174 197 0
174 198 0
175 198 0
175 198 0
174 198 0
174 198 0
175 198 0
175 198 0
174 197 0
175 198 0
173 197 0
176 199 0
175 198 0
172 197 0
174 198 0
174 197 0
174 198 0
175 198 0
176 199 0
175 198 0
177 199 0
174 198 0
174 198 0
174 197 0
174 198 0
173 197 0
181 203 80
190 209 128
199 217 169
209 224 204
221 234 242
226 238 255
226 238 255
225 238 255
225 238 255
225 238 255
225 238 255
225 238 255
225 238 255
225 238 255
225 238 255
225 238 255
225 238 255
225 238 255
225 238 255
225 238 255
225 238 255
225 238 255
225 238 255
225 238 255
225 238 255
225 238 255
225 238 255
225 238 255
225 238 255
225 238 255
225 238 255
225 238 255
225 238 255
225 238 255
225 238 255
225 238 255
225 238 255
225 238 255
225 238 255
225 238 255
225 238 255
225 237 255
225 237 255
225 237 255
225 237 255
225 237 255
225 237 255
225 237 255
225 237 255
225 237 255
225 237 255
225 237 255
225 237 255
225 237 255
225 237 255
225 237 255
225 237 255
225 237 255
225 237 255
225 237 255
225 237 255
225 237 255
225 237 255
225 237 255
225 237 255
225 237 255
225 237 255
225 237 255
225 237 255
225 237 255
225 237 255
225 237 255
225 238 255
225 238 255
225 238 255
225 238 255
225 238 255
225 238 255
225 238 255
225 238 255
225 238 255
225 238 255
225 238 255
225 238 255
225 238 255
225 238 255
225 238 255
225 238 255
225 238 255
225 238 255
225 238 255
225 238 255
225 238 255
225 238 255
225 238 255
225 238 255
225 238 255
225 238 255
225 238 255
225 238 255
225 238 255
225 238 255
225 238 255
225 238 255
225 238 255
225 238 255
225 238 255
225 238 255
225 238 255
225 238 255
225 238 255
225 238 255
225 238 255
225 238 255
190 206 228
190 206 228
189 206 228
190 206 228
188 205 228
188 205 228
190 207 228
189 206 228
189 206 228
189 206 228
189 206 228
188 205 228
189 206 228
189 206 228
188 205 228
189 206 228
189 206 228
189 206 228
188 205 228
188 205 228
189 206 228
189 206 228
187 205 228
187 204 228
188 205 228
187 205 228
187 204 228
188 205 228
188 205 228
187 205 228
187 205 228
187 204 228
187 205 228
187 205 228
187 205 228
187 204 228
187 205 228
186 204 228
186 204 228
187 205 228
186 204 228
186 204 228
187 205 228
186 204 228
186 204 228
186 204 228
186 204 228
185 204 228
186 204 228
185 204 228
184 203 228
184 203 228
186 204 228
186 204 228
186 204 228
185 204 228
184 203 228
185 203 228
184 203 228
184 203 228
186 204 228
185 203 228
184 203 228
184 203 228
184 203 228
184 203 228
184 203 228
183 203 228
184 203 228
184 203 228
183 203 228
184 203 228
184 203 228
184 203 228
183 203 228
182 202 228
183 203 228
183 202 228
182 202 228
182 202 228
183 202 228
182 202 228
184 203 228
182 202 228
183 202 228
183 202 228
182 202 228
182 202 228
183 203 228
183 202 228
182 202 228
182 202 228
181 201 228
181 202 228
182 202 228
181 202 228
182 202 228
183 202 228
182 202 228
182 202 228
182 202 228
182 202 228
182 202 228
181 201 228
182 202 228
182 202 228
182 202 228
182 202 228
182 202 228
181 201 228
181 202 228
182 201 228
170 190 219
172 192 222
162 183 216
167 187 218
157 178 209
152 174 206
153 174 206
150 171 205
140 162 197
138 160 198
128 150 190
122 145 186
112 135 177
114 137 174
111 135 177
106 130 176
87 112 160
88 113 163
86 111 162
72 99 154
73 99 152
77 102 154
81 106 159
84 109 161
82 105 156
89 112 164
105 126 169
118 140 181
132 152 189
140 160 194
159 177 206
172 189 217
188 205 228
196 212 235
214 230 252
216 233 255
216 233 255
216 233 255
211 228 252
60 92 150
56 90 150
57 92 144
58 92 151
59 93 146
59 93 144
60 94 153
59 94 149
58 92 148
61 97 158
59 93 141
60 95 148
60 95 150
60 95 148
60 95 145
60 96 155
60 95 154
60 96 146
61 96 144
59 95 148
60 95 143
61 97 149
60 96 148
62 97 153
60 96 145
61 96 149
62 98 154
61 96 146
60 95 151
60 96 142
62 97 149
61 97 151
61 97 155
61 96 149
62 97 157
61 97 150
62 97 150
61 96 144
60 96 148
62 97 154
62 97 152
61 97 152
61 96 149
62 97 149
61 96 148
61 97 147
61 96 139
62 98 151
61 96 143
62 97 148
62 98 157
62 97 150
62 97 151
60 95 143
62 98 157
62 97 149
61 97 150
61 97 153
60 95 137
60 95 144
61 96 151
60 95 136
60 96 155
59 94 129
61 97 150
61 96 143
61 97 156
60 96 144
62 97 153
62 97 153
62 97 151
62 97 148
61 95 139
60 96 148
61 96 143
61 96 139
60 95 137
61 96 141
60 95 136
62 97 151
61 96 147
62 97 151
60 95 136
58 93 133
60 95 141
60 95 129
61 97 145
60 95 134
62 97 145
60 95 136
61 97 143
59 94 133
61 96 145
60 95 130
60 95 140
60 95 135
60 95 134
65 98 125
213 230 253
216 233 255
216 233 255
216 233 255
209 226 227
173 196 0
173 197 0
173 197 0
174 197 0
174 197 0
175 198 0
174 197 0
175 198 0
174 198 0
174 198 0
173 197 0
175 198 0
176 198 0
176 198 0
175 198 0
174 197 0
175 198 0
174 197 0
175 198 0
173 197 0
174 198 0
174 198 0
174 198 0
174 197 0
174 198 0
175 198 0
174 198 0
177 200 36
184 205 108
200 218 175
209 225 207
219 233 237
226 238 255
225 238 255
225 238 255
225 238 255
225 238 255
225 238 255
225 238 255
225 238 255
225 238 255
225 238 255
225 238 255
225 238 255
225 238 255
225 238 255
225 238 255
225 238 255
225 238 255
225 238 255
225 238 255
225 238 255
225 238 255
225 238 255
225 238 255
225 237 255
225 237 255
225 237 255
225 237 255
225 237 255
225 237 255
225 237 255
225 237 255
225 237 255
225 237 255
225 237 255
225 237 255
225 237 255
225 237 255
225 237 255
224 237 255
224 237 255
224 237 255
224 237 255
224 237 255
224 237 255
224 237 255
224 237 255
224 237 255
224 237 255
224 237 255
224 237 255
224 237 255
224 237 255
224 237 255
224 237 255
224 237 255
224 237 255
224 237 255
224 237 255
224 237 255
224 237 255
224 237 255
224 237 255
224 237 255
224 237 255
224 237 255
224 237 255
224 237 255
224 237 255
224 237 255
224 237 255
224 237 255
224 237 255
224 237 255
224 237 255
224 237 255
225 237 255
225 237 255
225 237 255
225 237 255
225 237 255
225 237 255
225 237 255
225 237 255
225 237 255
225 237 255
225 237 255
225 237 255
225 237 255
225 237 255
225 237 255
225 237 255
225 237 255
225 237 255
225 237 255
225 237 255
225 237 255
225 238 255
225 238 255
225 238 255
225 238 255
225 238 255
225 238 255
225 238 255
225 238 255
225 238 255
225 238 255
225 238 255
225 238 255
225 238 255
225 238 255
225 238 255
225 238 255
225 238 255
225 238 255
190 206 228
191 207 228
190 206 228
190 206 228
190 206 228
190 206 228
189 206 228
189 206 228
189 206 228
190 206 228
190 206 228
190 206 228
190 206 228
188 205 228
189 206 228
188 205 228
189 206 228
189 206 228
188 205 228
188 205 228
188 205 228
189 206 228
187 205 228
189 206 228
188 205 228
188 205 228
188 205 228
189 206 228
188 205 228
188 205 228
188 205 228
189 206 228
187 204 228
188 205 228
187 205 228
187 205 228
187 205 228
188 205 228
187 205 228
186 204 228
188 205 228
186 204 228
187 205 228
186 204 228
187 205 228
187 204 228
187 205 228
187 205 228
186 204 228
186 204 228
186 204 228
186 204 228
186 204 228
185 204 228
186 204 228
185 203 228
186 204 228
186 204 228
186 204 228
186 204 228
186 204 228
186 204 228
184 203 228
185 204 228
185 204 228
185 204 228
186 204 228
184 203 228
185 204 228
185 203 228
185 203 228
186 204 228
185 204 228
185 203 228
184 203 228
186 204 228
184 203 228
183 203 228
184 203 228
185 203 228
184 203 228
184 203 228
183 202 228
183 203 228
184 203 228
184 203 228
184 203 228
184 203 228
184 203 228
184 203 228
183 202 228
184 203 228
183 203 228
183 202 228
184 203 228
182 202 228
184 203 228
184 203 228
183 203 228
183 202 228
183 202 228
183 202 228
183 202 228
183 202 228
183 203 228
183 202 228
182 202 228
182 202 228
182 202 228
183 203 228
182 202 228
179 199 225
176 196 223
170 189 217
161 182 209
158 179 209
151 171 203
151 172 204
150 171 203
153 174 208
132 154 191
127 149 185
116 139 177
114 137 182
102 125 165
104 127 169
95 119 170
95 119 166
84 109 155
75 102 154
66 94 146
66 93 150
58 87 146
52 82 145
55 83 144
55 83 146
66 91 148
77 101 155
79 103 157
94 116 163
114 134 175
122 140 175
139 157 193
161 179 208
179 196 221
194 210 232
208 224 246
217 233 255
217 233 255
217 233 255
181 198 226
56 89 151
57 91 147
58 91 151
58 92 149
58 92 139
59 93 149
59 94 144
58 92 143
60 95 154
61 96 151
60 94 145
58 91 141
60 95 145
61 96 157
59 95 144
61 96 152
61 96 149
60 95 142
61 96 147
62 97 151
60 95 139
62 98 161
62 97 155
60 95 140
61 97 157
61 97 154
61 96 149
61 97 151
61 96 146
60 96 139
60 95 138
61 96 151
61 97 143
61 96 150
61 96 146
60 96 144
61 96 142
61 96 150
62 98 156
61 96 148
62 97 149
61 96 142
61 96 137
61 96 144
63 98 160
62 98 160
61 96 144
60 95 138
62 97 149
61 96 151
60 95 141
60 96 141
61 96 148
61 96 142
60 96 142
61 97 153
60 95 137
62 97 150
62 97 151
61 97 147
60 95 142
61 96 143
62 97 147
60 95 148
61 96 143
61 96 148
61 96 142
60 95 142
61 97 148
60 95 141
61 97 153
60 95 130
60 95 143
61 96 145
62 98 155
61 97 149
60 95 142
60 96 142
61 97 148
61 96 144
61 97 150
61 96 145
61 96 147
62 98 153
60 96 144
62 97 153
60 95 135
62 97 148
61 96 142
61 96 145
61 96 147
61 96 139
60 95 134
61 95 134
59 94 124
60 95 131
59 94 125
59 94 125
180 198 218
217 233 255
217 233 255
217 233 255
196 215 179
170 194 0
171 195 0
172 196 0
176 199 0
173 197 0
174 197 0
175 198 0
176 198 0
175 198 0
175 198 0
175 198 0
174 198 0
174 198 0
175 198 0
173 197 0
174 197 0
174 198 0
174 198 0
175 198 0
175 198 0
175 198 0
176 198 0
173 197 0
177 200 51
185 206 111
201 219 179
217 231 233
225 238 254
225 238 255
225 238 255
225 238 255
225 238 255
225 238 255
225 238 255
225 238 255
225 238 255
225 238 255
225 238 255
225 238 255
225 238 255
225 238 255
225 238 255
225 238 255
225 238 255
225 238 255
225 237 255
225 237 255
225 237 255
225 237 255
225 237 255
225 237 255
225 237 255
225 237 255
225 237 255
224 237 255
224 237 255
224 237 255
224 237 255
224 237 255
224 237 255
224 237 255
224 237 255
224 237 255
224 237 255
224 237 255
224 237 255
224 237 255
224 237 255
224 237 255
224 237 255
224 237 255
224 237 255
224 237 255
224 237 255
224 237 255
224 237 255
224 237 255
224 237 255
224 237 255
224 237 255
224 237 255
224 237 255
224 237 255
224 237 255
224 237 255
224 237 255
224 237 255
224 237 255
224 237 255
224 237 255
224 237 255
224 237 255
224 237 255
224 237 255
224 237 255
224 237 255
224 237 255
224 237 255
224 237 255
224 237 255
224 237 255
224 237 255
224 237 255
224 237 255
224 237 255
224 237 255
224 237 255
224 237 255
224 237 255
224 237 255
224 237 255
224 237 255
224 237 255
224 237 255
224 237 255
224 237 255
224 237 255
224 237 255
224 237 255
224 237 255
224 237 255
224 237 255
224 237 255
224 237 255
224 237 255
224 237 255
224 237 255
224 237 255
224 237 255
224 237 255
225 237 255
225 237 255
225 237 255
225 237 255
225 237 255
225 237 255
225 237 255
225 237 255
225 237 255
225 237 255
225 237 255
225 237 255
225 237 255
225 237 255
225 237 255
225 238 255
189 206 228
190 206 228
191 207 228
190 206 228
189 206 228
189 206 228
191 207 228
189 206 228
189 206 228
190 206 228
190 206 228
190 206 228
189 206 228
189 206 228
190 206 228
188 205 228
189 206 228
190 206 228
189 206 228
189 206 228
189 206 228
190 206 228
188 205 228
188 205 228
188 205 228
189 206 228
188 205 228
189 205 228
188 205 228
189 206 228
189 206 228
189 206 228
188 205 228
187 204 228
188 205 228
187 205 228
188 205 228
188 205 228
188 205 228
188 205 228
187 205 228
188 205 228
186 204 228
187 205 228
187 205 228
187 204 228
188 205 228
187 205 228
188 205 228
186 204 228
188 205 228
188 205 228
187 205 228
187 204 228
187 204 228
187 205 228
187 204 228
186 204 228
187 204 228
186 204 228
186 204 228
186 204 228
185 204 228
186 204 228
186 204 228
186 204 228
186 204 228
185 204 228
185 204 228
185 204 228
185 204 228
185 204 228
185 204 228
186 204 228
185 204 228
186 204 228
186 204 228
185 204 228
184 203 228
185 204 228
185 204 228
185 203 228
184 203 228
185 203 228
184 203 228
184 203 228
184 203 228
184 203 228
185 204 228
184 203 228
184 203 228
184 203 228
185 203 228
184 203 228
185 203 228
184 203 228
185 203 228
184 203 228
183 202 228
183 203 228
185 204 228
184 203 228
185 203 228
184 203 228
184 203 228
184 203 228
184 203 228
183 203 228
183 203 228
184 203 228
180 200 223
177 197 223
175 195 221
169 189 215
164 184 210
167 187 214
154 175 203
149 169 202
148 168 200
133 155 193
136 158 193
121 143 180
105 128 170
113 136 177
106 129 173
89 114 162
87 112 158
75 101 153
60 89 147
54 84 137
54 84 144
52 83 141
49 79 132
51 81 141
50 81 141
48 77 135
51 80 141
52 81 145
58 84 143
81 104 155
84 105 154
118 137 176
130 148 182
146 164 197
172 190 218
192 208 231
201 217 239
217 233 255
217 233 255
217 233 255
136 155 187
57 91 148
58 91 145
57 91 140
58 93 150
59 93 149
58 93 147
60 95 155
60 95 150
59 94 146
60 95 148
60 95 146
59 94 144
61 96 152
61 96 150
61 96 145
59 94 136
61 96 156
61 97 158
61 97 149
60 94 140
61 95 141
62 97 153
61 95 143
60 94 144
62 97 149
60 95 143
60 95 142
61 96 139
60 95 142
60 95 144
61 97 150
60 95 138
60 95 138
60 95 146
61 96 145
62 97 148
62 97 151
61 96 149
60 95 139
61 97 152
62 98 155
59 94 137
63 98 152
61 97 150
61 96 147
61 96 147
62 97 150
61 96 143
61 96 147
61 96 140
61 96 142
61 97 151
60 95 145
61 97 147
62 97 155
62 97 153
61 96 147
60 95 145
61 96 142
61 97 147
61 97 149
62 97 151
60 95 142
60 95 134
61 96 140
61 96 144
60 95 134
62 97 150
60 95 136
62 98 156
61 96 148
62 97 151
60 95 143
62 98 155
61 97 157
61 96 144
62 98 150
62 97 154
62 98 153
61 97 147
61 97 150
61 97 150
61 96 149
61 96 137
61 96 137
61 97 147
60 95 135
61 97 142
60 95 133
60 95 131
60 95 139
61 97 148
59 94 125
61 96 140
60 94 126
61 95 131
59 94 126
60 94 121
135 156 181
217 233 255
217 233 255
217 233 255
181 203 95
175 198 0
176 198 0
175 198 0
174 198 0
175 198 0
174 197 0
175 198 0
176 199 0
175 198 0
174 198 0
176 199 0
173 197 0
173 197 0
175 198 0
175 198 0
174 198 0
175 198 0
175 198 0
174 198 0
175 198 25
181 203 92
199 217 171
208 224 201
225 237 253
225 238 255
225 238 255
225 238 255
225 238 255
225 238 255
225 238 255
225 238 255
225 238 255
225 238 255
225 238 255
225 238 255
225 238 255
225 238 255
225 238 255
225 237 255
225 237 255
225 237 255
225 237 255
225 237 255
225 237 255
224 237 255
224 237 255
224 237 255
224 237 255
224 237 255
224 237 255
224 237 255
224 237 255
224 237 255
224 237 255
224 237 255
224 237 255
224 237 255
224 237 255
224 237 255
224 237 255
224 237 255
224 237 255
224 237 255
224 237 255
224 237 255
224 237 255
224 237 255
224 237 255
224 237 255
224 237 255
224 237 255
224 237 255
224 237 255
224 237 255
224 237 255
224 237 255
224 237 255
224 237 255
224 237 255
224 237 255
224 237 255
224 237 255
224 237 255
224 237 255
224 237 255
224 237 255
224 237 255
224 237 255
224 237 255
224 237 255
224 237 255
224 237 255
224 237 255
224 237 255
224 237 255
224 237 255
224 237 255
224 237 255
224 237 255
224 237 255
224 237 255
224 237 255
224 237 255
224 237 255
224 237 255
224 237 255
224 237 255
224 237 255
224 237 255
224 237 255
224 237 255
224 237 255
224 237 255
224 237 255
224 237 255
224 237 255
224 237 255
224 237 255
224 237 255
224 237 255
224 237 255
224 237 255
224 237 255
224 237 255
224 237 255
224 237 255
224 237 255
224 237 255
224 237 255
224 237 255
224 237 255
224 237 255
224 237 255
224 237 255
224 237 255
224 237 255
224 237 255
224 237 255
224 237 255
224 237 255
224 237 255
224 237 255
224 237 255
224 237 255
224 237 255
224 237 255
192 207 228
192 207 228
191 207 228
191 207 228
190 206 228
191 207 228
191 207 228
191 207 228
191 207 228
191 207 228
190 206 228
191 207 228
190 206 228
190 206 228
191 207 228
190 206 228
190 206 228
190 206 228
190 206 228
190 206 228
190 206 228
190 206 228
190 206 228
189 206 228
190 206 228
189 206 228
189 206 228
189 206 228
190 206 228
189 206 228
188 205 228
189 206 228
189 205 228
188 205 228
189 206 228
189 206 228
188 205 228
190 206 228
188 205 228
188 205 228
188 205 228
188 205 228
189 206 228
187 205 228
188 205 228
187 204 228
189 205 228
188 205 228
188 205 228
188 205 228
188 205 228
188 205 228
187 205 228
186 204 228
187 205 228
188 205 228
187 204 228
189 206 228
187 204 228
187 205 228
187 205 228
187 204 228
187 205 228
186 204 228
186 204 228
187 205 228
187 204 228
186 204 228
186 204 228
186 204 228
186 204 228
187 204 228
186 204 228
186 204 228
186 204 228
185 204 228
186 204 228
186 204 228
186 204 228
186 204 228
186 204 228
186 204 228
186 204 228
186 204 228
186 204 228
186 204 228
185 204 228
187 204 228
186 204 228
185 203 228
185 204 228
185 204 228
185 203 228
186 204 228
186 204 228
185 203 228
186 204 228
185 203 228
184 203 228
186 204 228
184 203 228
185 204 228
184 203 228
184 203 228
185 204 228
185 203 228
184 203 228
184 203 228
184 203 228
184 203 227
181 201 223
177 197 221
174 194 221
168 188 215
169 189 212
160 179 206
152 172 204
144 164 195
137 157 190
132 153 191
131 151 185
123 144 182
106 129 168
106 129 170
94 119 167
84 110 156
84 110 161
62 91 145
52 83 139
51 81 134
51 81 137
51 81 137
50 80 135
50 81 142
50 80 140
48 78 133
49 78 141
47 76 133
49 77 138
54 79 138
64 87 141
87 107 151
103 122 164
131 149 182
151 168 198
185 201 225
199 214 236
213 229 249
217 233 255
217 233 255
89 112 159
57 91 147
58 92 148
59 94 150
58 92 147
59 93 146
59 93 151
59 94 148
57 90 132
60 95 151
61 96 152
58 92 147
61 96 149
59 94 140
60 95 147
60 95 148
60 95 147
59 94 139
62 97 155
61 96 146
59 93 136
60 95 151
60 95 147
61 96 151
59 94 142
60 94 139
61 96 148
61 95 142
60 95 141
61 96 146
61 96 144
61 96 148
60 96 145
61 96 139
62 98 154
61 96 145
61 97 147
62 97 152
60 95 142
62 97 153
62 97 150
61 96 147
61 97 146
61 96 145
61 96 148
61 96 146
60 95 143
61 97 148
61 96 140
62 97 157
60 95 142
61 96 152
59 94 129
61 96 144
61 95 137
61 97 145
60 95 135
61 97 153
61 96 148
60 95 140
61 96 142
60 95 141
60 96 145
60 96 140
61 96 145
61 96 136
62 97 149
60 95 144
60 95 136
61 96 139
62 97 151
61 97 151
61 96 142
61 96 148
61 96 143
60 94 131
61 97 149
62 97 147
60 95 137
62 97 151
62 98 154
61 96 145
60 95 140
62 97 147
62 97 147
62 97 150
61 96 142
61 96 141
61 96 143
60 96 142
60 95 133
60 96 149
60 95 133
60 96 142
60 95 135
58 93 120
60 95 134
60 96 137
58 93 120
104 129 154
216 232 254
217 233 255
209 226 228
172 197 0
174 197 0
175 198 0
174 197 0
174 197 0
175 198 0
174 198 0
174 197 0
175 198 0
175 198 0
172 197 0
174 198 0
175 198 0
176 199 0
174 197 0
174 197 0
174 198 0
179 201 67
194 213 151
205 221 189
222 235 245
225 238 255
225 238 255
225 238 255
225 238 255
225 238 255
225 238 255
225 238 255
225 238 255
225 238 255
225 238 255
225 238 255
225 237 255
225 237 255
225 237 255
225 237 255
225 237 255
224 237 255
224 237 255
224 237 255
224 237 255
224 237 255
224 237 255
224 237 255
224 237 255
224 237 255
224 237 255
224 237 255
224 237 255
224 237 255
224 237 255
224 237 255
224 237 255
224 237 255
224 237 255
224 237 255
224 237 255
224 237 255
224 237 255
224 237 255
224 237 255
224 237 255
224 237 255
224 237 255
224 237 255
224 237 255
224 237 255
224 237 255
224 237 255
224 237 255
224 237 255
224 237 255
224 237 255
224 237 255
224 237 255
224 237 255
224 237 255
224 237 255
224 237 255
224 237 255
224 237 255
224 237 255
224 237 255
224 237 255
224 237 255
224 237 255
224 237 255
224 237 255
224 237 255
224 237 255
224 237 255
224 237 255
224 237 255
224 237 255
224 237 255
224 237 255
224 237 255
224 237 255
224 237 255
224 237 255
224 237 255
224 237 255
224 237 255
224 237 255
224 237 255
224 237 255
224 237 255
224 237 255
224 237 255
224 237 255
224 237 255
224 237 255
224 237 255
224 237 255
224 237 255
224 237 255
224 237 255
224 237 255
224 237 255
224 237 255
224 237 255
224 237 255
224 237 255
224 237 255
224 237 255
224 237 255
224 237 255
224 237 255
224 237 255
224 237 255
224 237 255
224 237 255
224 237 255
224 237 255
224 237 255
224 237 255
224 237 255
224 237 255
224 237 255
224 237 255
224 237 255
224 237 255
224 237 255
224 237 255
224 237 255
224 237 255
224 237 255
191 207 227
191 207 228
192 207 228
191 207 228
191 207 228
190 206 228
191 207 228
192 207 228
191 207 228
192 207 228
191 207 228
191 207 228
191 207 228
192 207 228
191 207 228
192 207 228
191 207 228
190 206 228
191 207 228
189 206 228
191 207 228
191 207 228
191 207 228
190 206 228
191 207 228
191 207 228
190 206 228
191 207 228
190 207 228
191 207 228
189 206 228
191 207 228
190 206 228
189 206 228
190 206 228
190 206 228
189 206 228
189 205 228
189 206 228
189 206 228
190 206 228
189 206 228
190 206 228
188 205 228
190 206 228
189 205 228
189 206 228
188 205 228
188 205 228
188 205 228
188 205 228
188 205 228
188 205 228
188 205 228
188 205 228
188 205 228
188 205 228
188 205 228
187 205 228
188 205 228
188 205 228
188 205 228
188 205 228
188 205 228
187 205 228
187 205 228
187 205 228
188 205 228
187 204 228
187 205 228
188 205 228
187 205 228
187 204 228
187 205 228
188 205 228
187 204 228
187 205 228
187 204 228
187 205 228
188 205 228
186 204 228
186 204 228
187 204 228
186 204 228
187 205 228
187 204 228
188 205 228
187 204 228
186 204 228
186 204 228
185 204 228
187 205 228
186 204 228
186 204 228
187 205 228
186 204 228
186 204 228
185 204 228
186 204 228
186 204 228
186 204 228
185 204 228
185 204 228
185 204 228
186 204 228
186 204 228
185 204 228
186 204 228
185 203 226
185 203 221
177 196 218
175 194 219
174 193 217
166 185 215
160 179 204
154 173 200
149 168 196
149 169 197
140 160 190
124 145 183
141 162 194
112 134 175
97 120 161
101 124 169
83 108 151
71 98 151
59 87 141
55 86 143
51 81 137
51 82 137
51 81 135
50 80 136
49 79 136
50 80 135
49 79 140
48 77 135
46 74 134
46 75 132
46 74 133
47 76 136
45 73 132
74 94 140
107 126 167
109 127 164
149 167 197
160 176 203
193 209 229
209 225 246
218 233 255
204 220 244
56 89 148
54 87 145
57 90 143
57 91 147
58 91 142
56 89 139
58 92 137
59 94 147
59 94 145
59 94 144
60 94 139
59 93 144
60 94 147
59 94 142
60 94 149
59 95 146
61 96 147
61 96 144
60 95 146
60 95 145
60 95 144
60 95 138
61 96 148
61 96 148
60 95 146
60 95 138
61 96 144
61 96 145
61 96 148
62 97 154
61 95 145
60 95 138
60 95 147
60 96 147
61 97 151
61 96 145
62 97 153
60 96 147
62 98 153
59 94 132
62 97 157
59 94 131
60 96 145
59 94 132
61 96 139
61 96 143
60 95 136
60 96 151
62 97 149
61 96 141
60 96 141
60 95 142
62 97 154
61 96 144
61 96 144
60 96 147
60 95 136
62 97 149
62 97 151
62 97 150
60 96 147
60 96 136
61 96 144
61 97 153
61 96 143
61 96 152
61 96 139
61 96 148
60 95 143
60 96 143
60 95 143
60 95 135
60 94 143
61 96 143
60 95 129
60 95 141
61 96 144
61 97 147
61 96 143
61 96 136
60 96 144
60 95 140
61 96 144
61 96 143
60 95 139
61 96 137
60 95 136
62 97 148
61 96 143
61 97 147
61 97 148
61 96 134
60 96 139
61 96 140
60 95 133
59 94 129
59 94 124
59 93 120
60 94 125
60 95 125
196 213 236
218 233 255
195 214 171
175 198 0
175 198 0
175 198 0
176 198 0
173 197 0
175 198 0
175 198 0
176 198 0
174 198 0
172 197 0
175 198 0
175 198 0
174 197 0
173 197 0
182 204 95
202 219 181
214 228 218
225 238 254
225 238 255
225 238 255
225 238 255
225 238 255
225 238 255
225 238 255
225 238 255
225 238 255
225 238 255
225 237 255
225 237 255
225 237 255
224 237 255
224 237 255
224 237 255
224 237 255
224 237 255
224 237 255
224 237 255
224 237 255
224 237 255
224 237 255
224 237 255
224 237 255
224 237 255
224 237 255
224 237 255
224 237 255
224 237 255
224 237 255
224 237 255
224 237 255
224 237 255
224 237 255
224 237 255
224 237 255
224 237 255
224 237 255
224 237 255
224 237 255
224 237 255
224 237 255
224 237 255
224 237 255
224 237 255
224 237 255
224 237 255
224 237 255
224 237 255
224 237 255
224 237 255
224 237 255
224 237 255
224 237 255
224 237 255
224 237 255
224 237 255
224 237 255
224 237 255
224 237 255
224 237 255
224 237 255
224 237 255
224 237 255
224 237 255
224 237 255
224 237 255
224 237 255
224 237 255
224 237 255
224 237 255
224 237 255
224 237 255
224 237 255
224 237 255
224 237 255
224 237 255
224 237 255
224 237 255
224 237 255
224 237 255
224 237 255
224 237 255
224 237 255
224 237 255
224 237 255
224 237 255
224 237 255
224 237 255
224 237 255
224 237 255
224 237 255
224 237 255
224 237 255
224 237 255
224 237 255
224 237 255
224 237 255
224 237 255
224 237 255
224 237 255
224 237 255
224 237 255
224 237 255
224 237 255
224 237 255
224 237 255
224 237 255
224 237 255
224 237 255
224 237 255
224 237 255
224 237 255
224 237 255
224 237 255
224 237 255
224 237 255
224 237 255
224 237 255
224 237 255
224 237 255
224 237 255
224 237 255
224 237 255
224 237 255
224 237 255
224 237 255
224 237 255
224 237 255
191 207 228
191 207 226
191 207 228
190 206 226
191 206 227
191 207 228
192 207 227
191 206 225
191 207 228
191 207 228
191 207 228
191 207 228
191 207 228
192 207 228
191 207 228
190 206 228
192 207 228
191 207 228
190 206 228
191 207 228
192 207 228
192 208 228
192 207 228
191 207 228
190 206 228
192 207 228
190 207 228
192 207 228
191 207 228
191 207 228
191 207 228
191 207 228
191 207 228
190 206 228
191 207 228
190 206 228
190 206 228
190 206 228
189 206 228
189 206 228
190 206 228
190 206 228
190 206 228
190 206 228
189 206 228
190 206 228
189 206 228
189 206 228
189 206 228
189 206 228
190 206 228
190 206 228
189 206 228
190 206 228
189 206 228
188 205 228
190 206 228
189 206 228
189 206 228
188 205 228
189 206 228
190 206 228
189 206 228
188 205 228
189 206 228
188 205 228
189 206 228
189 206 228
189 206 228
188 205 228
188 205 228
188 205 228
188 205 228
188 205 228
188 205 228
187 204 228
188 205 228
187 205 228
188 205 228
188 205 228
189 206 228
187 205 228
187 205 228
188 205 228
188 205 228
187 205 228
187 205 228
187 205 228
186 204 228
187 205 228
187 205 228
187 205 228
187 205 228
188 205 228
187 205 228
187 205 228
187 204 228
187 204 228
187 204 228
187 205 228
187 205 228
187 205 228
188 205 228
187 204 228
187 205 228
187 205 228
187 204 228
187 204 228
185 203 226
184 202 223
179 198 219
171 189 212
167 186 212
162 180 207
163 181 204
148 167 192
135 156 186
145 165 195
135 156 188
131 152 185
118 140 177
117 139 178
104 127 164
98 121 157
74 100 140
76 103 153
53 84 144
52 83 139
52 83 136
50 79 134
50 79 133
50 80 136
49 78 130
48 77 130
50 80 138
46 75 123
46 74 128
47 74 134
45 73 131
43 70 127
43 69 125
57 80 133
87 107 153
105 123 163
123 141 177
159 175 202
186 202 222
202 217 234
218 234 255
169 186 216
56 88 146
57 90 149
58 92 152
57 90 141
59 94 156
58 92 145
59 93 138
58 92 140
59 94 142
59 93 138
61 96 152
59 93 135
60 95 154
61 96 155
61 96 146
59 94 136
61 96 143
61 95 156
60 95 144
59 94 145
60 95 140
61 96 146
60 95 143
60 95 145
61 96 145
62 97 151
60 94 129
59 95 138
61 96 151
60 95 137
60 95 145
61 96 147
61 96 144
61 96 141
60 94 144
62 97 149
60 95 144
59 94 133
61 96 143
61 96 145
61 97 150
61 96 145
61 95 147
60 95 140
60 95 140
60 95 133
61 97 147
60 95 135
61 96 143
59 94 130
60 95 144
61 96 145
61 96 142
60 95 140
61 96 148
61 96 143
62 97 156
61 96 148
61 96 142
61 96 143
61 96 144
60 96 142
60 94 135
60 95 137
62 97 151
61 97 141
61 97 149
61 97 145
61 96 143
59 94 136
62 97 150
61 96 143
62 97 154
61 97 148
61 96 147
61 97 152
60 96 139
60 95 140
61 96 143
60 95 139
61 96 144
61 97 142
61 97 152
61 96 141
62 97 147
61 97 145
62 97 147
61 97 148
60 96 143
61 97 144
61 97 147
61 96 140
59 93 124
62 98 151
61 96 143
62 97 150
61 96 136
61 96 141
59 93 128
60 95 125
176 193 217
218 234 255
184 206 120
174 198 0
173 197 0
174 198 0
175 198 0
176 198 0
175 198 0
174 198 0
175 198 0
175 198 0
174 198 0
174 198 0
185 206 114
200 218 177
219 233 236
225 238 254
225 238 255
225 238 255
225 238 255
225 238 255
225 238 255
225 238 255
225 237 255
225 237 255
225 237 255
225 237 255
224 237 255
224 237 255
224 237 255
224 237 255
224 237 255
224 237 255
224 237 255
224 237 255
224 237 255
224 237 255
224 237 255
224 237 255
224 237 255
224 237 255
224 237 255
224 237 255
224 237 255
224 237 255
224 237 255
224 237 255
224 237 255
224 237 255
224 237 255
224 237 255
224 237 255
224 237 255
224 237 255
224 237 255
224 237 255
224 237 255
224 237 255
224 237 255
224 237 255
224 237 255
224 237 255
224 237 255
223 237 255
223 237 255
223 237 255
223 237 255
223 237 255
223 237 255
223 237 255
223 237 255
223 237 255
223 237 255
223 237 255
223 237 255
223 237 255
223 237 255
223 237 255
223 237 255
223 237 255
223 237 255
223 237 255
223 237 255
223 237 255
223 237 255
223 237 255
223 237 255
223 237 255
223 237 255
223 237 255
223 237 255
223 237 255
223 237 255
223 237 255
223 237 255
223 237 255
223 237 255
223 237 255
223 237 255
223 237 255
223 237 255
223 237 255
223 237 255
223 237 255
223 237 255
223 237 255
223 237 255
223 237 255
223 237 255
223 237 255
223 237 255
223 237 255
223 237 255
223 237 255
223 237 255
223 237 255
223 237 255
223 237 255
223 237 255
223 237 255
223 237 255
223 237 255
224 237 255
223 237 255
224 237 255
224 237 255
224 237 255
224 237 255
224 237 255
224 237 255
224 237 255
224 237 255
224 237 255
224 237 255
224 237 255
224 237 255
224 237 255
224 237 255
224 237 255
224 237 255
224 237 255
224 237 255
224 237 255
224 237 255
224 237 255
224 237 255
224 237 255
224 237 255
224 237 255
191 206 225
191 207 223
189 204 216
191 206 223
192 207 227
191 207 225
191 206 225
191 207 224
191 206 221
191 207 226
190 206 224
191 206 225
192 207 228
191 206 226
191 207 227
191 207 228
192 207 227
192 207 228
191 207 227
192 207 227
192 207 227
192 207 228
191 207 227
192 208 228
191 207 228
191 207 228
191 207 228
192 207 228
192 207 228
191 207 228
191 207 228
190 206 228
191 207 228
191 207 228
191 207 228
191 207 228
190 206 228
191 207 228
190 206 228
190 206 228
191 207 228
191 207 228
190 206 228
190 206 228
191 207 228
190 206 228
190 206 228
190 206 228
190 206 228
191 207 228
189 206 228
189 206 228
190 206 228
190 206 228
190 206 228
190 206 228
188 205 228
190 206 228
189 205 228
190 206 228
191 207 228
190 206 228
189 206 228
190 206 228
190 206 228
190 206 228
189 206 228
189 206 228
189 205 228
189 206 228
189 206 228
190 206 228
189 206 228
189 206 228
189 206 228
188 205 228
188 205 228
188 205 228
189 206 228
189 206 228
189 206 228
188 205 228
189 206 228
188 205 228
189 206 228
189 206 228
188 205 228
188 205 228
188 205 228
187 205 228
188 205 228
189 205 228
187 205 228
188 205 228
188 205 228
188 205 228
188 205 228
188 205 228
187 204 228
188 205 228
188 205 228
188 205 228
189 206 228
188 205 228
189 206 228
188 205 228
188 205 228
187 204 226
185 203 221
179 197 214
178 195 215
162 181 204
169 187 210
172 190 210
159 178 203
157 176 202
143 162 189
147 166 193
127 148 181
127 148 175
112 133 168
98 121 166
81 106 152
82 107 148
75 100 146
58 88 137
51 82 137
52 83 135
51 82 137
51 82 134
47 76 126
49 79 132
49 79 130
50 80 136
47 76 131
46 75 130
46 74 126
46 74 132
42 69 125
41 67 124
39 64 120
38 62 117
50 72 124
83 101 145
113 130 164
139 154 183
177 193 214
199 215 232
217 233 254
141 159 191
53 85 138
56 90 140
56 89 134
58 92 141
60 94 156
58 92 150
58 91 135
58 93 145
61 96 152
58 92 131
59 94 146
59 93 138
61 96 152
60 94 141
59 95 146
59 94 140
59 94 140
59 94 138
61 96 143
60 95 140
61 96 147
60 95 142
61 96 151
60 94 138
61 97 149
60 94 135
59 94 136
60 96 145
61 96 142
61 96 148
61 96 145
60 95 137
62 97 149
59 94 135
61 96 144
61 96 139
61 96 150
60 95 145
59 94 135
61 96 141
60 95 139
60 95 137
61 96 147
61 96 142
60 95 137
62 97 150
61 96 145
62 97 146
62 97 150
60 96 139
61 97 150
60 95 141
60 95 136
61 96 137
61 96 136
61 96 147
62 97 150
61 97 147
61 96 143
62 97 145
61 96 143
60 95 145
60 96 147
62 97 151
61 97 147
60 95 140
60 95 139
60 95 137
61 96 143
61 97 154
60 94 135
61 96 142
60 95 141
61 96 139
61 97 149
62 97 149
60 95 141
62 97 151
60 95 134
60 95 134
62 98 159
61 97 142
61 97 144
62 97 150
60 94 134
60 95 137
62 97 147
60 95 142
61 96 145
61 97 143
60 94 140
62 97 147
63 98 147
61 97 147
62 97 152
61 96 143
60 94 129
61 97 142
61 96 136
60 95 126
149 168 193
217 233 250
174 198 25
173 197 0
172 196 0
173 197 0
173 197 0
174 198 0
173 197 0
175 198 0
174 198 0
182 204 99
205 221 189
218 232 234
225 238 255
225 238 255
225 238 255
225 238 255
225 238 255
225 238 255
225 237 255
225 237 255
225 237 255
224 237 255
224 237 255
224 237 255
224 237 255
224 237 255
224 237 255
224 237 255
224 237 255
224 237 255
224 237 255
224 237 255
224 237 255
224 237 255
224 237 255
224 237 255
224 237 255
224 237 255
224 237 255
224 237 255
224 237 255
224 237 255
224 237 255
224 237 255
224 237 255
224 237 255
223 237 255
223 237 255
223 237 255
223 237 255
223 237 255
223 237 255
223 237 255
223 237 255
223 237 255
223 237 255
223 237 255
223 237 255
223 237 255
223 237 255
223 237 255
223 237 255
223 237 255
223 237 255
223 237 255
223 237 255
223 237 255
223 237 255
223 237 255
223 237 255
223 237 255
223 237 255
223 237 255
223 237 255
223 237 255
223 237 255
223 237 255
223 237 255
223 237 255
223 237 255
223 237 255
223 237 255
223 237 255
223 237 255
223 237 255
223 237 255
223 237 255
223 237 255
223 237 255
223 237 255
223 237 255
223 237 255
223 237 255
223 237 255
223 237 255
223 237 255
223 237 255
223 237 255
223 237 255
223 237 255
223 237 255
223 237 255
223 237 255
223 237 255
223 237 255
223 237 255
223 237 255
223 237 255
223 237 255
223 237 255
223 237 255
223 237 255
223 237 255
223 237 255
223 237 255
223 237 255
223 237 255
223 237 255
223 237 255
223 237 255
223 237 255
223 237 255
223 237 255
223 237 255
223 237 255
223 237 255
223 237 255
223 237 255
223 237 255
223 237 255
223 237 255
223 237 255
223 237 255
223 237 255
223 237 255
223 237 255
223 237 255
223 237 255
223 237 255
223 237 255
223 237 255
223 237 255
223 237 255
223 237 255
223 237 255
223 237 255
224 237 255
224 237 255
190 205 217
191 207 224
188 204 213
190 206 223
192 207 228
190 206 221
190 205 219
190 206 224
188 204 216
190 206 221
190 206 223
192 207 226
192 207 227
189 205 219
191 206 223
189 205 221
190 206 221
191 207 227
191 206 224
191 207 226
191 207 225
190 206 223
190 206 224
191 206 226
190 206 224
190 206 225
191 207 228
192 208 228
190 206 223
191 207 227
191 207 225
190 206 223
192 207 227
192 207 228
192 207 228
192 207 227
192 207 227
192 207 228
192 207 228
191 207 228
191 207 227
191 207 228
192 207 228
192 207 228
191 207 228
191 207 228
192 207 228
192 207 228
190 206 228
190 206 228
190 206 228
190 206 228
190 207 228
190 206 228
191 207 228
191 207 228
190 206 228
191 207 228
191 207 228
191 207 228
190 206 228
190 206 228
190 206 228
190 206 228
189 206 228
189 206 228
190 206 228
190 206 228
190 206 228
190 206 228
190 206 228
190 206 228
189 206 228
190 206 228
190 206 228
188 205 228
190 206 228
189 206 228
189 206 228
189 206 228
191 207 228
189 206 228
189 206 228
189 206 228
190 206 228
189 206 228
189 206 228
188 205 228
189 206 228
189 206 228
189 206 228
190 206 228
190 206 228
190 206 228
189 206 228
189 206 228
188 205 228
189 206 228
188 205 228
189 206 228
188 205 228
189 206 228
190 206 228
188 205 228
189 206 228
188 205 228
187 204 227
185 202 218
185 203 217
181 198 216
181 198 219
174 191 211
166 183 207
163 182 206
164 182 207
157 175 203
142 162 193
130 150 174
129 149 178
122 142 175
113 134 170
112 133 166
86 110 151
64 91 137
58 88 135
53 84 135
51 81 132
51 81 140
50 80 135
50 79 129
50 79 127
49 79 129
47 76 122
47 76 129
46 75 127
48 77 132
45 72 122
43 70 124
43 70 125
45 73 131
43 69 119
39 64 116
41 67 128
65 85 135
100 116 151
117 133 164
154 170 190
193 209 224
215 230 252
123 141 176
55 87 143
55 87 137
55 89 138
58 92 140
59 93 147
60 94 148
59 93 146
59 93 136
60 95 145
59 93 136
60 95 150
59 93 138
61 95 145
60 94 139
60 95 152
60 94 140
59 93 138
60 94 138
60 95 144
59 94 132
60 94 135
60 95 141
60 95 141
60 95 143
61 96 139
58 92 134
61 96 140
58 92 131
61 97 149
60 94 139
61 96 152
59 94 133
60 96 144
60 95 143
61 96 144
61 97 152
61 96 143
60 95 142
60 95 146
60 96 146
59 94 141
61 95 147
61 96 144
60 95 134
59 94 133
60 95 140
60 96 137
60 95 140
62 97 147
60 95 137
61 96 143
61 96 142
61 97 148
61 97 144
61 96 141
61 96 144
60 94 140
61 96 144
60 95 143
60 95 140
61 96 143
62 97 149
61 96 145
60 96 137
61 96 142
61 96 145
61 96 145
61 96 141
61 96 140
61 96 145
60 96 133
61 96 139
61 97 148
60 96 140
61 97 151
61 96 139
61 96 147
60 95 139
59 94 130
61 96 144
61 96 144
61 96 142
62 97 144
62 97 142
61 96 140
61 96 141
61 97 147
62 97 147
62 97 144
60 95 130
62 97 145
62 97 145
61 97 143
61 96 148
60 95 133
62 97 142
62 97 144
62 98 150
61 96 145
62 96 137
122 144 176
206 224 215
174 198 0
174 198 0
175 198 0
175 198 0
173 197 0
174 198 0
183 204 95
203 220 189
218 232 234
225 238 255
225 238 255
225 238 255
225 238 255
225 238 255
225 237 255
225 237 255
224 237 255
224 237 255
224 237 255
224 237 255
224 237 255
224 237 255
224 237 255
224 237 255
224 237 255
224 237 255
224 237 255
224 237 255
224 237 255
224 237 255
224 237 255
224 237 255
224 237 255
224 237 255
224 237 255
224 237 255
223 237 255
223 237 255
223 237 255
223 237 255
223 237 255
223 237 255
223 237 255
223 237 255
223 237 255
223 237 255
223 237 255
223 237 255
223 237 255
223 237 255
223 237 255
223 237 255
223 237 255
223 237 255
223 237 255
223 237 255
223 237 255
223 237 255
223 237 255
223 237 255
223 237 255
223 237 255
223 237 255
223 237 255
223 237 255
223 237 255
223 237 255
223 237 255
223 237 255
223 237 255
223 237 255
223 237 255
223 237 255
223 237 255
223 237 255
223 237 255
223 237 255
223 237 255
223 237 255
223 237 255
223 237 255
223 237 255
223 237 255
223 237 255
223 237 255
223 237 255
223 237 255
223 237 255
223 237 255
223 237 255
223 237 255
223 237 255
223 237 255
223 237 255
223 237 255
223 237 255
223 237 255
223 237 255
223 237 255
223 237 255
223 237 255
223 237 255
223 237 255
223 237 255
223 237 255
223 237 255
223 237 255
223 237 255
223 237 255
223 237 255
223 237 255
223 237 255
223 237 255
223 237 255
223 237 255
223 237 255
223 237 255
223 237 255
223 237 255
223 237 255
223 237 255
223 237 255
223 237 255
223 237 255
223 237 255
223 237 255
223 237 255
223 237 255
223 237 255
223 237 255
223 237 255
223 237 255
223 237 255
223 237 255
223 237 255
223 237 255
223 237 255
223 237 255
223 237 255
223 237 255
223 237 255
223 237 255
223 237 255
223 237 255
223 237 255
223 237 255
223 237 255
223 237 255
191 206 221
189 205 217
190 205 217
190 205 218
188 204 212
189 205 217
189 205 218
187 203 211
189 205 218
189 205 217
188 204 213
191 206 221
188 204 213
193 208 225
189 204 216
189 205 218
190 205 216
191 207 224
191 206 223
189 205 217
189 205 217
189 205 218
190 206 221
190 206 223
190 206 223
191 206 225
191 206 224
190 206 224
190 206 221
191 207 224
190 206 223
192 207 225
189 205 223
191 207 224
190 206 225
191 206 223
190 206 224
189 205 223
190 206 224
191 206 224
191 207 225
191 206 224
192 207 227
190 206 226
191 206 224
191 207 226
191 207 226
191 207 228
191 207 228
192 207 226
191 207 227
192 208 228
192 207 228
191 207 226
191 207 228
192 207 228
191 207 228
191 207 228
192 207 228
191 207 228
192 207 228
192 207 228
191 207 228
192 207 228
192 207 228
191 207 228
192 207 228
191 207 228
191 207 228
191 207 228
191 207 228
191 207 228
191 207 228
192 207 228
190 206 228
191 207 228
191 207 228
190 207 228
190 206 228
190 206 228
190 206 228
191 207 228
191 207 228
190 206 228
191 207 228
191 207 228
190 206 228
190 206 228
189 206 228
190 206 228
190 206 228
190 206 228
190 206 228
190 206 228
190 206 228
191 207 228
190 206 228
190 206 228
189 206 228
190 206 228
190 206 228
189 206 228
191 207 228
189 206 228
189 206 228
190 206 226
189 206 225
187 204 217
186 203 216
179 196 214
180 197 216
179 196 218
166 184 205
165 183 205
157 175 200
147 166 193
146 165 194
142 161 192
135 155 183
119 139 171
113 134 170
84 108 144
87 111 156
73 99 140
60 88 128
52 82 131
50 81 128
50 80 121
53 84 143
49 78 124
51 82 134
48 78 121
50 79 131
49 78 128
47 75 126
44 71 119
46 74 124
41 66 119
44 71 125
42 68 117
42 68 124
39 63 119
38 63 116
46 68 123
79 96 137
104 119 149
146 161 187
190 206 219
211 226 243
78 102 143
56 89 146
56 89 138
57 90 145
55 88 137
57 91 137
59 93 147
57 90 125
59 93 145
58 92 132
60 94 144
60 95 144
58 92 129
59 94 144
58 92 135
60 94 141
61 96 150
60 94 131
60 94 142
61 96 149
60 95 142
59 94 143
61 96 143
60 95 137
60 95 140
60 96 144
60 95 145
61 96 149
60 94 138
61 96 149
60 95 142
59 94 131
60 95 139
60 94 134
61 96 143
59 94 135
60 95 142
60 95 142
61 96 139
60 95 137
60 95 136
61 95 140
59 93 130
61 96 143
60 95 135
60 95 143
60 95 138
62 97 152
60 96 143
61 96 139
63 98 155
60 95 136
60 94 133
61 97 148
61 96 148
61 96 142
60 95 140
61 96 142
60 95 139
61 96 143
61 96 141
59 94 130
61 96 139
61 97 143
61 96 135
61 96 143
60 95 140
61 96 142
61 96 141
60 95 143
61 96 142
60 96 142
61 96 142
61 96 151
61 96 147
61 96 145
60 94 129
61 96 142
60 95 139
61 96 144
60 96 142
61 96 143
59 94 133
62 97 147
62 97 148
62 97 148
62 97 150
60 96 133
62 97 145
60 95 135
61 96 148
60 95 140
62 97 145
62 97 149
62 97 152
61 96 148
61 96 136
62 97 147
62 97 144
61 96 147
62 97 140
83 112 148
198 217 186
175 198 0
175 198 0
174 198 0
177 200 62
197 215 161
212 227 215
225 237 254
225 238 255
225 238 255
225 238 255
225 237 255
225 237 255
224 237 255
224 237 255
224 237 255
224 237 255
224 237 255
224 237 255
224 237 255
224 237 255
224 237 255
224 237 255
224 237 255
224 237 255
224 237 255
224 237 255
224 237 255
223 237 255
223 237 255
223 237 255
223 237 255
223 237 255
223 237 255
223 237 255
223 237 255
223 237 255
223 237 255
223 237 255
223 237 255
223 237 255
223 237 255
223 237 255
223 237 255
223 237 255
223 237 255
223 237 255
223 237 255
223 237 255
223 237 255
223 237 255
223 237 255
223 237 255
223 237 255
223 236 255
223 236 255
223 236 255
223 236 255
223 236 255
223 236 255
223 236 255
223 236 255
223 236 255
223 236 255
223 236 255
223 236 255
223 236 255
223 236 255
223 236 255
223 236 255
223 236 255
223 236 255
223 236 255
223 236 255
223 236 255
223 236 255
223 236 255
223 236 255
223 236 255
223 236 255
223 236 255
223 236 255
223 236 255
223 236 255
223 236 255
223 236 255
223 236 255
223 236 255
223 236 255
223 236 255
223 236 255
223 236 255
223 236 255
223 236 255
223 236 255
223 236 255
223 236 255
223 236 255
223 236 255
223 236 255
223 236 255
223 236 255
223 236 255
223 236 255
223 236 255
223 236 255
223 236 255
223 236 255
223 236 255
223 236 255
223 236 255
223 236 255
223 236 255
223 236 255
223 236 255
223 236 255
223 236 255
223 236 255
223 236 255
223 236 255
223 236 255
223 236 255
223 236 255
223 236 255
223 236 255
223 236 255
223 236 255
223 236 255
223 236 255
223 236 255
223 236 255
223 236 255
223 236 255
223 236 255
223 236 255
223 236 255
223 237 255
223 237 255
223 237 255
223 237 255
223 237 255
223 237 255
223 237 255
223 237 255
223 237 255
223 237 255
223 237 255
223 237 255
223 237 255
187 203 209
189 204 214
189 205 217
189 204 212
190 205 217
190 205 218
189 205 213
186 202 206
188 204 212
188 203 211
190 205 218
190 206 221
188 203 212
190 205 219
189 205 218
192 207 224
190 205 217
190 205 218
190 206 220
189 205 217
189 205 217
190 205 219
187 203 209
189 204 216
188 204 213
188 204 213
189 205 220
189 205 216
191 206 224
191 206 218
188 204 216
189 205 217
190 206 221
191 206 221
191 206 224
189 205 220
190 206 223
191 206 221
189 204 217
189 205 223
189 205 219
189 204 217
190 206 219
191 206 224
190 206 225
192 207 225
189 205 220
189 205 219
190 206 224
191 206 224
189 205 217
191 207 223
188 205 220
190 206 221
190 206 221
191 206 223
189 205 221
192 207 227
190 206 225
192 207 227
191 206 226
192 207 226
190 206 225
191 207 227
190 206 224
192 208 228
191 207 226
191 206 224
191 207 226
190 206 225
191 207 226
191 207 225
191 207 228
192 207 227
191 207 228
190 206 227
191 206 227
191 207 228
191 206 227
191 207 226
191 206 227
192 207 227
191 207 227
191 207 228
190 206 227
190 206 227
190 206 227
191 207 228
191 206 227
191 207 228
191 207 228
191 207 228
192 207 228
191 207 228
192 207 228
191 207 228
190 206 228
190 206 228
191 207 228
192 207 228
191 207 228
192 207 228
191 207 228
191 207 228
190 206 228
191 207 227
189 205 223
190 206 223
185 201 217
182 199 215
181 197 216
175 192 212
174 191 212
168 185 206
150 168 191
156 174 201
147 165 195
135 154 183
133 152 180
121 141 170
98 120 156
103 124 159
77 102 148
78 102 145
53 84 132
51 81 120
51 82 126
50 80 124
50 80 125
51 81 131
51 81 130
51 80 131
46 73 118
44 71 121
48 76 128
46 74 121
46 74 128
42 68 114
42 68 111
42 69 119
40 65 113
37 61 113
39 64 116
34 57 107
64 80 125
96 109 138
151 165 184
175 191 202
193 209 222
50 81 124
54 87 134
58 91 141
56 89 133
55 87 122
58 92 144
58 93 140
60 94 150
58 92 141
58 92 139
59 93 138
59 93 139
60 95 143
60 95 141
59 93 136
60 95 147
60 95 145
60 94 141
60 94 140
60 94 133
59 94 136
59 93 123
59 93 130
60 95 140
61 96 143
60 95 141
61 96 147
59 94 128
58 93 136
60 95 144
62 96 142
59 93 132
60 95 134
60 96 147
60 95 134
61 96 142
61 96 144
60 95 137
60 95 137
60 95 136
60 94 133
61 96 144
61 96 145
61 95 139
60 95 139
60 95 139
62 97 144
61 96 143
60 95 136
60 95 141
60 95 137
59 94 133
61 96 141
60 95 141
61 96 145
60 95 136
61 96 150
62 97 148
60 95 135
61 95 133
61 97 147
61 96 145
60 95 137
60 95 139
61 96 147
59 93 133
60 94 143
61 96 147
60 95 141
61 97 144
62 97 148
60 94 136
60 96 142
61 96 145
59 94 140
60 95 141
60 95 141
61 96 141
61 96 143
60 95 134
60 95 141
61 96 141
61 96 147
60 95 134
61 96 143
62 97 151
62 97 149
61 96 140
62 97 148
61 97 145
63 98 159
62 97 154
62 98 144
63 98 158
61 96 144
61 96 139
63 99 157
62 96 148
61 96 134
62 97 144
63 97 145
63 98 140
185 206 145
174 198 0
181 203 80
209 225 207
221 234 242
225 238 255
225 238 255
225 237 255
225 237 255
224 237 255
224 237 255
224 237 255
224 237 255
224 237 255
224 237 255
224 237 255
224 237 255
224 237 255
224 237 255
224 237 255
224 237 255
223 237 255
223 237 255
223 237 255
223 237 255
223 237 255
223 237 255
223 237 255
223 237 255
223 237 255
223 237 255
223 237 255
223 237 255
223 237 255
223 237 255
223 237 255
223 237 255
223 237 255
223 236 255
223 236 255
223 236 255
223 236 255
223 236 255
223 236 255
223 236 255
223 236 255
223 236 255
223 236 255
223 236 255
223 236 255
223 236 255
223 236 255
223 236 255
223 236 255
223 236 255
223 236 255
223 236 255
223 236 255
223 236 255
223 236 255
223 236 255
223 236 255
223 236 255
223 236 255
223 236 255
223 236 255
223 236 255
223 236 255
223 236 255
223 236 255
223 236 255
223 236 255
223 236 255
223 236 255
223 236 255
223 236 255
223 236 255
223 236 255
223 236 255
223 236 255
223 236 255
223 236 255
223 236 255
223 236 255
223 236 255
223 236 255
223 236 255
223 236 255
223 236 255
223 236 255
223 236 255
223 236 255
223 236 255
223 236 255
223 236 255
223 236 255
223 236 255
223 236 255
223 236 255
223 236 255
223 236 255
223 236 255
223 236 255
223 236 255
223 236 255
223 236 255
223 236 255
223 236 255
223 236 255
223 236 255
223 236 255
223 236 255
223 236 255
223 236 255
223 236 255
223 236 255
223 236 255
223 236 255
223 236 255
223 236 255
223 236 255
223 236 255
223 236 255
223 236 255
223 236 255
223 236 255
223 236 255
223 236 255
223 236 255
223 236 255
223 236 255
223 236 255
223 236 255
223 236 255
223 236 255
223 236 255
223 236 255
223 236 255
223 236 255
223 236 255
223 236 255
223 236 255
223 236 255
223 236 255
223 236 255
223 236 255
223 236 255
223 236 255
223 236 255
191 206 219
186 202 207
187 203 213
189 204 212
188 204 214
188 204 212
187 203 209
188 203 211
188 204 212
191 206 220
188 204 212
186 202 202
188 203 207
190 205 219
187 203 209
190 206 218
188 204 211
188 203 209
190 205 216
186 202 206
191 206 221
187 203 208
188 204 209
187 203 208
189 204 212
186 202 207
188 204 211
186 202 209
189 205 218
189 204 213
189 205 216
190 205 219
188 204 211
188 204 214
188 204 213
190 206 220
188 204 214
189 205 217
190 206 220
189 205 218
190 206 223
188 204 213
188 204 216
190 205 220
190 205 219
187 203 211
190 206 220
189 204 213
190 205 216
190 205 219
187 203 213
188 204 218
191 206 219
187 203 211
189 205 219
189 205 219
191 207 225
191 206 223
189 205 218
189 205 219
188 204 218
189 205 218
190 206 223
188 204 214
190 206 219
189 205 220
188 204 214
191 206 224
190 206 221
191 206 224
190 206 221
190 206 224
190 206 221
190 205 220
190 206 223
189 205 219
190 206 221
191 207 226
191 207 226
190 205 219
190 206 225
190 206 225
191 206 226
190 206 224
190 206 221
190 206 221
189 205 220
190 206 223
191 206 223
191 207 225
191 207 226
190 206 226
190 205 221
190 206 224
190 206 223
190 206 225
190 206 223
190 206 223
190 206 223
191 206 226
190 206 225
191 207 226
190 206 223
190 206 225
191 206 225
190 206 224
188 204 218
188 204 214
185 201 212
184 200 213
180 196 214
171 187 204
171 187 205
163 180 200
157 174 199
144 162 186
139 158 183
136 154 182
119 139 169
118 138 168
93 115 157
86 109 142
79 103 135
63 91 137
52 82 133
50 80 126
51 81 125
51 81 123
51 81 121
51 81 130
48 77 126
46 73 119
47 75 121
45 73 116
46 74 126
45 73 123
45 72 121
41 66 113
43 70 119
39 64 104
38 62 109
37 61 112
35 57 105
38 63 116
50 68 113
88 102 137
125 139 163
171 186 201
175 190 202
54 86 136
56 89 141
57 90 135
58 92 148
58 92 138
57 91 134
58 92 142
59 93 140
58 93 133
59 93 139
59 93 132
60 95 145
58 92 130
57 91 125
58 92 140
60 95 142
60 94 144
60 94 140
60 96 146
61 96 147
61 96 148
60 94 138
60 95 142
60 94 141
59 93 141
60 94 142
59 94 132
58 92 136
60 95 142
60 95 145
61 96 145
60 95 139
61 96 142
59 94 135
60 94 135
60 95 139
60 95 143
61 96 150
61 96 140
61 96 146
61 95 142
59 94 136
59 93 126
60 95 131
62 97 151
62 97 151
61 96 147
60 96 145
60 95 140
60 94 136
59 94 131
60 95 143
60 95 139
62 97 144
61 96 145
59 93 131
61 97 143
59 94 129
59 93 134
60 95 142
60 95 142
60 95 130
61 96 139
60 95 142
61 97 145
61 97 149
62 98 152
60 95 141
61 96 141
61 96 139
61 96 140
61 97 144
60 95 137
61 96 140
60 95 131
61 96 143
61 96 144
61 96 151
60 95 136
61 96 134
62 97 148
62 97 145
62 97 147
61 96 137
61 96 140
62 97 147
60 95 136
61 96 144
61 95 139
60 95 140
62 96 147
62 97 147
61 97 141
62 97 143
62 96 137
62 98 149
62 97 147
62 97 151
63 98 155
63 98 145
63 98 147
63 98 145
163 185 99
205 222 196
225 237 254
225 238 255
225 237 255
224 237 255
224 237 255
224 237 255
224 237 255
224 237 255
224 237 255
224 237 255
224 237 255
224 237 255
224 237 255
223 237 255
223 237 255
223 237 255
223 237 255
223 237 255
223 237 255
223 237 255
223 237 255
223 237 255
223 237 255
223 237 255
223 237 255
223 236 255
223 236 255
223 236 255
223 236 255
223 236 255
223 236 255
223 236 255
223 236 255
223 236 255
223 236 255
223 236 255
223 236 255
223 236 255
223 236 255
223 236 255
223 236 255
223 236 255
223 236 255
223 236 255
223 236 255
223 236 255
223 236 255
223 236 255
223 236 255
223 236 255
223 236 255
222 236 255
222 236 255
222 236 255
222 236 255
222 236 255
222 236 255
222 236 255
222 236 255
222 236 255
222 236 255
222 236 255
222 236 255
222 236 255
222 236 255
222 236 255
222 236 255
222 236 255
222 236 255
222 236 255
222 236 255
222 236 255
222 236 255
222 236 255
222 236 255
222 236 255
222 236 255
222 236 255
222 236 255
222 236 255
222 236 255
222 236 255
222 236 255
222 236 255
222 236 255
222 236 255
222 236 255
222 236 255
222 236 255
222 236 255
222 236 255
222 236 255
222 236 255
222 236 255
222 236 255
222 236 255
222 236 255
222 236 255
222 236 255
222 236 255
222 236 255
222 236 255
222 236 255
222 236 255
222 236 255
222 236 255
222 236 255
222 236 255
222 236 255
222 236 255
222 236 255
222 236 255
222 236 255
222 236 255
222 236 255
222 236 255
222 236 255
222 236 255
222 236 255
222 236 255
222 236 255
222 236 255
222 236 255
222 236 255
222 236 255
222 236 255
222 236 255
222 236 255
222 236 255
222 236 255
222 236 255
222 236 255
223 236 255
223 236 255
223 236 255
223 236 255
223 236 255
223 236 255
223 236 255
223 236 255
223 236 255
223 236 255
223 236 255
223 236 255
223 236 255
223 236 255
223 236 255
188 203 208
186 202 200
185 201 203
187 203 207
187 203 208
186 202 204
187 203 207
188 204 212
187 202 204
184 200 196
188 204 209
189 205 216
188 203 207
187 203 211
187 203 207
188 204 213
187 203 207
188 204 209
189 205 217
185 201 198
188 204 212
187 203 209
186 202 204
188 203 211
188 204 209
187 203 208
186 202 209
189 204 209
189 204 216
189 205 214
190 206 219
188 204 213
190 205 216
189 204 214
190 205 217
186 202 204
189 204 214
188 204 211
188 204 213
189 204 212
187 203 209
189 204 214
189 204 214
189 205 216
187 203 207
191 206 220
188 204 213
189 204 213
187 202 206
188 204 212
189 205 218
190 205 218
189 205 218
189 205 218
187 204 216
188 204 213
189 204 213
188 204 211
188 204 214
188 204 213
188 204 212
191 206 221
191 206 218
189 205 214
188 203 211
189 205 217
191 206 223
189 205 214
190 205 218
190 206 220
188 204 211
189 205 218
189 205 218
189 205 219
189 204 213
189 204 213
191 206 223
188 204 218
189 205 216
190 206 224
190 206 221
188 204 211
189 205 220
187 203 212
188 204 214
189 204 216
188 204 217
190 206 221
190 205 218
189 205 216
188 204 212
192 207 224
188 204 212
190 206 221
189 205 220
188 204 218
190 205 219
188 204 217
189 205 221
189 205 218
193 208 227
189 204 217
190 205 218
188 204 213
186 202 208
188 204 216
188 204 217
187 203 208
187 203 212
176 193 207
176 192 207
174 190 200
166 183 199
159 177 198
150 167 190
146 164 186
135 152 173
131 150 178
116 136 165
114 135 168
105 126 160
91 113 148
82 106 141
60 87 123
51 81 125
51 81 128
52 82 128
50 79 120
50 80 128
50 80 128
49 79 119
48 76 120
47 74 121
46 73 124
46 74 118
45 72 112
42 69 115
43 70 119
42 69 116
38 62 107
37 60 106
35 57 92
37 60 106
33 54 99
30 50 88
83 97 131
112 126 149
162 176 192
153 168 184
51 81 123
56 90 136
56 89 138
56 90 138
58 91 141
58 92 140
58 92 136
58 93 140
59 94 145
58 93 131
59 93 131
59 93 136
60 95 146
59 93 130
59 93 140
59 94 143
61 95 141
60 94 139
61 96 146
60 95 141
60 95 147
59 93 136
60 95 142
60 94 141
61 96 145
59 94 136
59 94 138
59 93 136
61 96 147
61 96 146
60 95 139
60 95 139
60 95 137
60 94 141
60 94 139
61 96 148
59 94 139
61 96 147
59 94 139
60 94 139
59 94 136
61 96 141
60 95 139
60 95 137
61 96 137
60 95 135
62 97 149
60 95 136
60 95 141
61 96 149
62 97 149
60 95 135
60 95 133
60 94 134
60 94 136
61 95 134
61 97 144
60 95 141
61 96 137
62 97 145
60 95 136
61 95 142
60 96 141
60 95 137
61 96 136
59 93 124
60 94 135
60 95 135
60 95 139
62 97 154
60 95 137
62 97 149
61 96 141
61 96 141
61 95 142
61 97 149
60 95 139
61 95 140
60 94 129
61 96 135
61 97 145
60 95 140
60 95 131
61 96 140
62 98 151
61 96 140
61 96 150
62 97 153
63 98 149
61 96 148
60 95 129
62 97 147
61 96 144
61 96 139
62 97 142
62 97 147
62 97 147
63 99 158
62 97 142
62 97 145
64 99 152
63 98 149
194 209 228
225 237 255
224 237 255
224 237 255
224 237 255
224 237 255
224 237 255
224 237 255
224 237 255
223 237 255
223 237 255
223 237 255
223 237 255
223 237 255
223 237 255
223 237 255
223 237 255
223 237 255
223 237 255
223 236 255
223 236 255
223 236 255
223 236 255
223 236 255
223 236 255
223 236 255
223 236 255
223 236 255
223 236 255
223 236 255
223 236 255
223 236 255
223 236 255
223 236 255
222 236 255
222 236 255
222 236 255
222 236 255
222 236 255
222 236 255
222 236 255
222 236 255
222 236 255
222 236 255
222 236 255
222 236 255
222 236 255
222 236 255
222 236 255
222 236 255
222 236 255
222 236 255
222 236 255
222 236 255
222 236 255
222 236 255
222 236 255
222 236 255
222 236 255
222 236 255
222 236 255
222 236 255
222 236 255
222 236 255
222 236 255
222 236 255
222 236 255
222 236 255
222 236 255
222 236 255
222 236 255
222 236 255
222 236 255
222 236 255
222 236 255
222 236 255
222 236 255
222 236 255
222 236 255
222 236 255
222 236 255
222 236 255
222 236 255
222 236 255
222 236 255
222 236 255
222 236 255
222 236 255
222 236 255
222 236 255
222 236 255
222 236 255
222 236 255
222 236 255
222 236 255
222 236 255
222 236 255
222 236 255
222 236 255
222 236 255
222 236 255
222 236 255
222 236 255
222 236 255
222 236 255
222 236 255
222 236 255
222 236 255
222 236 255
222 236 255
222 236 255
222 236 255
222 236 255
222 236 255
222 236 255
222 236 255
222 236 255
222 236 255
222 236 255
222 236 255
222 236 255
222 236 255
222 236 255
222 236 255
222 236 255
222 236 255
222 236 255
222 236 255
222 236 255
222 236 255
222 236 255
222 236 255
222 236 255
222 236 255
222 236 255
222 236 255
222 236 255
222 236 255
222 236 255
222 236 255
222 236 255
222 236 255
222 236 255
222 236 255
222 236 255
222 236 255
222 236 255
222 236 255
222 236 255
187 203 206
188 203 204
188 203 207
185 201 202
186 202 204
185 201 200
189 204 212
188 203 207
186 202 203
189 204 214
188 203 208
187 202 204
187 202 206
187 202 203
188 203 208
185 201 198
183 200 192
185 201 200
187 202 204
186 202 203
189 205 213
188 204 211
185 201 203
188 204 211
183 200 194
185 201 203
186 202 204
185 201 200
190 205 216
188 204 212
185 201 203
188 204 211
188 204 211
185 201 202
190 205 213
188 203 211
186 202 203
186 202 200
187 203 206
186 202 206
186 203 208
188 203 208
188 204 212
188 204 208
188 204 212
187 203 207
188 203 208
188 204 213
186 202 206
188 204 211
185 201 202
189 204 211
189 204 214
188 204 213
189 205 213
189 205 214
188 204 211
190 206 219
187 203 207
187 203 208
183 200 199
190 205 216
188 204 213
188 203 211
189 204 214
188 204 212
187 202 207
190 205 217
188 203 209
190 205 214
187 203 209
187 203 204
188 204 212
189 204 213
189 205 216
187 203 208
188 203 207
188 203 208
185 201 199
188 204 211
188 204 211
189 204 216
187 203 208
188 204 212
189 204 214
191 206 223
190 205 216
190 206 218
188 204 214
187 203 211
189 205 218
189 205 216
187 203 212
186 202 206
187 203 212
187 203 211
188 204 213
187 203 213
189 205 216
187 203 209
190 205 219
187 203 211
187 203 207
187 203 212
189 204 214
189 204 217
186 202 207
185 201 206
178 195 200
179 196 207
173 190 194
174 190 206
160 177 183
160 178 193
153 171 184
154 171 186
136 153 176
131 149 178
122 141 164
114 133 158
94 116 153
93 115 150
73 98 138
52 83 125
51 82 114
50 79 117
52 82 128
51 81 127
48 76 116
50 79 128
48 76 118
47 75 115
48 77 123
46 74 124
44 70 113
44 71 110
42 68 111
40 65 109
40 65 111
38 62 105
39 63 108
37 60 105
37 60 107
34 56 103
28 48 86
59 74 109
109 122 143
142 157 161
144 160 172
53 85 126
54 87 134
57 90 135
56 88 134
59 93 150
57 91 143
58 92 136
57 91 126
58 92 129
59 93 140
59 93 141
60 94 146
58 92 135
59 94 139
60 95 138
60 94 144
60 94 126
59 93 138
60 95 146
58 92 124
58 92 132
60 95 142
60 95 145
59 94 137
58 93 127
60 95 142
60 95 142
61 96 146
60 95 137
60 94 139
60 95 144
60 95 141
60 95 146
60 94 140
61 97 144
60 94 134
60 95 142
60 94 146
59 94 133
59 93 121
60 96 140
59 94 120
60 95 132
61 96 145
61 96 146
60 95 142
59 93 130
62 97 143
61 96 145
60 95 136
59 94 133
60 95 141
60 95 140
59 93 130
59 94 129
61 97 144
62 97 150
60 95 139
62 97 149
60 95 134
60 95 141
61 96 137
59 94 137
61 96 145
61 96 136
60 95 130
60 95 135
60 95 134
61 97 148
61 97 143
61 96 142
61 96 148
61 96 144
61 97 142
60 95 144
61 95 139
61 96 148
62 97 144
60 95 136
60 95 140
62 96 141
60 95 131
60 95 140
61 97 144
61 97 144
60 95 140
61 96 139
62 97 148
60 95 141
60 95 135
60 95 131
61 96 141
61 96 140
62 97 149
61 96 134
61 96 141
62 97 147
63 98 150
63 98 150
62 97 145
64 99 155
64 99 154
165 181 211
224 237 255
224 237 255
224 237 255
223 237 255
223 237 255
223 237 255
223 237 255
223 237 255
223 237 255
223 237 255
223 236 255
223 236 255
223 236 255
223 236 255
223 236 255
223 236 255
223 236 255
223 236 255
223 236 255
223 236 255
222 236 255
222 236 255
222 236 255
222 236 255
222 236 255
222 236 255
222 236 255
222 236 255
222 236 255
222 236 255
222 236 255
222 236 255
222 236 255
222 236 255
222 236 255
222 236 255
222 236 255
222 236 255
222 236 255
222 236 255
222 236 255
222 236 255
222 236 255
222 236 255
222 236 255
222 236 255
222 236 255
222 236 255
222 236 255
222 236 255
222 236 255
222 236 255
222 236 255
222 236 255
222 236 255
222 236 255
222 236 255
222 236 255
222 236 255
222 236 255
222 236 255
222 236 255
222 236 255
222 236 255
222 236 255
222 236 255
222 236 255
222 236 255
222 236 255
222 236 255
222 236 255
222 236 255
222 236 255
222 236 255
222 236 255
222 236 255
222 236 255
222 236 255
222 236 255
222 236 255
222 236 255
222 236 255
222 236 255
222 236 255
222 236 255
222 236 255
222 236 255
222 236 255
222 236 255
222 236 255
222 236 255
222 236 255
222 236 255
222 236 255
222 236 255
222 236 255
222 236 255
222 236 255
222 236 255
222 236 255
222 236 255
222 236 255
222 236 255
222 236 255
222 236 255
222 236 255
222 236 255
222 236 255
222 236 255
222 236 255
222 236 255
222 236 255
222 236 255
222 236 255
222 236 255
222 236 255
222 236 255
222 236 255
222 236 255
222 236 255
222 236 255
222 236 255
222 236 255
222 236 255
222 236 255
222 236 255
222 236 255
222 236 255
222 236 255
222 236 255
222 236 255
222 236 255
222 236 255
222 236 255
222 236 255
222 236 255
222 236 255
222 236 255
222 236 255
222 236 255
222 236 255
222 236 255
222 236 255
222 236 255
222 236 255
222 236 255
222 236 255
222 236 255
186 202 203
187 202 204
188 204 208
186 202 202
184 200 194
185 201 200
186 202 204
186 202 202
185 201 198
189 204 211
186 202 202
184 200 195
188 203 208
185 201 199
187 203 207
185 201 198
186 202 202
184 200 196
187 203 204
186 201 199
186 202 202
187 202 203
186 202 203
185 200 195
186 202 204
187 203 206
186 202 202
184 200 192
187 202 203
186 202 200
184 200 192
188 203 208
184 200 194
185 200 194
187 202 199
188 203 206
187 203 206
182 198 188
184 200 195
187 203 206
185 201 196
187 203 208
186 201 200
187 203 207
186 201 199
186 202 200
186 201 200
188 204 209
187 202 204
184 200 195
185 201 199
183 199 195
186 202 203
188 203 208
187 203 207
187 202 202
187 202 203
188 204 211
186 202 202
184 200 200
189 204 213
185 201 199
187 202 206
187 202 203
186 201 200
187 203 206
188 203 207
186 202 206
189 204 213
185 201 200
185 202 204
187 203 207
189 204 213
186 202 207
189 204 212
188 203 211
184 200 196
187 203 209
187 203 207
186 202 207
184 200 198
186 202 202
188 203 209
185 201 200
188 203 211
186 202 206
185 202 206
187 203 207
187 203 211
186 202 202
188 204 209
185 202 204
184 200 198
183 200 198
185 201 203
189 204 214
189 204 213
187 203 208
188 203 209
189 204 213
186 202 207
188 204 211
188 203 209
186 202 204
187 203 209
187 203 207
186 202 200
182 198 192
181 197 198
178 194 194
173 189 196
161 178 176
168 184 185
159 176 174
155 173 183
140 158 170
138 156 176
125 144 165
116 135 152
111 130 159
95 117 145
78 103 143
74 99 136
50 80 123
51 81 124
49 78 120
51 80 120
51 81 122
49 78 116
50 79 121
47 74 110
48 76 116
48 76 124
46 73 113
46 72 114
46 73 122
43 69 114
42 68 109
41 66 106
38 61 102
36 58 95
36 59 102
33 55 88
28 47 89
31 52 95
60 74 102
99 111 134
146 160 168
144 160 171
50 81 128
56 89 140
56 89 137
54 86 130
57 91 132
56 89 137
58 92 131
57 90 132
56 89 133
59 93 140
58 92 135
59 94 141
58 92 140
58 93 135
60 94 143
60 94 134
60 94 138
60 95 150
59 93 131
60 95 134
60 94 137
60 94 136
60 95 141
57 91 123
60 95 141
60 95 137
60 95 141
60 94 134
60 94 136
59 94 130
58 93 127
60 94 139
60 95 136
59 94 136
60 94 133
59 93 125
61 96 146
59 93 134
60 95 139
59 94 130
60 95 143
61 96 149
60 94 131
61 96 142
60 95 132
61 96 149
60 95 139
62 97 145
59 93 129
60 95 134
60 95 140
60 95 139
60 94 138
59 94 129
61 96 143
62 97 155
61 96 141
61 96 139
60 95 133
60 95 131
60 95 134
60 95 136
61 96 136
60 95 143
60 95 136
59 94 129
59 93 130
61 95 136
60 94 130
59 94 141
61 97 142
60 95 141
60 95 133
60 95 137
59 94 130
59 93 128
60 95 135
61 96 142
60 95 140
59 94 130
60 95 135
61 96 134
61 96 139
62 97 149
62 98 151
60 95 130
61 96 143
61 96 143
61 96 135
61 96 142
60 95 139
61 96 131
63 98 150
63 99 155
61 96 143
62 98 145
63 98 150
61 96 141
62 97 150
63 99 151
64 100 156
63 98 148
167 184 211
223 237 255
223 237 255
223 236 255
223 236 255
223 236 255
223 236 255
223 236 255
223 236 255
223 236 255
223 236 255
222 236 255
222 236 255
222 236 255
222 236 255
222 236 255
222 236 255
222 236 255
222 236 255
222 236 255
222 236 255
222 236 255
222 236 255
222 236 255
222 236 255
222 236 255
222 236 255
222 236 255
222 236 255
222 236 255
222 236 255
222 236 255
222 236 255
222 236 255
222 236 255
222 236 255
222 236 255
222 236 255
222 236 255
222 236 255
222 236 255
222 236 255
222 236 255
222 236 255
222 236 255
222 236 255
222 236 255
222 236 255
222 236 255
222 236 255
222 236 255
222 236 255
222 236 255
222 236 255
222 236 255
222 236 255
222 236 255
222 236 255
222 236 255
222 236 255
222 236 255
222 236 255
222 236 255
222 236 255
222 236 255
222 236 255
222 236 255
222 236 255
222 236 255
222 236 255
222 236 255
222 236 255
222 236 255
222 236 255
222 236 255
222 236 255
222 236 255
222 236 255
222 236 255
222 236 255
222 236 255
222 236 255
222 236 255
222 236 255
222 236 255
222 236 255
222 236 255
222 236 255
222 236 255
222 236 255
222 236 255
222 236 255
222 236 255
222 236 255
222 236 255
222 236 255
222 236 255
222 236 255
222 236 255
222 236 255
222 236 255
222 236 255
222 236 255
222 236 255
222 236 255
222 236 255
222 236 255
222 236 255
222 236 255
222 236 255
222 236 255
222 236 255
222 236 255
222 236 255
222 236 255
222 236 255
222 236 255
222 236 255
222 236 255
222 236 255
222 236 255
222 236 255
222 236 255
222 236 255
222 236 255
222 236 255
222 236 255
222 236 255
222 236 255
222 236 255
222 236 255
222 236 255
222 236 255
222 236 255
222 236 255
222 236 255
222 236 255
222 236 255
222 236 255
222 236 255
222 236 255
222 236 255
222 236 255
222 236 255
222 236 255
222 236 255
222 236 255
222 236 255
222 236 255
185 201 202
186 201 199
184 200 194
186 202 204
180 197 183
185 201 198
184 200 191
185 201 196
184 200 192
188 203 207
189 204 209
188 203 207
188 203 206
185 201 194
183 199 188
185 200 196
187 202 203
185 201 196
182 198 190
181 198 186
187 203 207
181 198 184
184 200 192
185 200 194
181 197 180
186 202 200
184 199 190
186 201 198
182 198 187
183 199 188
185 201 196
184 200 195
188 203 207
181 198 186
186 202 199
188 203 207
184 201 196
185 201 196
184 200 194
186 202 200
187 202 202
186 202 202
185 201 202
184 200 194
188 204 211
184 200 191
185 201 199
185 201 199
184 200 196
185 201 196
182 198 190
184 200 195
184 200 195
189 204 213
183 199 190
187 203 207
186 202 203
185 201 198
185 201 202
182 198 188
187 202 203
187 202 199
185 201 203
184 200 195
186 201 199
186 202 200
186 202 200
184 200 195
187 203 204
185 201 199
184 200 198
186 201 198
186 202 200
185 201 202
182 198 186
185 201 198
184 200 195
186 202 202
187 203 207
184 200 194
184 200 196
185 201 199
186 202 202
186 202 202
184 200 195
186 202 206
186 202 202
183 199 192
187 202 204
187 202 203
186 202 203
186 202 202
185 200 196
186 202 204
184 200 196
185 201 199
184 200 192
186 202 203
186 202 202
185 201 195
185 201 198
187 202 200
184 200 196
187 202 204
184 201 199
186 201 200
183 200 198
182 198 192
181 198 195
174 191 186
176 192 190
164 181 174
164 180 169
148 166 164
149 167 170
148 166 170
124 144 156
130 149 169
125 144 154
113 133 159
88 111 148
82 105 141
55 85 124
54 85 128
52 81 114
51 81 124
52 81 126
50 79 123
49 78 110
47 74 114
47 75 110
47 75 115
45 73 122
46 73 113
45 73 112
43 69 110
42 67 106
42 68 113
40 65 105
36 60 102
39 63 104
34 56 91
33 54 89
32 53 93
32 52 89
40 56 89
83 95 114
130 144 145
128 145 156
53 84 119
54 86 130
54 86 127
57 91 138
58 91 133
59 94 146
58 92 139
58 92 134
57 90 134
58 92 125
59 93 131
59 92 138
58 92 128
58 92 129
59 93 136
59 94 141
60 95 139
60 94 141
59 93 129
59 94 134
59 94 133
59 93 133
59 94 136
61 96 142
60 95 140
58 92 132
60 95 134
61 96 145
58 92 129
58 92 126
60 94 131
59 94 134
59 93 136
60 95 133
61 96 136
60 95 134
60 95 134
61 95 146
60 95 132
60 95 137
60 95 131
60 94 130
61 95 138
60 95 137
61 96 140
61 97 147
60 95 136
60 95 139
60 94 134
61 96 143
60 95 136
60 94 134
60 94 133
60 94 137
60 96 136
60 95 139
60 96 147
59 94 135
59 93 129
60 95 143
61 96 145
61 96 142
60 94 128
60 94 131
60 95 137
60 95 140
58 92 122
61 96 144
59 93 128
62 96 143
61 96 143
60 95 135
62 97 151
60 95 136
61 95 141
60 94 126
61 96 140
60 95 139
60 95 139
60 95 134
61 96 143
60 95 137
61 97 147
60 94 130
60 95 133
61 96 144
62 96 139
61 96 141
60 94 135
61 96 137
62 97 144
61 95 140
60 95 150
62 97 147
62 97 149
62 98 151
63 98 148
63 98 150
63 98 145
63 98 147
65 100 156
64 99 152
159 177 210
223 236 255
222 236 255
222 236 255
222 236 255
222 236 255
222 236 255
222 236 255
222 236 255
222 236 255
222 236 255
222 236 255
222 236 255
222 236 255
222 236 255
222 236 255
222 236 255
222 236 255
222 236 255
222 236 255
222 236 255
222 236 255
222 236 255
222 236 255
222 236 255
222 236 255
222 236 255
222 236 255
222 236 255
222 236 255
222 236 255
222 236 255
222 236 255
222 236 255
222 236 255
222 236 255
222 236 255
222 236 255
222 236 255
222 236 255
222 236 255
222 236 255
222 236 255
222 236 255
222 236 255
222 236 255
222 236 255
222 236 255
222 236 255
222 236 255
222 236 255
222 236 255
222 236 255
222 236 255
222 236 255
222 236 255
222 236 255
222 236 255
222 236 255
222 236 255
222 236 255
222 236 255
222 236 255
222 236 255
222 236 255
222 236 255
222 236 255
222 236 255
222 236 255
222 236 255
222 236 255
222 236 255
222 236 255
222 236 255
222 236 255
222 236 255
222 236 255
222 236 255
222 236 255
222 236 255
222 236 255
222 236 255
222 236 255
222 236 255
222 236 255
222 236 255
222 236 255
222 236 255
222 236 255
222 236 255
222 236 255
222 236 255
222 236 255
222 236 255
222 236 255
222 236 255
222 236 255
222 236 255
222 236 255
222 236 255
222 236 255
222 236 255
222 236 255
222 236 255
222 236 255
222 236 255
222 236 255
222 236 255
222 236 255
222 236 255
222 236 255
222 236 255
222 236 255
222 236 255
222 236 255
222 236 255
222 236 255
222 236 255
222 236 255
222 236 255
222 236 255
222 236 255
222 236 255
222 236 255
222 236 255
222 236 255
222 236 255
222 236 255
222 236 255
222 236 255
222 236 255
222 236 255
222 236 255
222 236 255
222 236 255
222 236 255
222 236 255
222 236 255
222 236 255
222 236 255
222 236 255
222 236 255
222 236 255
222 236 255
222 236 255
222 236 255
222 236 255
222 236 255
222 236 255
184 200 192
186 202 200
186 202 199
186 201 199
184 200 194
183 199 187
183 199 188
185 201 195
184 200 194
185 201 196
181 197 180
185 201 195
184 200 192
182 198 184
184 200 194
186 201 199
185 201 194
186 202 203
184 200 194
184 200 191
182 198 187
185 200 195
185 201 198
186 201 195
181 198 184
183 200 191
187 202 198
182 199 187
185 200 192
183 199 188
186 202 200
186 201 199
182 198 187
181 197 180
183 199 191
184 200 194
183 199 188
185 201 198
185 201 196
184 200 195
187 203 206
182 198 186
185 201 196
184 200 194
186 202 202
185 201 198
186 201 198
183 199 188
184 200 195
183 199 190
185 201 196
182 198 186
185 201 198
187 202 203
187 202 206
184 200 191
184 200 192
185 201 196
185 201 196
182 198 187
181 198 186
187 202 203
183 199 186
181 198 186
187 202 203
182 198 190
183 199 188
186 201 199
181 198 183
185 201 196
183 199 192
184 200 196
183 199 191
184 200 198
181 197 183
185 201 195
186 202 203
183 199 192
184 200 196
185 201 195
184 200 200
184 199 188
183 199 188
182 198 184
184 200 194
183 199 188
181 198 190
182 199 191
184 199 191
185 201 198
180 197 183
184 200 199
184 200 192
187 202 202
184 200 198
181 198 186
185 201 199
181 198 188
186 202 202
182 198 188
184 200 192
185 201 200
184 201 198
187 202 203
184 201 200
179 195 172
183 199 191
183 199 192
174 191 170
174 191 187
173 190 193
161 179 179
157 174 168
156 173 168
149 167 170
142 160 164
136 155 158
134 151 164
110 130 140
111 130 145
103 123 148
73 98 131
66 92 132
52 82 121
50 79 123
49 78 111
51 81 121
50 79 119
45 73 99
49 78 117
48 77 117
43 69 105
45 73 100
42 67 95
47 74 114
43 69 106
43 69 107
39 63 98
42 67 100
35 58 95
35 57 91
35 57 97
28 47 81
32 52 87
29 48 88
31 45 73
99 111 126
139 153 161
116 135 148
51 81 129
52 83 126
55 87 133
55 87 134
57 90 135
57 91 132
58 91 130
59 93 137
58 91 128
58 92 134
60 94 149
58 92 133
58 92 131
58 92 131
59 93 139
59 94 143
60 95 142
60 94 138
58 93 132
60 94 137
60 94 135
59 93 124
60 95 139
59 93 133
60 93 134
59 93 130
59 94 135
60 94 139
60 95 134
60 95 137
61 96 148
61 96 141
60 94 136
61 96 139
61 95 135
61 96 146
59 93 123
60 94 134
60 95 138
60 95 130
61 96 150
59 93 127
61 95 135
60 94 132
60 94 128
61 96 148
59 94 132
61 96 141
58 92 125
61 96 144
60 95 137
62 97 147
60 94 131
60 95 135
61 96 140
60 94 135
59 94 130
60 94 133
61 96 135
60 95 133
62 98 149
60 95 131
60 94 134
60 95 139
61 96 143
59 94 137
60 94 135
61 96 143
61 96 143
61 96 140
60 95 137
61 95 141
60 95 130
59 94 131
61 96 144
62 97 149
60 94 130
61 96 143
60 94 133
60 95 142
61 95 144
59 94 126
62 97 148
60 95 135
60 95 130
60 95 136
60 95 136
62 97 148
62 97 137
59 94 134
61 96 130
61 96 144
63 98 148
61 95 140
62 97 151
62 97 144
61 95 143
64 99 156
63 98 145
62 97 149
64 99 153
65 100 161
156 175 208
222 236 255
222 236 255
222 236 255
222 236 255
222 236 255
222 236 255
222 236 255
222 236 255
222 236 255
222 236 255
222 236 255
222 236 255
222 236 255
222 236 255
222 236 255
222 236 255
222 236 255
222 236 255
222 236 255
222 236 255
222 236 255
222 236 255
222 236 255
222 236 255
222 236 255
221 236 255
221 236 255
221 236 255
221 236 255
221 236 255
221 236 255
221 236 255
221 236 255
221 236 255
221 236 255
221 236 255
221 236 255
221 236 255
221 236 255
221 236 255
221 236 255
221 236 255
221 236 255
221 236 255
221 236 255
221 236 255
221 236 255
221 236 255
221 236 255
221 236 255
221 236 255
221 236 255
221 236 255
221 236 255
221 236 255
221 236 255
221 236 255
221 236 255
221 236 255
221 236 255
221 236 255
221 236 255
221 236 255
221 236 255
221 236 255
221 236 255
221 236 255
221 236 255
221 236 255
221 236 255
221 236 255
221 236 255
221 236 255
221 236 255
221 236 255
221 236 255
221 236 255
221 236 255
221 236 255
221 236 255
221 236 255
221 236 255
221 236 255
221 236 255
221 236 255
221 236 255
221 236 255
221 236 255
221 236 255
221 236 255
221 236 255
221 236 255
221 236 255
221 236 255
221 236 255
221 236 255
221 236 255
221 236 255
221 236 255
221 236 255
221 236 255
221 236 255
221 236 255
221 236 255
221 236 255
221 236 255
221 236 255
221 236 255
221 236 255
221 236 255
221 236 255
221 236 255
221 236 255
221 236 255
221 236 255
221 236 255
221 236 255
221 236 255
221 236 255
221 236 255
221 236 255
221 236 255
221 236 255
221 236 255
221 236 255
221 236 255
221 236 255
221 236 255
221 236 255
221 236 255
221 236 255
221 236 255
221 236 255
221 236 255
221 236 255
221 236 255
221 236 255
221 236 255
221 236 255
221 236 255
221 236 255
221 236 255
221 236 255
221 236 255
221 236 255
221 236 255
221 236 255
221 236 255
186 201 194
185 200 195
180 196 174
183 199 190
187 202 200
181 198 183
183 199 186
184 200 190
185 200 192
184 200 191
180 197 177
183 199 188
183 199 188
179 196 174
184 200 192
184 200 192
181 198 184
181 198 183
184 199 188
184 200 188
182 198 188
182 198 187
181 197 180
179 196 171
184 200 194
185 201 198
185 201 194
183 199 186
184 200 192
184 200 194
183 199 190
183 199 186
184 200 192
183 199 188
184 200 194
181 197 181
182 198 184
184 200 195
179 196 172
182 198 181
182 198 183
185 201 199
183 199 187
178 195 172
183 199 188
184 200 194
183 199 187
180 197 177
178 195 172
185 201 198
183 199 187
182 198 184
182 198 186
181 198 180
186 201 198
182 198 183
183 200 194
183 199 187
185 201 195
184 200 191
183 199 187
183 199 187
185 200 195
186 201 200
185 200 192
184 200 190
181 198 181
183 199 188
182 199 188
183 199 187
183 199 188
182 199 186
181 197 180
182 199 186
182 198 187
183 199 190
180 197 178
182 199 188
183 199 190
182 198 187
181 198 186
184 199 187
185 201 196
184 200 192
184 199 190
181 197 180
182 198 183
182 198 184
180 196 172
182 198 186
180 197 181
182 199 188
183 199 188
179 196 178
183 199 191
181 197 180
178 195 172
183 199 186
184 200 194
184 200 191
183 199 192
178 194 171
180 197 180
180 197 181
181 197 181
183 199 191
181 198 187
179 195 179
176 193 179
167 184 176
167 185 170
164 181 183
151 168 170
155 172 164
149 166 161
140 158 160
136 153 159
129 147 155
119 137 152
109 128 143
85 107 133
80 103 136
59 88 127
49 78 114
50 80 124
47 75 111
48 76 110
47 76 114
49 77 113
47 76 110
45 72 104
46 74 116
47 75 121
44 71 104
45 72 107
45 71 105
43 70 106
42 68 97
39 63 97
37 59 89
34 56 95
35 57 96
35 57 97
30 49 82
27 45 72
38 53 84
84 96 97
126 140 132
123 141 157
53 84 129
52 83 118
56 89 141
55 87 121
56 88 134
56 90 127
57 91 133
58 92 138
59 93 134
59 93 141
57 91 125
59 92 142
60 94 144
58 92 131
59 93 143
58 92 127
58 92 130
58 92 131
60 95 142
59 94 136
58 93 129
59 94 142
59 93 126
59 93 133
59 93 135
60 94 143
59 93 131
60 95 135
59 94 137
60 95 130
60 95 136
59 94 136
60 95 139
61 95 137
60 95 136
60 94 133
60 95 135
60 95 136
60 95 138
60 94 136
60 94 132
60 94 137
60 95 136
61 96 147
60 94 131
60 95 130
61 96 132
59 93 131
60 94 141
60 95 136
60 94 133
58 92 122
60 95 131
60 95 142
61 96 142
61 96 139
61 96 142
57 91 114
60 95 133
59 94 133
61 96 142
60 95 141
59 94 135
60 95 135
59 94 134
61 96 135
60 94 133
60 95 126
60 95 126
60 95 131
61 96 135
60 95 136
61 95 136
61 96 135
60 94 133
61 96 147
60 95 134
60 95 133
59 93 125
60 94 140
60 94 137
60 96 145
60 94 134
61 96 137
60 95 137
61 96 139
61 96 129
60 95 141
61 96 136
61 96 142
61 96 139
61 96 140
62 96 136
62 97 144
61 96 137
63 98 152
63 98 148
63 98 150
61 96 145
63 98 145
64 99 151
64 99 154
157 176 206
221 236 255
221 236 255
221 236 255
221 236 255
221 236 255
221 236 255
221 236 255
221 236 255
221 236 255
221 236 255
221 236 255
221 236 255
221 236 255
221 236 255
221 236 255
221 236 255
221 236 255
221 236 255
221 236 255
221 236 255
221 236 255
221 236 255
221 236 255
221 236 255
221 236 255
221 236 255
221 236 255
221 236 255
221 236 255
221 236 255
221 236 255
221 236 255
221 236 255
221 236 255
221 236 255
221 236 255
221 236 255
221 236 255
221 236 255
221 236 255
221 236 255
221 236 255
221 236 255
221 236 255
221 236 255
221 236 255
221 236 255
221 236 255
221 236 255
221 236 255
221 236 255
221 236 255
221 236 255
221 236 255
221 236 255
221 236 255
221 236 255
221 236 255
221 236 255
221 236 255
221 236 255
221 236 255
221 236 255
221 236 255
221 236 255
221 236 255
221 236 255
221 236 255
221 236 255
221 236 255
221 236 255
221 236 255
221 236 255
221 236 255
221 236 255
221 236 255
221 236 255
221 236 255
221 236 255
221 236 255
221 236 255
221 236 255
221 236 255
221 236 255
221 236 255
221 236 255
221 236 255
221 236 255
221 236 255
221 236 255
221 236 255
221 236 255
221 236 255
221 236 255
221 236 255
221 236 255
221 236 255
221 236 255
221 236 255
221 236 255
221 236 255
221 236 255
221 236 255
221 236 255
221 236 255
221 236 255
221 236 255
221 236 255
221 236 255
221 236 255
221 236 255
221 236 255
221 236 255
221 236 255
221 236 255
221 236 255
221 236 255
221 236 255
221 236 255
221 236 255
221 236 255
221 236 255
221 236 255
221 236 255
221 236 255
221 236 255
221 236 255
221 236 255
221 236 255
221 236 255
221 236 255
221 236 255
221 236 255
221 236 255
221 236 255
221 236 255
221 236 255
221 236 255
221 236 255
221 236 255
221 236 255
221 236 255
221 236 255
221 236 255
221 236 255
221 236 255
221 236 255
221 236 255
183 199 187
184 200 188
183 199 188
183 199 188
182 198 186
183 199 187
181 197 178
182 198 184
181 197 181
184 199 188
183 199 190
180 197 177
180 196 177
182 198 186
181 197 180
181 197 181
181 197 177
183 200 191
181 197 178
182 198 181
180 197 180
184 200 194
181 197 177
182 198 184
178 195 168
181 197 183
181 198 183
181 197 181
184 200 190
181 197 181
181 197 181
181 197 180
182 198 183
182 198 183
177 194 166
183 199 187
180 197 178
180 197 177
180 196 172
183 199 188
182 198 183
179 196 174
183 199 187
186 202 200
185 200 190
185 200 194
184 200 195
177 194 168
181 197 178
185 200 191
182 198 186
180 197 178
183 199 187
181 197 181
178 195 166
180 197 178
180 196 178
182 199 186
181 197 180
179 196 175
180 196 180
179 195 172
182 198 183
182 198 184
183 199 187
186 201 196
179 196 168
184 200 194
181 197 181
180 196 177
177 194 166
180 196 172
184 200 190
183 199 188
182 198 181
181 197 180
185 200 188
184 200 190
179 196 177
181 197 178
181 197 177
182 199 186
183 199 184
183 199 188
178 195 169
181 198 180
181 197 177
183 199 188
180 197 180
179 196 174
183 199 187
181 198 181
177 194 166
180 197 177
182 198 184
180 197 180
182 198 181
179 196 175
179 196 177
179 196 172
179 195 172
182 198 186
182 198 183
183 199 187
182 198 180
178 195 175
178 195 169
177 194 168
175 192 165
172 189 170
163 180 161
155 173 151
157 174 161
150 168 152
144 162 160
138 156 158
136 155 143
111 131 136
119 139 143
110 130 141
93 115 141
81 104 129
66 92 124
50 79 116
49 78 102
48 76 109
50 79 114
50 79 111
49 77 111
47 76 112
47 74 110
45 72 105
44 70 94
45 72 111
44 70 107
43 68 94
40 66 96
42 67 105
37 60 95
39 63 94
33 54 82
34 55 88
32 52 79
32 53 87
24 40 66
37 53 80
93 103 112
135 149 149
122 139 158
51 82 123
53 85 124
55 87 124
56 89 123
57 90 129
58 92 138
57 89 129
56 90 124
56 89 122
57 91 124
56 89 124
59 94 139
59 93 134
60 94 142
58 92 130
58 93 138
58 92 130
59 93 138
59 93 128
59 92 138
59 94 130
58 91 126
60 94 134
59 94 128
60 94 136
59 94 134
58 93 133
59 94 134
59 93 123
59 93 130
60 95 130
59 94 126
59 93 121
61 96 150
59 94 136
59 93 136
60 94 130
61 96 141
60 95 129
60 95 135
58 92 125
60 95 131
61 96 134
60 94 134
60 94 131
61 96 144
60 94 131
60 95 144
60 94 136
59 94 130
59 93 129
59 93 133
59 94 137
60 95 141
60 95 135
59 94 139
60 95 131
60 94 126
60 95 131
59 94 122
61 95 145
59 93 131
61 96 144
60 94 129
60 94 133
59 93 120
61 96 141
60 95 139
61 96 137
60 94 133
59 93 121
60 94 137
61 96 141
59 94 130
60 95 134
61 96 143
60 94 136
61 96 139
61 96 144
60 95 135
60 94 140
61 96 134
60 94 133
61 96 141
61 96 141
60 94 129
60 95 135
60 96 147
62 97 148
62 96 137
62 97 141
62 97 144
60 95 141
61 95 144
60 95 135
62 97 147
62 97 143
63 98 151
62 97 150
62 97 153
64 98 153
65 100 158
163 181 214
221 235 255
221 235 255
221 235 255
221 235 255
221 235 255
221 235 255
221 235 255
221 235 255
221 235 255
221 235 255
221 235 255
221 235 255
221 235 255
221 235 255
221 235 255
221 235 255
221 235 255
221 235 255
221 235 255
221 235 255
221 235 255
221 235 255
221 235 255
221 235 255
221 235 255
221 235 255
221 235 255
221 235 255
221 235 255
221 235 255
221 235 255
221 235 255
221 235 255
221 235 255
221 235 255
221 235 255
221 235 255
221 235 255
221 235 255
221 235 255
221 235 255
221 235 255
221 235 255
221 235 255
221 235 255
221 235 255
221 235 255
221 235 255
221 235 255
221 235 255
221 235 255
221 235 255
221 235 255
221 235 255
221 235 255
221 235 255
221 235 255
221 235 255
221 235 255
221 235 255
221 235 255
221 235 255
221 235 255
221 235 255
221 235 255
221 235 255
221 235 255
221 235 255
221 235 255
221 235 255
221 235 255
221 235 255
221 235 255
221 235 255
221 235 255
221 235 255
221 235 255
221 235 255
221 235 255
221 235 255
221 235 255
221 235 255
221 235 255
221 235 255
221 235 255
221 235 255
221 235 255
221 235 255
221 235 255
221 235 255
221 235 255
221 235 255
221 235 255
221 235 255
221 235 255
221 235 255
221 235 255
221 235 255
221 235 255
221 235 255
221 235 255
221 235 255
221 235 255
221 235 255
221 235 255
221 235 255
221 235 255
221 235 255
221 235 255
221 235 255
221 235 255
221 235 255
221 235 255
221 235 255
221 235 255
221 235 255
221 235 255
221 235 255
221 235 255
221 235 255
221 235 255
221 235 255
221 235 255
221 235 255
221 235 255
221 235 255
221 235 255
221 235 255
221 235 255
221 235 255
221 235 255
221 235 255
221 235 255
221 235 255
221 235 255
221 235 255
221 235 255
221 235 255
221 235 255
221 235 255
221 235 255
221 235 255
221 235 255
221 235 255
221 235 255
221 235 255
221 235 255
221 235 255
185 200 192
183 198 183
182 198 183
183 199 188
181 197 178
184 200 190
177 194 168
183 199 187
182 198 184
184 200 188
183 199 186
183 199 184
185 201 195
186 201 195
182 198 183
181 197 184
179 196 172
182 198 181
181 197 174
182 198 181
180 197 174
180 197 177
183 199 184
181 198 183
183 199 190
179 196 172
181 197 177
179 196 171
178 194 168
180 196 175
182 198 181
179 195 174
180 197 181
180 196 174
180 196 174
181 198 183
179 196 172
181 197 180
180 197 178
177 194 168
177 194 163
185 200 190
183 198 184
179 195 169
181 197 180
178 195 169
179 196 172
182 198 181
182 198 187
180 196 177
178 195 168
182 198 184
178 195 168
181 197 178
180 197 175
180 196 172
179 195 168
181 197 177
181 197 184
180 197 180
181 197 177
178 195 169
180 196 178
180 196 174
179 195 168
177 194 166
178 194 165
176 193 161
182 198 180
181 197 180
180 196 177
182 198 177
180 196 175
177 194 168
178 194 165
178 194 171
177 193 165
177 194 161
175 193 160
180 196 174
177 194 168
175 193 155
179 196 174
179 195 168
177 194 165
180 196 172
177 194 161
181 197 183
179 195 172
178 195 166
178 195 168
176 194 166
178 195 171
177 194 166
181 197 180
177 194 163
180 197 178
176 193 165
174 191 151
177 193 166
178 195 168
179 196 175
176 193 171
176 193 161
178 194 171
180 197 181
177 194 169
174 191 160
174 190 171
168 185 166
163 180 166
161 179 155
155 173 154
152 170 150
150 168 152
143 160 145
131 149 143
115 134 143
106 127 132
99 121 122
99 120 128
75 100 126
54 83 115
48 77 115
48 77 108
48 77 97
48 77 108
48 77 111
47 75 106
47 75 110
47 75 115
46 73 107
43 69 99
44 70 106
42 67 100
39 63 90
39 63 88
40 64 90
37 60 87
37 60 93
35 57 88
35 57 78
29 48 72
29 47 67
25 42 53
40 56 78
91 102 108
129 143 136
113 130 142
50 80 115
55 87 134
53 84 114
55 87 115
55 88 115
54 86 121
57 91 129
57 90 125
56 88 123
56 89 126
59 93 141
57 91 132
57 90 120
58 92 130
58 91 124
59 93 137
59 93 131
60 94 137
59 93 133
59 93 134
58 92 124
60 94 137
58 92 120
59 93 132
60 95 139
60 94 136
61 95 132
59 93 128
60 95 140
60 94 138
60 94 133
59 93 132
61 96 145
59 94 130
60 95 145
60 95 130
60 95 133
61 96 134
58 92 126
61 96 146
60 95 127
59 93 130
60 94 131
61 95 134
61 96 142
58 92 134
59 94 130
61 96 142
61 96 139
60 94 136
60 95 133
60 95 129
61 96 142
59 94 135
59 94 122
61 96 137
60 94 134
60 94 126
59 93 124
62 97 149
60 94 130
59 94 130
61 96 139
60 95 125
60 95 135
60 95 140
60 95 140
61 96 140
60 94 126
60 94 133
60 95 129
60 94 135
60 94 134
61 96 142
60 95 134
59 93 129
60 95 137
60 95 133
60 95 137
60 94 133
61 96 136
61 96 139
61 95 133
60 94 130
61 96 143
60 94 134
58 92 125
60 94 137
60 95 134
60 95 141
61 96 147
62 96 145
62 97 149
61 96 143
62 97 145
60 95 134
62 97 142
62 97 142
61 96 139
64 100 157
63 98 148
64 99 155
165 183 214
220 235 255
220 235 255
220 235 255
220 235 255
220 235 255
220 235 255
220 235 255
220 235 255
220 235 255
220 235 255
220 235 255
220 235 255
220 235 255
220 235 255
220 235 255
220 235 255
220 235 255
221 235 255
221 235 255
221 235 255
221 235 255
221 235 255
221 235 255
221 235 255
221 235 255
221 235 255
221 235 255
221 235 255
221 235 255
221 235 255
221 235 255
221 235 255
221 235 255
221 235 255
221 235 255
221 235 255
221 235 255
221 235 255
221 235 255
221 235 255
221 235 255
221 235 255
221 235 255
221 235 255
221 235 255
221 235 255
221 235 255
221 235 255
221 235 255
221 235 255
221 235 255
221 235 255
221 235 255
221 235 255
221 235 255
221 235 255
221 235 255
221 235 255
221 235 255
221 235 255
221 235 255
221 235 255
221 235 255
221 235 255
221 235 255
221 235 255
221 235 255
221 235 255
221 235 255
221 235 255
221 235 255
221 235 255
221 235 255
221 235 255
221 235 255
221 235 255
221 235 255
221 235 255
221 235 255
221 235 255
221 235 255
221 235 255
221 235 255
221 235 255
221 235 255
221 235 255
221 235 255
221 235 255
221 235 255
221 235 255
221 235 255
221 235 255
221 235 255
221 235 255
221 235 255
221 235 255
221 235 255
221 235 255
221 235 255
221 235 255
221 235 255
221 235 255
221 235 255
221 235 255
221 235 255
221 235 255
221 235 255
221 235 255
221 235 255
221 235 255
221 235 255
221 235 255
221 235 255
221 235 255
221 235 255
221 235 255
221 235 255
221 235 255
221 235 255
221 235 255
221 235 255
221 235 255
221 235 255
221 235 255
221 235 255
221 235 255
221 235 255
221 235 255
221 235 255
221 235 255
221 235 255
221 235 255
221 235 255
221 235 255
221 235 255
221 235 255
221 235 255
221 235 255
221 235 255
221 235 255
221 235 255
221 235 255
221 235 255
221 235 255
221 235 255
221 235 255
221 235 255
221 235 255
180 197 175
183 199 186
178 194 165
182 198 184
180 197 175
186 201 195
177 194 165
180 197 180
180 196 174
178 195 169
182 198 181
182 198 184
178 195 169
177 194 160
177 194 166
183 199 183
178 194 168
179 195 169
179 196 175
180 197 175
180 196 171
178 195 169
181 198 183
178 195 171
178 195 168
178 195 169
178 194 168
180 196 174
179 196 172
178 195 165
182 198 180
181 197 178
179 196 172
180 196 177
183 199 187
180 196 172
180 196 175
180 197 178
179 196 171
180 196 175
184 200 188
179 196 172
180 196 169
175 192 153
179 196 172
181 197 177
178 195 169
179 196 172
178 194 163
183 199 184
178 195 168
179 196 171
176 194 163
177 194 163
179 195 169
175 193 155
182 198 183
178 195 168
176 193 158
179 195 174
175 192 156
178 194 169
178 195 171
180 196 174
178 194 168
174 192 151
180 196 172
173 191 151
174 191 151
179 196 171
175 192 160
177 194 165
178 195 169
178 194 163
178 194 168
179 195 169
180 196 175
180 196 175
176 193 160
178 194 163
177 194 160
175 192 156
177 193 158
180 196 174
174 191 158
178 195 166
177 194 163
181 197 175
178 195 168
179 195 166
179 195 166
174 191 153
174 192 155
181 197 178
177 193 171
179 195 174
176 193 161
178 195 166
178 195 168
179 196 169
175 192 161
174 191 151
174 192 155
176 193 158
177 194 161
178 195 165
176 193 166
177 193 165
170 187 150
163 181 151
157 175 143
159 175 154
156 174 148
151 168 151
145 163 142
127 145 129
130 149 140
120 138 139
106 126 122
89 111 126
91 113 115
77 101 112
56 84 108
51 80 111
48 77 105
50 79 111
50 80 112
47 75 110
49 77 113
47 75 106
45 72 99
47 75 112
47 75 104
44 71 101
42 67 85
42 68 97
41 66 90
39 62 96
40 65 87
37 60 85
34 55 83
34 56 79
30 48 67
30 50 71
27 45 62
46 57 66
91 104 92
132 147 131
133 150 147
50 80 119
54 85 129
55 88 125
56 89 122
56 88 124
56 88 120
57 90 133
57 91 129
57 91 128
56 89 124
58 92 133
59 94 138
57 91 128
59 93 139
58 92 134
59 94 140
59 94 136
59 93 137
58 93 131
60 94 137
60 95 138
59 94 132
59 93 127
60 95 137
59 93 127
61 96 139
60 94 135
59 93 131
60 95 139
59 93 121
60 94 138
60 94 138
59 94 134
61 96 143
59 93 135
60 95 134
59 93 131
60 95 132
60 95 131
59 94 129
59 93 120
58 92 122
60 95 131
60 94 133
61 96 144
58 92 134
61 96 138
59 93 128
60 95 137
57 91 118
60 95 129
59 94 126
61 96 139
61 96 135
60 95 128
60 95 136
60 94 135
60 94 124
60 95 133
61 96 142
62 97 149
61 96 134
60 94 130
60 95 137
58 92 117
60 94 130
62 96 135
59 93 135
59 93 131
60 94 133
61 96 133
61 95 133
61 96 142
59 94 130
60 95 135
61 96 140
58 92 117
59 93 124
61 96 142
60 94 141
61 95 139
60 95 135
61 95 143
60 94 137
60 95 130
60 94 134
62 97 144
60 94 126
60 95 136
61 96 134
61 96 139
60 94 133
62 97 150
60 95 139
61 96 136
62 97 145
62 97 148
63 99 156
64 98 152
63 97 142
64 99 155
65 100 160
173 191 220
219 234 255
219 234 255
219 235 255
220 235 255
220 235 255
220 235 255
220 235 255
220 235 255
220 235 255
220 235 255
220 235 255
220 235 255
220 235 255
220 235 255
220 235 255
220 235 255
220 235 255
220 235 255
220 235 255
220 235 255
220 235 255
220 235 255
220 235 255
220 235 255
220 235 255
220 235 255
220 235 255
220 235 255
220 235 255
220 235 255
220 235 255
220 235 255
220 235 255
220 235 255
220 235 255
220 235 255
220 235 255
220 235 255
220 235 255
220 235 255
220 235 255
220 235 255
221 235 255
221 235 255
221 235 255
221 235 255
221 235 255
221 235 255
221 235 255
221 235 255
221 235 255
221 235 255
221 235 255
221 235 255
221 235 255
221 235 255
221 235 255
221 235 255
221 235 255
221 235 255
221 235 255
221 235 255
221 235 255
221 235 255
221 235 255
221 235 255
221 235 255
221 235 255
221 235 255
221 235 255
221 235 255
221 235 255
221 235 255
221 235 255
221 235 255
221 235 255
221 235 255
221 235 255
221 235 255
221 235 255
221 235 255
221 235 255
221 235 255
221 235 255
221 235 255
221 235 255
221 235 255
221 235 255
221 235 255
221 235 255
221 235 255
221 235 255
221 235 255
221 235 255
221 235 255
221 235 255
221 235 255
221 235 255
221 235 255
221 235 255
221 235 255
221 235 255
221 235 255
221 235 255
221 235 255
221 235 255
221 235 255
221 235 255
221 235 255
221 235 255
221 235 255
221 235 255
221 235 255
221 235 255
221 235 255
221 235 255
221 235 255
221 235 255
221 235 255
221 235 255
221 235 255
221 235 255
221 235 255
221 235 255
221 235 255
221 235 255
221 235 255
221 235 255
221 235 255
221 235 255
221 235 255
221 235 255
221 235 255
221 235 255
221 235 255
221 235 255
221 235 255
221 235 255
221 235 255
221 235 255
221 235 255
221 235 255
221 235 255
221 235 255
221 235 255
221 235 255
221 235 255
221 235 255
179 196 171
181 197 180
177 194 161
176 193 156
184 199 188
178 195 166
183 199 184
177 194 166
177 194 163
177 194 163
183 198 183
180 196 174
180 197 177
182 198 184
178 194 165
180 196 174
175 193 156
180 196 171
181 197 178
175 193 155
175 193 158
179 196 174
180 196 169
181 197 174
176 193 163
180 197 175
175 192 153
176 193 160
179 196 171
175 192 155
179 196 171
181 197 178
178 195 168
176 193 156
181 197 178
177 194 163
179 195 171
180 196 174
176 192 158
177 194 158
178 195 166
181 197 175
176 193 160
173 190 151
181 197 180
179 195 165
178 195 169
176 193 156
179 195 168
178 194 168
176 193 160
178 195 166
179 195 174
178 194 165
178 194 166
176 193 163
178 195 163
177 194 165
179 195 177
178 195 168
178 195 163
179 195 169
180 195 168
177 194 160
176 193 156
174 192 156
178 195 169
174 191 155
176 193 155
173 190 146
177 194 165
173 191 151
176 193 160
178 195 163
175 192 150
180 196 174
175 192 158
181 197 180
178 194 161
174 191 153
181 196 172
174 191 155
177 194 163
178 195 168
177 193 161
175 192 156
175 192 155
174 191 158
180 196 174
174 192 155
172 189 153
174 191 150
176 193 153
175 192 156
172 190 150
176 193 161
176 193 160
176 193 161
177 194 166
176 193 153
176 192 165
173 190 156
176 193 155
167 185 139
171 188 144
170 188 137
175 192 160
175 192 155
173 190 169
166 184 145
162 180 144
156 174 142
150 168 136
142 160 133
138 156 140
131 149 137
118 137 127
117 137 123
113 133 116
94 115 113
79 102 123
65 91 110
62 88 100
54 83 120
50 80 109
47 75 92
49 78 110
48 75 113
45 72 99
49 78 106
47 74 94
48 77 112
44 70 98
45 72 100
44 70 87
42 66 94
39 63 89
41 66 95
38 62 92
37 60 75
34 55 84
35 57 82
32 52 78
27 44 62
22 37 54
50 61 69
101 114 105
144 158 151
144 159 163
48 77 108
51 82 116
55 87 119
54 86 127
54 86 115
55 88 119
58 91 133
56 89 125
59 93 128
57 90 112
58 91 129
60 94 134
56 89 124
59 93 136
59 93 142
58 92 132
59 93 134
59 92 128
58 92 129
58 92 124
59 93 126
58 92 125
60 94 134
60 95 136
61 95 144
60 95 136
58 92 124
60 95 138
60 95 139
59 94 133
59 93 136
60 94 138
59 93 134
60 94 133
60 94 129
59 93 125
59 93 131
60 94 136
58 93 129
60 94 129
60 95 136
60 94 126
59 93 130
60 94 136
60 95 135
59 94 130
59 93 125
60 94 130
58 92 118
60 95 133
60 94 129
60 94 134
60 94 131
60 94 125
60 95 125
60 95 134
59 93 131
59 93 130
60 95 137
60 95 135
60 94 131
59 93 125
61 96 140
60 94 135
59 93 131
60 95 128
59 94 134
57 91 117
60 95 136
60 94 139
60 95 141
59 94 128
61 96 140
59 94 126
61 96 141
59 93 126
61 96 137
61 97 142
61 96 140
60 95 130
59 93 120
59 94 137
61 95 141
60 95 137
61 95 129
62 97 144
60 95 133
60 94 135
62 97 140
60 95 137
61 96 137
60 94 137
60 95 135
60 95 133
60 95 137
61 96 137
62 97 141
59 94 126
63 98 151
63 98 150
64 98 149
64 99 156
170 188 219
218 234 255
219 234 255
219 234 255
219 234 255
219 234 255
219 234 255
219 234 255
219 234 255
219 234 255
219 235 255
220 235 255
220 235 255
220 235 255
220 235 255
220 235 255
220 235 255
220 235 255
220 235 255
220 235 255
220 235 255
220 235 255
220 235 255
220 235 255
220 235 255
220 235 255
220 235 255
220 235 255
220 235 255
220 235 255
220 235 255
220 235 255
220 235 255
220 235 255
220 235 255
220 235 255
220 235 255
220 235 255
220 235 255
220 235 255
220 235 255
220 235 255
220 235 255
220 235 255
220 235 255
220 235 255
220 235 255
220 235 255
220 235 255
220 235 255
220 235 255
220 235 255
220 235 255
220 235 255
220 235 255
220 235 255
220 235 255
220 235 255
220 235 255
220 235 255
220 235 255
220 235 255
220 235 255
220 235 255
220 235 255
220 235 255
220 235 255
220 235 255
220 235 255
220 235 255
220 235 255
220 235 255
220 235 255
220 235 255
220 235 255
220 235 255
220 235 255
220 235 255
220 235 255
220 235 255
220 235 255
220 235 255
220 235 255
220 235 255
220 235 255
220 235 255
220 235 255
220 235 255
220 235 255
220 235 255
220 235 255
220 235 255
220 235 255
220 235 255
220 235 255
220 235 255
220 235 255
220 235 255
220 235 255
220 235 255
220 235 255
220 235 255
220 235 255
220 235 255
220 235 255
220 235 255
220 235 255
220 235 255
220 235 255
220 235 255
220 235 255
220 235 255
220 235 255
220 235 255
220 235 255
220 235 255
220 235 255
220 235 255
220 235 255
220 235 255
220 235 255
220 235 255
220 235 255
220 235 255
220 235 255
220 235 255
220 235 255
220 235 255
220 235 255
220 235 255
220 235 255
220 235 255
220 235 255
220 235 255
220 235 255
220 235 255
220 235 255
220 235 255
220 235 255
220 235 255
220 235 255
220 235 255
220 235 255
220 235 255
220 235 255
220 235 255
220 235 255
220 235 255
220 235 255
181 197 174
177 194 161
179 195 171
179 196 169
178 195 166
180 196 171
180 196 172
174 191 146
174 192 151
178 194 165
179 196 172
179 195 166
177 194 161
177 194 163
178 194 166
179 196 172
178 195 168
177 194 160
176 193 156
174 191 156
180 196 171
176 193 158
178 194 168
180 196 171
176 193 160
177 194 161
175 192 160
178 194 166
177 194 160
174 191 153
180 196 171
177 194 165
174 192 156
179 196 172
174 191 148
179 195 166
173 190 151
179 195 166
174 190 150
180 196 171
174 191 155
178 195 168
176 193 158
174 191 155
172 189 141
176 193 158
171 189 139
176 193 161
177 193 158
180 196 168
172 190 146
172 189 148
175 192 155
176 193 158
172 190 144
175 192 151
174 191 150
179 195 171
174 192 151
174 191 148
171 189 141
174 192 150
176 193 155
175 192 153
173 190 150
172 189 141
175 192 156
174 191 153
172 190 146
173 190 142
176 193 158
175 192 150
176 192 153
177 193 158
176 192 150
175 192 158
171 188 141
168 186 131
170 189 137
178 194 165
177 194 160
173 190 150
176 193 160
178 194 160
174 191 153
174 191 150
168 186 133
174 191 146
176 193 156
178 194 165
173 191 151
176 192 153
171 189 142
174 191 153
173 190 150
171 188 142
170 188 139
170 187 127
177 194 163
170 188 142
175 192 153
177 193 160
170 187 146
169 187 139
171 189 139
172 189 144
175 192 155
168 186 133
173 191 156
164 182 140
152 171 128
153 171 134
155 173 139
139 158 123
142 160 120
124 144 111
137 155 145
106 126 116
111 130 113
104 125 119
94 116 105
74 99 111
62 89 109
53 80 99
48 77 104
47 75 94
48 77 103
49 78 110
47 74 104
48 76 100
45 72 98
46 73 98
44 70 93
42 68 82
41 66 84
40 65 91
42 67 98
38 62 78
38 60 86
36 58 86
32 53 73
30 49 66
31 51 75
29 48 64
28 46 54
55 70 73
97 113 88
150 165 143
151 166 154
47 75 98
52 83 106
53 84 120
54 87 123
54 87 122
54 86 112
55 86 116
56 89 123
58 91 140
56 89 111
57 90 124
56 89 126
58 92 123
59 93 128
59 92 129
59 93 139
59 93 124
58 91 123
58 92 130
58 92 125
58 92 133
59 93 134
58 91 120
59 93 130
59 93 134
59 94 128
59 92 124
58 92 121
58 92 127
59 94 128
60 94 134
59 93 127
59 93 128
59 94 126
59 93 127
60 94 129
60 94 136
59 93 136
60 95 133
60 94 131
58 92 122
61 96 142
61 96 137
62 97 139
59 93 127
59 93 125
60 95 131
61 96 143
59 93 128
59 93 129
60 95 140
57 91 124
58 93 120
61 96 141
59 94 129
61 96 142
60 95 137
59 94 128
60 94 130
60 96 137
59 94 131
60 95 130
60 95 140
60 95 139
59 94 133
60 94 136
59 94 128
61 96 134
61 96 134
60 94 133
61 96 134
60 95 137
58 93 115
60 95 130
60 94 131
59 93 133
60 94 130
61 95 134
60 94 135
59 94 129
60 95 136
59 93 126
61 96 140
57 90 115
60 94 129
59 93 124
60 95 134
60 94 133
62 97 148
60 94 128
62 97 147
61 95 142
61 96 136
61 96 137
61 95 137
61 95 139
61 95 135
61 95 142
63 99 156
61 95 142
62 97 149
64 99 155
180 198 228
218 234 255
218 234 255
218 234 255
218 234 255
219 234 255
219 234 255
219 234 255
219 234 255
219 234 255
219 234 255
219 234 255
219 234 255
219 234 255
219 234 255
219 234 255
219 234 255
219 235 255
219 235 255
220 235 255
220 235 255
220 235 255
220 235 255
220 235 255
220 235 255
220 235 255
220 235 255
220 235 255
220 235 255
220 235 255
220 235 255
220 235 255
220 235 255
220 235 255
220 235 255
220 235 255
220 235 255
220 235 255
220 235 255
220 235 255
220 235 255
220 235 255
220 235 255
220 235 255
220 235 255
220 235 255
220 235 255
220 235 255
220 235 255
220 235 255
220 235 255
220 235 255
220 235 255
220 235 255
220 235 255
220 235 255
220 235 255
220 235 255
220 235 255
220 235 255
220 235 255
220 235 255
220 235 255
220 235 255
220 235 255
220 235 255
220 235 255
220 235 255
220 235 255
220 235 255
220 235 255
220 235 255
220 235 255
220 235 255
220 235 255
220 235 255
220 235 255
220 235 255
220 235 255
220 235 255
220 235 255
220 235 255
220 235 255
220 235 255
220 235 255
220 235 255
220 235 255
220 235 255
220 235 255
220 235 255
220 235 255
220 235 255
220 235 255
220 235 255
220 235 255
220 235 255
220 235 255
220 235 255
220 235 255
220 235 255
220 235 255
220 235 255
220 235 255
220 235 255
220 235 255
220 235 255
220 235 255
220 235 255
220 235 255
220 235 255
220 235 255
220 235 255
220 235 255
220 235 255
220 235 255
220 235 255
220 235 255
220 235 255
220 235 255
220 235 255
220 235 255
220 235 255
220 235 255
220 235 255
220 235 255
220 235 255
220 235 255
220 235 255
220 235 255
220 235 255
220 235 255
220 235 255
220 235 255
220 235 255
220 235 255
220 235 255
220 235 255
220 235 255
220 235 255
220 235 255
220 235 255
220 235 255
220 235 255
220 235 255
220 235 255
220 235 255
220 235 255
220 235 255
220 235 255
177 194 160
178 195 163
176 193 158
178 195 165
175 192 155
176 193 160
178 194 163
174 191 151
177 194 165
179 196 169
180 196 175
176 193 156
175 192 153
179 195 168
175 192 155
178 194 163
179 195 168
177 194 163
177 194 161
175 191 151
178 194 165
177 193 156
175 192 151
174 191 148
175 192 153
172 190 142
177 194 161
175 192 155
174 191 150
178 195 168
177 194 158
177 194 163
175 192 150
174 192 153
178 195 163
175 192 151
172 190 141
174 192 151
174 191 148
172 189 146
175 192 153
175 192 155
175 192 153
174 191 150
174 191 150
174 191 153
175 192 155
174 192 150
172 190 139
177 194 161
178 194 161
172 190 150
175 192 150
171 189 135
175 192 156
174 191 146
177 193 161
176 192 158
179 195 165
171 189 139
171 189 137
174 191 150
171 189 142
175 193 156
172 189 137
170 188 133
176 193 156
174 191 146
173 191 142
173 190 148
167 185 127
172 189 142
172 190 146
173 190 148
168 187 127
174 191 153
171 189 142
175 192 150
175 191 150
173 190 144
172 190 135
175 192 151
167 185 127
170 187 133
172 190 141
172 190 146
172 189 144
174 191 146
172 188 146
169 187 133
171 189 141
172 189 135
169 187 129
170 187 137
174 191 146
172 189 148
168 186 131
169 186 129
173 190 156
170 187 137
169 186 137
170 187 129
166 185 121
170 188 137
171 188 135
168 187 135
175 191 160
174 191 156
167 185 134
162 180 125
155 173 137
158 176 129
150 169 126
148 166 126
138 157 121
126 145 117
122 141 114
116 136 107
108 129 98
96 117 103
93 114 101
75 100 94
66 92 101
55 83 108
49 78 94
49 77 96
46 74 103
47 75 105
43 70 80
47 74 102
45 71 95
44 71 102
44 71 99
43 68 96
41 67 95
42 67 89
37 60 73
41 66 93
38 61 85
36 58 72
30 50 64
31 51 64
31 50 54
27 44 60
39 53 55
72 86 73
108 122 95
150 165 148
177 192 186
48 77 108
52 83 120
53 84 120
53 85 121
56 88 134
57 90 133
53 85 104
56 89 120
56 88 121
57 91 133
57 91 121
58 91 122
60 93 138
60 94 139
57 90 120
59 93 139
59 93 132
58 92 126
58 92 127
60 94 129
58 93 128
59 93 129
57 91 123
59 93 123
58 92 131
60 94 135
60 94 131
58 92 126
59 92 128
58 92 126
60 94 132
59 94 129
59 94 126
58 92 128
60 95 134
59 93 126
61 95 129
59 93 136
60 94 126
60 94 133
60 94 137
58 92 118
61 96 136
59 93 128
59 94 137
59 93 128
58 92 114
60 95 134
60 94 128
60 94 141
60 94 124
59 93 128
60 94 131
60 95 135
59 93 128
59 93 126
59 94 130
59 93 128
60 95 134
59 94 125
58 91 125
59 94 129
61 95 133
61 96 139
59 93 120
59 94 129
59 94 131
60 95 136
60 94 130
59 93 126
60 95 136
59 94 137
60 95 145
60 95 134
61 96 137
60 95 135
59 93 121
59 94 125
61 96 139
60 94 130
59 93 129
60 94 126
60 95 134
61 95 135
61 96 142
61 96 135
60 95 137
60 94 131
61 95 139
60 95 133
58 93 122
61 96 131
60 95 133
60 95 133
61 96 131
63 99 157
60 95 142
62 97 140
61 96 140
63 98 151
62 96 142
64 98 159
194 211 240
217 233 255
217 233 255
218 233 255
218 234 255
218 234 255
218 234 255
218 234 255
218 234 255
218 234 255
219 234 255
219 234 255
219 234 255
219 234 255
219 234 255
219 234 255
219 234 255
219 234 255
219 234 255
219 234 255
219 234 255
219 234 255
219 234 255
219 234 255
219 234 255
219 235 255
219 235 255
219 235 255
219 235 255
220 235 255
220 235 255
220 235 255
220 235 255
220 235 255
220 235 255
220 235 255
220 235 255
220 235 255
220 235 255
220 235 255
220 235 255
220 235 255
220 235 255
220 235 255
220 235 255
220 235 255
220 235 255
220 235 255
220 235 255
220 235 255
220 235 255
220 235 255
220 235 255
220 235 255
220 235 255
220 235 255
220 235 255
220 235 255
220 235 255
220 235 255
220 235 255
220 235 255
220 235 255
220 235 255
220 235 255
220 235 255
220 235 255
220 235 255
220 235 255
220 235 255
220 235 255
220 235 255
220 235 255
220 235 255
220 235 255
220 235 255
220 235 255
220 235 255
220 235 255
220 235 255
220 235 255
220 235 255
220 235 255
220 235 255
220 235 255
220 235 255
220 235 255
220 235 255
220 235 255
220 235 255
220 235 255
220 235 255
220 235 255
220 235 255
220 235 255
220 235 255
220 235 255
220 235 255
220 235 255
220 235 255
220 235 255
220 235 255
220 235 255
220 235 255
220 235 255
220 235 255
220 235 255
220 235 255
220 235 255
220 235 255
220 235 255
220 235 255
220 235 255
220 235 255
220 235 255
220 235 255
220 235 255
220 235 255
220 235 255
220 235 255
220 235 255
220 235 255
220 235 255
220 235 255
220 235 255
220 235 255
220 235 255
220 235 255
220 235 255
220 235 255
220 235 255
220 235 255
220 235 255
220 235 255
220 235 255
220 235 255
220 235 255
220 235 255
220 235 255
220 235 255
220 235 255
220 235 255
220 235 255
220 235 255
220 235 255
220 235 255
220 235 255
220 235 255
220 235 255
178 194 161
178 195 161
177 194 163
178 195 166
178 195 163
176 192 151
178 194 168
177 193 158
174 191 148
176 193 158
176 193 156
177 193 158
180 196 169
173 191 148
175 192 153
175 192 150
178 195 163
174 191 148
171 189 144
173 191 146
177 194 158
179 195 168
169 187 125
176 193 160
177 194 160
175 192 150
174 191 158
174 191 142
172 190 141
176 193 156
178 194 161
176 193 156
178 194 161
174 191 151
175 192 150
170 188 135
174 192 153
178 194 160
173 191 142
177 194 158
171 189 129
172 189 133
173 190 141
173 189 141
169 187 121
174 191 146
173 190 142
176 193 155
171 188 139
172 190 139
169 187 129
172 189 139
172 190 142
174 191 146
171 188 141
176 193 155
174 191 146
171 188 137
175 191 144
171 188 135
168 186 127
169 188 131
170 188 135
168 186 121
168 186 118
175 192 160
174 191 153
173 191 151
172 190 137
172 189 139
170 188 141
172 189 139
173 191 146
173 190 139
169 187 127
170 188 127
173 190 144
165 184 114
175 192 153
172 190 139
167 185 125
169 186 123
170 187 131
167 185 123
169 187 137
170 188 139
170 187 127
170 188 137
172 189 142
168 186 123
168 185 125
166 184 123
169 187 127
169 186 135
168 186 123
169 186 135
165 182 123
169 187 133
164 183 112
167 185 121
164 182 125
168 186 123
164 183 112
164 182 118
170 188 133
168 186 129
167 185 133
164 182 131
165 183 134
157 176 114
151 170 113
150 168 110
147 166 120
150 168 114
127 146 107
129 149 126
117 137 98
116 135 94
116 136 114
104 124 113
87 108 96
82 104 86
68 93 90
51 79 101
47 75 98
49 77 97
47 75 101
46 73 92
47 75 94
48 76 103
47 74 87
44 70 85
43 68 91
42 68 80
41 65 71
38 62 82
42 67 92
39 62 77
38 62 80
34 56 74
33 54 64
32 52 64
32 52 64
31 50 61
62 76 66
89 102 90
121 137 111
174 189 175
191 206 201
49 78 102
50 80 104
54 86 120
53 84 110
54 86 119
55 88 106
56 89 124
56 89 120
56 89 120
57 91 127
58 91 123
56 89 118
56 89 117
58 92 134
60 94 139
58 92 128
57 90 125
59 93 128
58 91 116
59 93 128
57 91 129
59 93 128
58 92 126
57 91 120
60 94 142
60 94 129
59 94 127
59 93 126
60 94 131
59 94 133
58 92 124
60 94 131
58 92 126
60 94 126
59 93 128
60 95 127
61 96 132
59 93 130
59 93 126
60 95 132
59 94 129
60 94 128
60 94 120
59 94 130
59 93 129
58 92 122
60 95 136
60 94 131
60 94 133
59 94 128
60 94 125
60 94 137
59 93 126
59 94 133
60 94 130
60 95 134
60 94 125
60 95 133
60 94 135
59 93 134
59 93 121
60 94 133
60 94 129
60 94 131
59 93 122
60 95 137
60 94 133
60 94 126
57 91 114
59 93 121
59 93 126
60 95 136
59 93 128
60 95 140
60 94 135
59 94 125
59 93 126
60 94 135
60 95 133
60 94 131
60 94 134
62 96 143
60 95 131
60 95 136
60 95 137
61 96 139
61 95 139
59 93 136
60 95 133
60 95 135
61 95 137
60 94 131
61 96 140
60 95 133
61 96 139
62 97 139
61 96 144
61 95 133
63 97 152
64 99 155
62 96 142
65 100 161
211 227 250
216 233 255
217 233 255
217 233 255
217 233 255
217 233 255
218 233 255
218 234 255
218 234 255
218 234 255
218 234 255
218 234 255
218 234 255
218 234 255
218 234 255
219 234 255
219 234 255
219 234 255
219 234 255
219 234 255
219 234 255
219 234 255
219 234 255
219 234 255
219 234 255
219 234 255
219 234 255
219 234 255
219 234 255
219 234 255
219 234 255
219 234 255
219 234 255
219 234 255
219 234 255
219 234 255
219 235 255
219 235 255
219 235 255
219 235 255
219 235 255
220 235 255
220 235 255
220 235 255
220 235 255
220 235 255
220 235 255
220 235 255
220 235 255
220 235 255
220 235 255
220 235 255
220 235 255
220 235 255
220 235 255
220 235 255
220 235 255
220 235 255
220 235 255
220 235 255
220 235 255
220 235 255
220 235 255
220 235 255
220 235 255
220 235 255
220 235 255
220 235 255
220 235 255
220 235 255
220 235 255
220 235 255
220 235 255
220 235 255
220 235 255
220 235 255
220 235 255
220 235 255
220 235 255
220 235 255
220 235 255
220 235 255
220 235 255
220 235 255
220 235 255
220 235 255
220 235 255
220 235 255
220 235 255
220 235 255
220 235 255
220 235 255
220 235 255
220 235 255
220 235 255
220 235 255
220 235 255
220 235 255
220 235 255
220 235 255
220 235 255
220 235 255
220 235 255
220 235 255
220 235 255
220 235 255
220 235 255
220 235 255
220 235 255
220 235 255
220 235 255
220 235 255
220 235 255
220 235 255
220 235 255
220 235 255
220 235 255
220 235 255
220 235 255
220 235 255
220 235 255
220 235 255
220 235 255
220 235 255
220 235 255
220 235 255
220 235 255
220 235 255
220 235 255
220 235 255
220 235 255
220 235 255
220 235 255
220 235 255
220 235 255
220 235 255
220 235 255
220 235 255
220 235 255
220 235 255
220 235 255
220 235 255
220 235 255
220 235 255
220 235 255
220 235 255
220 235 255
220 235 255
220 235 255
174 191 153
175 192 153
176 193 158
176 193 156
174 191 146
173 190 144
174 191 148
176 193 158
172 190 137
175 192 150
173 190 142
173 191 144
176 193 161
176 193 153
173 190 144
175 192 155
171 189 144
175 192 153
174 191 148
178 194 160
176 193 158
174 191 151
177 194 161
172 189 133
174 191 148
173 191 150
174 191 150
175 192 148
173 190 151
172 190 139
171 189 135
170 189 133
175 192 148
172 189 135
170 188 127
175 192 151
175 192 155
173 190 144
173 190 146
171 189 135
174 191 142
169 187 137
170 188 133
174 191 150
175 191 151
172 189 139
169 187 131
171 189 135
173 190 150
169 187 121
167 186 121
171 189 135
171 189 135
169 187 131
170 188 129
169 187 129
170 188 129
168 187 125
171 188 131
173 190 144
171 188 135
167 185 112
169 187 131
168 186 127
169 187 121
167 185 118
168 186 118
174 191 146
170 188 133
168 186 125
166 185 114
172 190 139
169 187 123
168 186 127
169 188 131
166 184 112
167 186 118
172 189 135
166 184 114
168 186 123
168 187 123
167 185 118
165 184 112
172 189 139
165 184 114
168 186 123
163 182 97
167 185 131
163 182 109
165 184 112
165 184 109
165 183 114
167 185 125
168 186 116
168 186 118
163 181 112
162 181 104
169 187 135
163 181 114
161 181 94
165 184 109
168 186 114
166 184 123
162 180 107
162 181 102
160 178 107
161 179 104
162 180 125
165 183 121
156 174 116
155 174 122
153 171 126
135 154 93
137 156 100
132 150 119
121 141 100
127 147 100
113 133 106
102 123 82
94 114 92
95 116 73
74 99 102
70 94 89
57 84 95
47 76 94
49 78 95
47 75 84
47 75 93
45 72 88
45 72 84
45 72 96
44 71 90
46 72 99
42 67 74
43 69 77
42 66 84
40 64 81
36 58 63
39 63 82
37 60 74
33 52 66
35 57 63
29 47 54
35 52 55
75 87 76
102 117 77
131 145 118
181 197 178
210 225 229
84 105 127
51 81 103
55 87 120
55 87 118
55 87 117
56 88 126
55 87 119
57 90 126
57 90 134
57 90 117
59 93 129
56 89 116
56 89 119
58 92 134
57 91 119
57 90 120
59 93 132
59 94 135
58 92 123
57 91 129
59 93 133
60 95 132
58 92 132
59 93 127
59 93 127
60 94 141
60 95 135
59 93 129
60 94 133
59 93 133
59 93 130
60 94 138
58 91 124
59 94 133
59 93 129
58 91 124
60 94 132
57 91 122
59 93 125
58 92 118
59 93 128
60 94 128
60 95 135
59 93 118
61 95 131
60 95 129
59 93 125
60 94 132
58 92 126
60 94 137
59 93 129
58 92 128
60 94 135
60 94 130
59 93 126
58 92 121
61 96 134
61 96 140
58 92 125
58 93 130
60 95 128
59 92 122
58 92 128
60 94 136
59 94 125
60 95 131
60 94 134
60 95 131
61 95 133
60 95 129
59 92 125
59 94 125
59 94 128
61 96 140
60 95 133
60 94 130
60 94 135
60 94 121
60 94 129
60 95 136
59 94 129
60 94 131
61 96 137
61 96 136
60 94 129
60 95 140
60 95 128
59 93 129
59 94 128
62 96 141
60 95 135
60 95 140
61 96 139
61 96 135
60 95 131
61 96 140
61 95 143
62 97 148
63 98 148
62 97 142
62 97 145
83 112 163
220 235 255
215 232 255
216 233 255
216 233 255
217 233 255
217 233 255
217 233 255
217 233 255
217 233 255
217 233 255
218 234 255
218 234 255
218 234 255
218 234 255
218 234 255
218 234 255
218 234 255
218 234 255
218 234 255
218 234 255
219 234 255
219 234 255
219 234 255
219 234 255
219 234 255
219 234 255
219 234 255
219 234 255
219 234 255
219 234 255
219 234 255
219 234 255
219 234 255
219 234 255
219 234 255
219 234 255
219 234 255
219 234 255
219 234 255
219 234 255
219 234 255
219 234 255
219 234 255
219 234 255
219 234 255
219 234 255
219 234 255
219 234 255
219 234 255
219 235 255
219 235 255
219 235 255
219 235 255
219 235 255
219 235 255
219 235 255
219 235 255
219 235 255
220 235 255
220 235 255
220 235 255
220 235 255
220 235 255
220 235 255
220 235 255
220 235 255
220 235 255
220 235 255
220 235 255
220 235 255
220 235 255
220 235 255
220 235 255
220 235 255
220 235 255
220 235 255
220 235 255
220 235 255
220 235 255
220 235 255
220 235 255
220 235 255
220 235 255
220 235 255
220 235 255
220 235 255
220 235 255
220 235 255
220 235 255
220 235 255
220 235 255
220 235 255
220 235 255
220 235 255
220 235 255
220 235 255
220 235 255
220 235 255
220 235 255
220 235 255
220 235 255
220 235 255
220 235 255
220 235 255
220 235 255
220 235 255
220 235 255
220 235 255
220 235 255
220 235 255
220 235 255
220 235 255
220 235 255
220 235 255
220 235 255
220 235 255
220 235 255
220 235 255
220 235 255
220 235 255
220 235 255
220 235 255
220 235 255
220 235 255
220 235 255
220 235 255
220 235 255
220 235 255
219 235 255
219 235 255
219 235 255
219 235 255
219 235 255
219 235 255
219 235 255
219 235 255
219 235 255
219 235 255
219 235 255
219 235 255
219 235 255
219 235 255
219 235 255
219 234 255
219 234 255
219 234 255
219 234 255
219 234 255
219 234 255
172 189 139
179 196 168
173 190 146
175 192 150
175 192 151
172 190 139
176 193 153
176 193 156
177 193 158
169 187 123
173 191 146
171 189 133
173 190 144
172 189 141
168 186 125
176 193 156
173 190 142
171 189 137
174 191 151
174 191 146
172 189 137
173 190 142
172 189 141
169 187 118
176 193 153
173 190 142
173 191 146
169 187 129
169 188 127
167 185 114
171 189 137
171 189 137
168 187 129
168 186 129
172 190 141
173 190 137
170 188 129
178 195 161
171 188 137
170 188 127
173 190 144
166 184 116
173 190 141
171 189 131
172 189 137
172 190 137
170 188 129
170 187 133
173 190 144
169 186 131
171 188 127
164 183 112
167 185 123
168 186 123
168 186 135
170 187 123
169 188 129
166 184 116
168 187 125
167 185 125
168 186 121
171 189 135
168 186 121
167 186 112
167 185 121
168 186 118
166 185 112
166 184 114
168 186 121
169 187 127
167 185 118
171 188 127
166 184 109
169 186 118
163 183 102
162 181 104
166 184 123
162 181 109
164 183 102
167 185 118
167 185 116
166 185 109
162 181 104
169 187 129
163 182 99
162 181 94
163 182 112
163 183 107
164 183 104
160 179 102
164 182 112
159 178 88
164 183 112
160 179 88
159 179 91
165 183 118
162 181 88
156 175 75
165 183 107
162 181 97
163 181 104
166 184 121
163 181 107
161 179 102
156 176 85
158 176 91
157 176 82
156 175 99
158 177 100
151 170 106
154 173 100
145 164 100
139 157 99
138 157 98
130 149 99
132 151 96
115 135 84
110 130 98
108 128 86
96 117 92
92 114 94
80 103 82
72 95 84
63 88 96
56 83 111
47 74 86
46 73 88
46 73 85
47 74 99
46 73 87
47 74 93
45 71 92
41 66 79
43 70 79
42 67 80
41 66 79
39 63 81
41 65 76
33 54 67
37 60 74
34 55 51
31 50 49
39 56 50
53 70 45
71 86 71
114 130 86
145 162 106
189 204 189
219 232 246
125 140 163
49 78 107
53 84 112
52 83 102
51 81 100
54 86 111
56 89 120
55 88 119
56 89 126
55 87 124
58 90 126
58 92 129
57 90 120
58 91 127
59 93 128
60 95 134
59 93 139
58 91 119
56 89 125
58 92 127
59 93 134
57 90 116
58 91 126
59 94 132
57 91 124
58 92 115
59 92 126
59 93 129
59 94 135
60 95 134
61 95 139
59 93 132
58 91 127
60 95 135
58 92 125
59 93 119
57 91 108
58 92 129
59 94 131
58 93 125
60 95 132
60 95 136
62 96 142
57 92 118
60 95 136
60 95 137
60 94 130
60 94 128
59 94 126
59 94 135
60 95 136
60 95 133
58 93 126
60 95 135
59 93 125
60 95 131
59 93 124
59 93 124
59 93 129
59 93 125
60 94 130
60 95 133
59 93 125
58 92 120
60 94 130
59 93 129
58 92 120
60 94 134
61 96 139
60 95 134
59 94 120
59 93 126
59 93 133
59 93 118
61 96 137
61 95 139
58 92 128
61 96 133
60 95 140
58 92 126
60 95 124
58 92 128
60 95 133
60 95 134
60 94 128
59 94 126
60 94 122
62 97 144
60 94 134
59 94 131
60 95 130
60 95 134
61 96 136
61 96 136
61 96 139
59 94 128
62 97 142
61 95 140
60 94 125
62 97 145
64 98 153
125 146 186
221 236 255
215 232 255
215 232 255
216 232 255
216 233 255
216 233 255
216 233 255
217 233 255
217 233 255
217 233 255
217 233 255
217 233 255
217 233 255
217 233 255
218 234 255
218 234 255
218 234 255
218 234 255
218 234 255
218 234 255
218 234 255
218 234 255
218 234 255
218 234 255
218 234 255
218 234 255
219 234 255
219 234 255
219 234 255
219 234 255
219 234 255
219 234 255
219 234 255
219 234 255
219 234 255
219 234 255
219 234 255
219 234 255
219 234 255
219 234 255
219 234 255
219 234 255
219 234 255
219 234 255
219 234 255
219 234 255
219 234 255
219 234 255
219 234 255
219 234 255
219 234 255
219 234 255
219 234 255
219 234 255
219 234 255
219 234 255
219 234 255
219 234 255
219 234 255
219 234 255
219 234 255
219 234 255
219 234 255
219 234 255
219 234 255
219 234 255
219 234 255
219 234 255
219 234 255
219 234 255
219 234 255
219 234 255
219 234 255
219 235 255
219 235 255
219 235 255
219 235 255
219 235 255
219 235 255
219 235 255
219 235 255
219 235 255
219 235 255
219 235 255
219 235 255
219 235 255
219 235 255
219 235 255
219 235 255
219 235 255
219 235 255
219 235 255
219 235 255
219 235 255
219 235 255
219 235 255
219 235 255
219 235 255
219 235 255
219 235 255
219 235 255
219 235 255
219 235 255
219 235 255
219 235 255
219 235 255
219 235 255
219 234 255
219 234 255
219 234 255
219 234 255
219 234 255
219 234 255
219 234 255
219 234 255
219 234 255
219 234 255
219 234 255
219 234 255
219 234 255
219 234 255
219 234 255
219 234 255
219 234 255
219 234 255
219 234 255
219 234 255
219 234 255
219 234 255
219 234 255
219 234 255
219 234 255
219 234 255
219 234 255
219 234 255
219 234 255
219 234 255
219 234 255
219 234 255
219 234 255
219 234 255
219 234 255
219 234 255
219 234 255
219 234 255
219 234 255
219 234 255
219 234 255
219 234 255
173 190 141
173 190 144
172 190 150
169 187 129
176 192 150
176 192 151
174 191 146
170 188 129
172 190 144
168 187 125
173 191 144
172 190 142
171 189 144
173 190 141
170 188 131
177 193 155
175 192 153
170 188 125
171 188 129
173 190 142
168 186 123
172 190 139
169 187 125
171 189 137
169 187 121
171 188 125
172 189 139
167 185 116
170 188 133
170 188 127
169 186 127
169 187 125
170 188 127
168 186 121
175 191 144
172 190 137
168 186 118
172 190 133
167 185 118
165 183 112
171 189 131
170 188 129
167 185 109
166 185 114
166 184 114
162 181 102
170 187 135
166 184 116
173 190 141
166 185 104
164 182 107
163 182 99
170 188 129
170 188 127
168 186 116
166 185 109
169 187 125
160 179 79
164 183 112
169 186 127
169 186 125
170 187 131
163 182 99
160 180 91
165 184 104
163 182 97
165 184 104
170 188 123
166 185 112
163 181 107
166 184 116
165 184 109
165 183 107
160 180 79
160 179 88
163 181 102
166 185 118
159 178 85
164 182 104
163 182 94
161 180 88
163 182 102
163 182 104
161 179 107
164 183 107
163 182 104
160 180 79
163 181 104
161 180 88
162 181 91
162 181 94
158 178 79
160 180 91
161 180 91
161 179 91
154 174 51
159 179 85
160 180 82
155 174 75
156 176 68
158 177 82
162 180 102
155 175 72
158 178 85
158 177 72
156 175 68
157 176 88
158 177 99
157 176 116
150 170 88
152 171 87
147 166 74
140 160 93
128 146 94
132 151 89
128 147 74
125 146 80
108 128 85
101 122 71
93 114 86
93 114 80
85 107 66
79 101 81
71 93 73
55 79 87
45 71 82
46 74 97
46 73 92
46 73 84
44 70 85
44 70 91
43 68 84
44 69 85
45 71 86
43 68 76
41 65 78
40 64 80
40 65 79
35 57 70
38 61 64
34 55 65
36 57 60
40 57 52
63 81 60
91 107 49
121 136 98
152 169 130
185 201 175
224 237 255
154 168 186
49 78 102
51 81 97
51 81 99
55 87 118
55 88 120
57 90 123
54 87 97
56 89 117
58 92 120
56 89 123
55 88 117
55 88 120
56 88 109
57 90 118
58 92 132
58 92 119
58 91 121
59 93 135
56 90 119
59 93 131
59 93 124
57 90 116
59 93 128
59 92 123
58 91 121
58 92 115
59 93 128
59 93 125
59 93 132
56 89 119
58 92 122
58 92 132
60 94 132
57 90 121
59 93 139
60 95 138
59 93 135
59 93 126
60 94 131
59 93 126
59 94 122
58 91 114
57 90 126
60 94 129
59 94 130
59 94 128
60 95 135
60 95 135
59 94 132
59 94 130
61 96 139
58 92 115
59 94 129
60 95 141
58 91 118
59 93 128
59 93 113
60 95 135
60 94 125
59 94 125
59 93 124
58 92 115
59 94 128
58 92 120
60 95 140
59 93 117
58 91 118
60 93 121
58 92 122
61 96 139
59 94 130
60 94 126
58 92 118
59 92 117
60 95 135
60 95 130
59 93 122
59 93 128
61 95 131
60 95 140
61 96 137
59 94 128
61 96 135
59 94 131
61 95 130
60 95 137
59 94 128
60 95 131
60 94 131
60 95 131
61 96 129
59 93 120
60 95 126
60 94 136
61 95 140
60 94 133
61 95 142
62 96 142
63 98 150
63 98 151
158 175 209
224 237 255
214 231 255
214 232 255
215 232 255
215 232 255
216 232 255
216 233 255
216 233 255
216 233 255
216 233 255
217 233 255
217 233 255
217 233 255
217 233 255
217 233 255
217 233 255
217 233 255
217 233 255
218 234 255
218 234 255
218 234 255
218 234 255
218 234 255
218 234 255
218 234 255
218 234 255
218 234 255
218 234 255
218 234 255
218 234 255
218 234 255
218 234 255
218 234 255
219 234 255
219 234 255
219 234 255
219 234 255
219 234 255
219 234 255
219 234 255
219 234 255
219 234 255
219 234 255
219 234 255
219 234 255
219 234 255
219 234 255
219 234 255
219 234 255
219 234 255
219 234 255
219 234 255
219 234 255
219 234 255
219 234 255
219 234 255
219 234 255
219 234 255
219 234 255
219 234 255
219 234 255
219 234 255
219 234 255
219 234 255
219 234 255
219 234 255
219 234 255
219 234 255
219 234 255
219 234 255
219 234 255
219 234 255
219 234 255
219 234 255
219 234 255
219 234 255
219 234 255
219 234 255
219 234 255
219 234 255
219 234 255
219 234 255
219 234 255
219 234 255
219 234 255
219 234 255
219 234 255
219 234 255
219 234 255
219 234 255
219 234 255
219 234 255
219 234 255
219 234 255
219 234 255
219 234 255
219 234 255
219 234 255
219 234 255
219 234 255
219 234 255
219 234 255
219 234 255
219 234 255
219 234 255
219 234 255
219 234 255
219 234 255
219 234 255
219 234 255
219 234 255
219 234 255
219 234 255
219 234 255
219 234 255
219 234 255
219 234 255
219 234 255
219 234 255
219 234 255
219 234 255
219 234 255
219 234 255
219 234 255
219 234 255
219 234 255
219 234 255
219 234 255
219 234 255
219 234 255
219 234 255
219 234 255
219 234 255
219 234 255
219 234 255
219 234 255
219 234 255
219 234 255
219 234 255
219 234 255
219 234 255
219 234 255
219 234 255
219 234 255
219 234 255
219 234 255
219 234 255
219 234 255
219 234 255
173 191 144
172 190 141
171 189 139
171 189 139
175 192 148
173 190 139
173 190 139
170 188 131
174 192 150
172 190 139
174 191 151
172 189 139
168 186 127
168 187 121
168 187 123
173 191 144
171 189 131
172 189 135
174 192 148
174 191 150
170 188 133
170 188 127
171 188 137
167 185 112
169 187 121
166 185 107
169 187 129
168 186 109
169 187 133
169 187 121
172 190 137
169 188 125
166 185 125
166 184 118
168 186 123
169 187 125
171 188 135
165 184 109
167 185 112
165 184 112
165 184 107
167 186 114
164 183 114
166 185 118
164 183 102
167 185 116
166 185 107
164 183 107
168 186 118
169 187 127
167 185 112
169 187 121
165 184 107
165 184 114
166 184 112
166 184 114
166 184 114
166 185 109
161 180 91
165 184 104
165 183 97
166 184 114
166 184 107
162 181 104
162 181 104
165 183 104
163 182 99
160 180 99
164 183 107
165 183 102
165 183 114
159 178 88
163 182 97
160 179 82
162 180 104
161 180 88
160 179 75
160 179 94
157 177 79
157 176 72
156 176 51
164 183 104
161 180 82
161 180 91
159 179 79
156 177 68
160 179 79
158 179 68
157 177 79
161 179 94
159 179 75
158 178 75
160 179 79
153 173 64
155 175 60
161 181 88
156 175 64
156 176 79
155 175 64
154 174 56
154 175 60
152 172 68
149 169 72
152 172 56
155 174 79
149 168 51
149 168 60
152 172 64
156 175 88
153 173 77
149 168 84
150 169 97
127 147 77
135 154 74
127 147 78
119 139 75
110 131 62
115 136 68
112 132 58
99 119 70
102 122 69
75 97 82
82 103 57
68 91 73
63 88 88
55 79 77
47 75 91
45 72 84
44 70 73
45 71 92
45 71 88
42 66 83
43 68 85
43 68 80
41 65 73
36 59 62
39 63 57
37 60 65
35 57 61
35 56 57
31 50 48
38 58 65
59 76 51
80 97 41
105 122 69
133 150 100
170 187 154
196 211 197
214 229 224
176 192 186
50 80 108
54 86 116
53 83 96
53 85 108
53 85 113
55 87 115
57 90 116
58 91 128
54 86 104
55 87 108
57 90 122
57 90 135
57 90 109
58 91 124
57 90 115
59 92 125
57 91 121
58 91 123
58 92 122
59 93 133
57 91 121
58 91 120
58 92 121
59 93 123
60 94 134
59 93 125
59 93 122
59 93 118
59 93 126
59 94 130
60 94 129
58 91 125
57 91 113
59 93 133
57 90 112
58 92 130
60 94 126
59 92 127
59 93 131
60 95 131
59 93 122
58 92 119
60 94 134
58 91 120
59 93 128
60 94 130
60 95 135
58 92 134
60 94 134
58 92 122
58 93 124
59 93 129
58 92 114
59 92 126
59 93 117
59 93 124
58 92 118
60 94 125
59 93 130
61 95 137
57 91 118
57 91 121
59 93 128
60 95 137
59 93 129
58 92 124
59 94 120
59 93 130
59 94 126
59 94 124
60 94 125
59 93 115
57 91 113
61 96 139
59 93 125
58 92 121
60 94 128
59 93 125
59 93 126
60 95 135
60 95 129
61 96 135
59 92 117
59 93 131
60 94 126
59 93 118
58 92 122
60 94 129
61 96 144
59 94 122
59 93 125
61 96 136
58 92 126
59 94 126
61 96 139
60 94 133
61 96 140
62 97 148
61 95 137
64 99 153
165 183 194
219 233 240
213 231 250
213 231 255
214 232 255
215 232 255
215 232 255
215 232 255
215 232 255
216 232 255
216 233 255
216 233 255
216 233 255
216 233 255
217 233 255
217 233 255
217 233 255
217 233 255
217 233 255
217 233 255
217 233 255
217 233 255
217 233 255
218 233 255
218 234 255
218 234 255
218 234 255
218 234 255
218 234 255
218 234 255
218 234 255
218 234 255
218 234 255
218 234 255
218 234 255
218 234 255
218 234 255
218 234 255
218 234 255
218 234 255
218 234 255
218 234 255
219 234 255
219 234 255
219 234 255
219 234 255
219 234 255
219 234 255
219 234 255
219 234 255
219 234 255
219 234 255
219 234 255
219 234 255
219 234 255
219 234 255
219 234 255
219 234 255
219 234 255
219 234 255
219 234 255
219 234 255
219 234 255
219 234 255
219 234 255
219 234 255
219 234 255
219 234 255
219 234 255
219 234 255
219 234 255
219 234 255
219 234 255
219 234 255
219 234 255
219 234 255
219 234 255
219 234 255
219 234 255
219 234 255
219 234 255
219 234 255
219 234 255
219 234 255
219 234 255
219 234 255
219 234 255
219 234 255
219 234 255
219 234 255
219 234 255
219 234 255
219 234 255
219 234 255
219 234 255
219 234 255
219 234 255
219 234 255
219 234 255
219 234 255
219 234 255
219 234 255
219 234 255
219 234 255
219 234 255
219 234 255
219 234 255
219 234 255
219 234 255
219 234 255
219 234 255
219 234 255
219 234 255
219 234 255
219 234 255
219 234 255
219 234 255
219 234 255
219 234 255
219 234 255
219 234 255
219 234 255
219 234 255
219 234 255
219 234 255
219 234 255
219 234 255
219 234 255
219 234 255
219 234 255
219 234 255
219 234 255
219 234 255
219 234 255
219 234 255
219 234 255
219 234 255
219 234 255
219 234 255
219 234 255
219 234 255
219 234 255
219 234 255
219 234 255
219 234 255
219 234 255
219 234 255
219 234 255
219 234 255
219 234 255
170 188 131
171 188 139
172 189 135
172 189 141
167 186 116
169 187 125
171 189 139
173 191 142
169 187 125
169 187 123
169 187 123
171 188 131
170 188 131
169 187 121
169 187 125
170 188 131
171 189 135
173 190 141
167 186 116
168 186 118
167 185 114
162 181 91
167 186 114
171 189 135
165 183 102
165 184 104
168 186 116
173 190 141
169 187 127
168 186 121
166 185 109
165 184 114
164 183 94
171 188 131
163 183 102
165 184 107
166 185 114
166 185 107
166 185 114
163 182 91
165 184 109
167 185 118
165 183 102
161 180 104
168 186 116
164 183 107
163 182 99
164 183 94
163 182 97
166 184 107
164 183 97
163 182 97
163 182 91
163 182 94
165 183 107
165 183 99
161 181 85
166 184 107
159 178 79
161 180 85
161 181 97
160 180 85
161 181 91
163 182 97
160 180 85
160 180 82
159 179 68
162 181 91
164 183 102
154 175 45
162 181 85
159 178 75
159 178 85
159 179 68
158 179 79
159 179 75
157 177 72
158 178 68
155 176 45
157 177 68
157 176 68
154 175 64
155 175 64
158 177 72
159 179 72
156 176 45
154 173 45
156 176 72
156 176 51
152 173 32
153 174 39
154 175 39
153 174 51
154 174 60
154 174 39
155 174 51
152 172 39
150 170 32
148 170 32
153 174 39
152 172 39
150 171 0
151 171 51
152 173 39
149 169 45
149 169 32
149 169 45
148 169 32
152 172 39
149 170 56
151 170 82
138 158 53
128 147 51
126 146 71
119 139 56
117 137 62
116 136 63
98 118 72
94 115 68
96 117 73
97 118 70
82 104 74
74 96 75
77 99 86
60 82 68
60 83 75
50 76 72
47 75 85
45 71 86
45 71 72
43 69 76
43 68 82
41 66 77
40 64 65
40 65 67
37 60 59
41 66 73
38 62 63
35 57 62
38 61 62
39 59 51
50 70 61
84 102 40
105 121 57
116 133 87
152 168 139
175 192 158
183 202 135
173 197 0
165 187 35
45 73 88
47 76 96
53 84 104
56 88 118
55 87 110
56 88 112
56 88 117
56 89 113
56 88 109
56 90 112
57 89 121
55 87 112
58 91 127
56 89 130
58 91 124
59 92 123
59 93 129
57 90 118
56 90 115
58 92 125
60 94 130
59 93 132
58 91 128
58 92 126
57 91 109
56 89 107
57 91 124
59 93 135
57 90 121
60 94 131
60 95 138
58 91 122
59 93 124
58 91 128
58 92 120
58 92 125
58 93 124
59 93 123
60 94 130
59 93 123
57 90 113
59 94 125
58 92 122
59 94 130
59 93 126
58 92 119
58 92 118
58 93 129
59 93 120
60 94 127
60 94 134
59 94 121
60 95 130
59 93 121
61 95 129
59 93 126
60 94 128
57 91 121
59 93 129
61 96 144
60 94 128
59 94 133
59 93 126
58 92 124
62 96 142
59 94 128
59 93 124
58 92 120
60 94 133
61 95 137
59 93 133
60 94 125
60 94 128
59 93 125
59 93 120
61 95 137
59 93 124
60 94 131
59 94 130
60 95 133
58 92 108
61 95 130
60 94 129
60 95 131
58 92 120
60 94 125
59 94 122
61 95 131
58 93 120
59 93 128
60 94 128
61 96 140
60 94 134
60 94 131
61 96 141
60 95 134
61 95 137
61 96 140
62 96 141
63 98 152
167 191 51
173 197 0
194 214 177
213 231 255
213 231 255
214 231 255
214 232 255
215 232 255
215 232 255
215 232 255
215 232 255
216 232 255
216 232 255
216 233 255
216 233 255
216 233 255
216 233 255
217 233 255
217 233 255
217 233 255
217 233 255
217 233 255
217 233 255
217 233 255
217 233 255
217 233 255
217 233 255
218 233 255
218 233 255
218 234 255
218 234 255
218 234 255
218 234 255
218 234 255
218 234 255
218 234 255
218 234 255
218 234 255
218 234 255
218 234 255
218 234 255
218 234 255
218 234 255
218 234 255
218 234 255
218 234 255
218 234 255
218 234 255
218 234 255
218 234 255
218 234 255
218 234 255
218 234 255
219 234 255
219 234 255
219 234 255
219 234 255
219 234 255
219 234 255
219 234 255
219 234 255
219 234 255
219 234 255
219 234 255
219 234 255
219 234 255
219 234 255
219 234 255
219 234 255
219 234 255
219 234 255
219 234 255
219 234 255
219 234 255
219 234 255
219 234 255
219 234 255
219 234 255
219 234 255
219 234 255
219 234 255
219 234 255
219 234 255
219 234 255
219 234 255
219 234 255
219 234 255
219 234 255
219 234 255
219 234 255
219 234 255
219 234 255
219 234 255
219 234 255
219 234 255
219 234 255
219 234 255
219 234 255
219 234 255
219 234 255
219 234 255
219 234 255
219 234 255
219 234 255
219 234 255
219 234 255
219 234 255
219 234 255
219 234 255
219 234 255
219 234 255
219 234 255
219 234 255
219 234 255
219 234 255
219 234 255
219 234 255
219 234 255
219 234 255
219 234 255
219 234 255
219 234 255
219 234 255
219 234 255
219 234 255
219 234 255
219 234 255
219 234 255
219 234 255
219 234 255
219 234 255
219 234 255
219 234 255
219 234 255
219 234 255
219 234 255
219 234 255
219 234 255
219 234 255
219 234 255
218 234 255
218 234 255
218 234 255
218 234 255
218 234 255
218 234 255
218 234 255
218 234 255
218 234 255
218 234 255
170 188 135
172 190 139
171 189 137
166 185 109
163 182 99
169 187 125
172 189 135
168 186 123
166 184 114
169 187 125
167 186 123
172 189 133
170 188 137
167 185 114
168 186 121
164 183 102
167 185 114
165 184 104
172 189 135
166 185 109
164 183 99
170 188 129
166 185 107
164 183 97
166 184 104
165 183 109
167 185 118
165 184 107
166 184 107
167 186 114
165 184 112
164 183 99
161 181 97
166 185 118
163 182 104
164 183 99
167 185 116
166 184 109
163 182 102
160 179 91
164 183 109
164 183 99
163 182 85
162 181 91
163 182 97
161 180 75
164 183 102
161 180 97
159 179 85
159 179 85
161 180 82
164 183 97
160 180 75
163 182 99
160 180 79
160 180 75
159 179 75
161 181 85
161 181 75
157 178 68
160 180 82
160 180 72
159 179 82
157 177 45
156 176 75
159 178 68
157 177 68
158 179 68
157 177 72
157 177 60
157 177 64
157 177 64
157 176 68
157 177 68
156 176 68
156 176 56
156 177 51
156 176 56
155 175 32
156 177 39
151 171 60
157 177 39
152 172 39
155 175 51
152 172 51
153 173 0
153 174 0
149 170 39
154 174 22
150 171 22
153 173 0
155 175 32
148 169 0
150 171 22
152 173 0
149 170 0
151 172 0
151 172 0
149 170 22
150 170 0
146 167 0
150 171 0
148 168 0
144 164 0
146 166 0
144 165 0
141 161 0
146 166 0
140 160 0
144 165 22
145 166 39
143 163 42
131 150 39
118 138 28
133 152 51
119 137 45
120 140 60
111 130 55
105 126 69
98 117 57
100 120 63
90 111 75
76 99 72
73 94 59
62 83 57
63 85 73
47 73 71
51 77 86
43 68 74
43 69 66
41 67 75
42 67 74
42 68 70
40 63 65
40 63 78
40 64 74
38 61 58
36 58 63
34 56 54
43 64 47
51 69 46
63 81 39
94 111 28
104 121 70
122 139 100
156 174 119
184 201 170
179 200 87
174 197 0
174 198 0
73 96 86
48 77 95
49 79 93
52 82 108
55 87 120
53 85 109
53 84 105
56 89 118
57 90 117
56 88 114
58 92 128
58 92 125
59 92 127
58 91 124
56 89 115
57 90 124
57 90 120
58 92 126
57 90 118
57 91 121
57 91 122
58 92 122
59 92 125
59 93 124
58 92 120
58 92 115
59 93 122
60 93 134
58 92 129
59 93 133
58 91 125
58 92 121
58 92 125
58 91 115
60 94 130
59 93 126
57 91 112
57 90 109
59 94 134
60 95 132
59 92 120
58 92 125
59 93 136
59 94 128
59 94 129
60 94 133
59 93 124
60 95 128
59 93 126
59 93 121
59 93 120
58 92 118
60 95 133
59 94 131
60 94 130
59 94 130
59 93 124
56 89 108
60 94 126
59 93 131
60 94 128
59 93 130
58 93 117
60 94 125
59 94 125
58 92 121
59 94 125
59 93 125
59 93 126
59 93 125
60 94 126
60 94 134
57 90 121
59 93 131
59 94 121
59 93 118
58 92 114
58 92 117
59 92 124
59 94 130
59 93 121
60 94 125
60 94 125
59 92 126
59 93 118
58 92 128
59 93 124
60 94 131
59 93 125
58 91 118
60 95 136
57 91 120
61 96 140
60 94 122
61 95 135
60 95 136
61 95 143
62 96 139
62 97 145
80 110 140
172 197 0
174 197 0
183 205 117
212 230 255
212 231 255
213 231 255
213 231 255
214 231 255
214 232 255
215 232 255
215 232 255
215 232 255
215 232 255
215 232 255
216 232 255
216 232 255
216 233 255
216 233 255
216 233 255
216 233 255
217 233 255
217 233 255
217 233 255
217 233 255
217 233 255
217 233 255
217 233 255
217 233 255
217 233 255
217 233 255
217 233 255
217 233 255
218 233 255
218 233 255
218 234 255
218 234 255
218 234 255
218 234 255
218 234 255
218 234 255
218 234 255
218 234 255
218 234 255
218 234 255
218 234 255
218 234 255
218 234 255
218 234 255
218 234 255
218 234 255
218 234 255
218 234 255
218 234 255
218 234 255
218 234 255
218 234 255
218 234 255
218 234 255
218 234 255
218 234 255
218 234 255
218 234 255
218 234 255
218 234 255
218 234 255
218 234 255
218 234 255
218 234 255
218 234 255
219 234 255
218 234 255
219 234 255
219 234 255
219 234 255
219 234 255
219 234 255
219 234 255
219 234 255
219 234 255
219 234 255
219 234 255
219 234 255
219 234 255
219 234 255
219 234 255
219 234 255
219 234 255
219 234 255
219 234 255
219 234 255
219 234 255
219 234 255
219 234 255
219 234 255
219 234 255
219 234 255
219 234 255
219 234 255
219 234 255
219 234 255
219 234 255
219 234 255
219 234 255
219 234 255
219 234 255
219 234 255
219 234 255
219 234 255
219 234 255
219 234 255
219 234 255
219 234 255
219 234 255
218 234 255
219 234 255
218 234 255
218 234 255
218 234 255
218 234 255
218 234 255
218 234 255
218 234 255
218 234 255
218 234 255
218 234 255
218 234 255
218 234 255
218 234 255
218 234 255
218 234 255
218 234 255
218 234 255
218 234 255
218 234 255
218 234 255
218 234 255
218 234 255
218 234 255
218 234 255
218 234 255
218 234 255
218 234 255
218 234 255
218 234 255
218 234 255
218 234 255
218 234 255
218 234 255
218 234 255
218 234 255
170 188 127
170 188 135
170 188 131
170 188 125
169 186 129
167 185 114
168 186 123
166 185 107
168 186 116
164 183 99
169 187 121
170 188 125
167 185 107
167 185 121
169 187 123
166 184 114
172 189 131
166 184 107
166 185 109
169 186 118
163 182 107
169 187 118
163 182 94
165 184 107
168 186 118
169 187 121
164 183 102
166 185 109
165 183 112
167 186 116
162 181 91
164 183 99
166 184 116
164 183 109
168 186 112
164 183 107
165 184 104
164 183 99
165 183 107
163 182 104
159 179 68
159 178 79
165 183 102
161 180 82
163 182 94
161 180 68
159 179 68
159 179 72
157 177 56
160 179 85
156 176 72
158 178 79
159 179 79
157 178 51
160 180 75
159 179 75
159 179 68
160 179 79
156 176 56
156 177 56
160 180 85
159 178 60
155 175 60
153 174 39
155 176 56
156 176 51
155 175 39
153 174 32
156 177 45
155 175 60
153 174 39
156 175 51
156 176 32
154 175 22
153 174 22
154 175 22
151 172 0
155 175 32
151 172 0
153 174 22
151 172 0
153 175 0
152 173 0
152 173 0
153 174 0
153 174 0
151 172 0
150 171 0
152 172 0
151 173 0
149 169 0
152 173 0
151 172 0
148 169 0
151 171 0
148 169 0
146 167 0
143 164 0
149 169 0
148 168 0
148 168 0
148 169 0
145 165 0
144 165 0
145 167 0
143 164 0
144 165 0
142 163 0
146 166 0
143 164 0
143 163 39
135 154 32
133 153 42
128 148 53
116 136 42
119 140 42
112 132 64
106 126 61
103 122 60
105 124 42
102 121 52
76 97 67
78 98 53
68 90 55
69 89 69
60 84 72
63 86 72
48 72 75
51 74 80
42 67 72
41 66 67
39 63 69
41 65 60
44 70 75
40 64 68
40 64 60
38 61 59
37 60 50
48 70 47
63 81 47
73 90 37
77 96 39
97 115 44
117 134 63
140 158 84
172 189 143
191 207 175
175 198 25
174 197 0
172 197 0
119 140 67
49 78 99
52 83 110
52 82 100
53 84 103
54 86 111
55 86 119
56 89 116
56 89 116
55 87 105
56 88 115
57 90 124
56 89 119
58 92 131
57 90 120
57 91 118
59 93 129
58 92 116
56 89 108
57 91 115
58 92 114
58 92 127
57 91 121
58 91 126
58 92 118
59 93 127
59 93 128
59 93 128
60 94 126
59 93 115
58 91 127
59 93 131
58 92 122
59 94 131
56 89 109
58 92 127
58 91 121
57 90 110
61 95 135
59 93 134
58 91 118
58 92 120
56 90 113
59 93 121
58 91 120
58 92 124
60 94 132
60 94 126
59 93 122
58 92 115
59 93 130
58 92 115
59 93 118
57 90 120
59 93 124
59 93 129
60 94 129
60 95 133
58 92 125
59 93 111
58 92 120
59 93 125
59 93 128
59 93 124
58 92 118
61 95 134
60 94 129
58 92 126
59 93 131
59 94 130
58 92 114
59 93 126
59 93 128
59 94 126
60 94 126
59 93 110
61 96 136
58 92 122
58 92 120
58 92 121
60 94 135
58 91 121
59 93 129
59 93 124
60 94 131
58 92 115
60 94 126
59 94 125
61 95 133
60 94 135
62 97 145
59 94 135
59 93 135
59 93 129
59 93 141
60 94 141
62 96 141
61 95 134
61 96 142
118 144 114
176 198 0
175 198 0
174 198 0
205 224 231
212 230 255
212 230 255
213 231 255
213 231 255
214 231 255
214 231 255
214 232 255
214 232 255
215 232 255
215 232 255
215 232 255
215 232 255
216 232 255
216 232 255
216 233 255
216 233 255
216 233 255
216 233 255
216 233 255
216 233 255
217 233 255
217 233 255
217 233 255
217 233 255
217 233 255
217 233 255
217 233 255
217 233 255
217 233 255
217 233 255
217 233 255
217 233 255
217 233 255
217 233 255
218 233 255
218 233 255
218 234 255
218 234 255
218 234 255
218 234 255
218 234 255
218 234 255
218 234 255
218 234 255
218 234 255
218 234 255
218 234 255
218 234 255
218 234 255
218 234 255
218 234 255
218 234 255
218 234 255
218 234 255
218 234 255
218 234 255
218 234 255
218 234 255
218 234 255
218 234 255
218 234 255
218 234 255
218 234 255
218 234 255
218 234 255
218 234 255
218 234 255
218 234 255
218 234 255
218 234 255
218 234 255
218 234 255
218 234 255
218 234 255
218 234 255
218 234 255
218 234 255
218 234 255
218 234 255
218 234 255
218 234 255
218 234 255
218 234 255
218 234 255
218 234 255
218 234 255
218 234 255
218 234 255
218 234 255
218 234 255
218 234 255
218 234 255
218 234 255
218 234 255
218 234 255
218 234 255
218 234 255
218 234 255
218 234 255
218 234 255
218 234 255
218 234 255
218 234 255
218 234 255
218 234 255
218 234 255
218 234 255
218 234 255
218 234 255
218 234 255
218 234 255
218 234 255
218 234 255
218 234 255
218 234 255
218 234 255
218 234 255
218 234 255
218 234 255
218 234 255
218 234 255
218 234 255
218 234 255
218 234 255
218 234 255
218 234 255
218 234 255
218 234 255
218 234 255
218 234 255
218 234 255
218 234 255
218 234 255
218 234 255
218 234 255
218 234 255
218 234 255
218 234 255
218 234 255
218 234 255
218 234 255
218 234 255
218 234 255
218 234 255
218 234 255
218 234 255
166 185 114
165 184 112
167 186 114
164 183 97
168 187 118
166 184 107
170 188 131
168 186 123
166 185 102
164 182 99
168 186 114
164 183 99
166 184 116
165 183 94
167 185 109
164 184 107
166 184 112
164 183 102
165 184 104
163 182 97
162 181 88
163 182 88
166 184 104
162 181 91
166 184 107
164 183 91
164 183 97
161 180 79
164 183 107
161 181 85
162 181 91
163 182 91
161 181 72
160 179 79
161 180 82
160 180 88
159 179 64
163 182 88
158 178 64
160 180 75
159 179 72
161 180 72
158 178 68
156 176 72
160 179 79
156 176 64
159 178 72
157 177 51
161 181 82
156 177 56
155 176 45
158 178 60
156 177 51
157 177 32
156 176 45
154 174 32
155 176 39
154 175 22
155 175 39
154 175 22
156 176 39
156 177 39
154 176 22
153 173 0
155 176 22
152 172 22
152 173 0
153 174 0
154 175 22
151 172 0
153 174 0
154 175 0
153 174 0
152 174 0
149 170 0
153 174 0
149 170 0
152 173 0
152 172 0
150 171 0
149 171 0
153 173 0
150 170 0
151 171 0
154 175 0
151 171 0
148 168 0
146 166 0
144 164 0
149 169 0
146 167 0
149 170 0
148 169 0
148 168 0
148 169 0
145 167 0
149 170 0
148 169 0
149 169 0
144 164 0
144 166 0
145 165 0
149 169 0
148 168 0
138 159 0
144 164 0
148 168 0
143 163 0
146 166 0
139 158 0
144 164 0
141 160 28
138 158 22
129 148 22
129 149 36
115 134 32
112 131 35
104 124 48
102 121 58
87 107 56
111 129 45
83 102 57
84 104 59
70 91 55
77 97 66
54 75 66
57 80 72
62 82 63
40 64 75
47 71 62
44 67 57
44 68 61
44 68 77
41 63 67
38 60 51
38 62 53
45 65 43
39 61 50
66 85 53
61 80 43
64 83 52
79 97 44
105 123 41
121 139 61
151 168 101
171 188 135
183 201 134
174 197 0
174 197 0
174 197 0
154 176 37
47 75 89
51 81 87
52 83 105
54 86 101
54 85 110
57 90 117
53 84 107
55 87 106
54 86 107
57 91 124
57 90 123
56 89 117
56 89 117
56 89 115
58 91 123
55 88 109
57 90 119
56 89 109
54 86 106
59 93 131
58 92 125
58 92 122
59 93 124
59 93 126
59 92 115
59 93 122
59 93 125
57 91 119
55 88 100
58 92 122
60 94 128
59 92 125
56 90 104
61 95 138
59 94 124
58 91 120
58 92 125
59 93 130
58 91 119
58 91 120
59 93 128
58 92 125
58 92 113
59 93 129
58 93 121
60 94 133
58 92 121
58 91 110
58 92 120
60 94 125
60 94 124
59 92 124
58 91 120
59 93 129
58 91 114
59 93 121
58 92 117
58 92 126
59 93 125
59 93 121
58 92 120
58 92 117
59 93 128
59 93 129
59 93 126
60 94 125
58 91 110
58 92 118
59 93 125
59 92 118
60 95 130
58 92 114
58 92 118
59 93 133
60 95 133
59 93 113
59 93 131
59 93 129
58 92 111
60 94 126
58 93 124
60 94 130
58 91 120
61 95 136
59 93 126
59 93 114
59 92 124
59 93 117
58 92 129
60 94 131
60 94 134
59 93 128
60 94 133
61 96 136
60 94 130
58 92 122
61 96 136
61 95 128
148 172 82
175 198 0
172 196 0
175 198 0
194 215 186
210 230 255
211 230 255
212 230 255
212 231 255
213 231 255
213 231 255
214 231 255
214 231 255
214 232 255
214 232 255
215 232 255
215 232 255
215 232 255
215 232 255
215 232 255
216 232 255
216 232 255
216 232 255
216 233 255
216 233 255
216 233 255
216 233 255
216 233 255
216 233 255
217 233 255
217 233 255
217 233 255
217 233 255
217 233 255
217 233 255
217 233 255
217 233 255
217 233 255
217 233 255
217 233 255
217 233 255
217 233 255
217 233 255
217 233 255
217 233 255
217 233 255
218 233 255
218 233 255
218 233 255
218 234 255
218 234 255
218 234 255
218 234 255
218 234 255
218 234 255
218 234 255
218 234 255
218 234 255
218 234 255
218 234 255
218 234 255
218 234 255
218 234 255
218 234 255
218 234 255
218 234 255
218 234 255
218 234 255
218 234 255
218 234 255
218 234 255
218 234 255
218 234 255
218 234 255
218 234 255
218 234 255
218 234 255
218 234 255
218 234 255
218 234 255
218 234 255
218 234 255
218 234 255
218 234 255
218 234 255
218 234 255
218 234 255
218 234 255
218 234 255
218 234 255
218 234 255
218 234 255
218 234 255
218 234 255
218 234 255
218 234 255
218 234 255
218 234 255
218 234 255
218 234 255
218 234 255
218 234 255
218 234 255
218 234 255
218 234 255
218 234 255
218 234 255
218 234 255
218 234 255
218 234 255
218 234 255
218 234 255
218 234 255
218 234 255
218 234 255
218 234 255
218 234 255
218 234 255
218 234 255
218 234 255
218 234 255
218 234 255
218 234 255
218 234 255
218 234 255
218 234 255
218 234 255
218 234 255
218 234 255
218 234 255
218 234 255
218 234 255
218 234 255
218 234 255
218 234 255
218 234 255
218 234 255
218 234 255
218 234 255
218 234 255
218 234 255
218 234 255
218 234 255
218 234 255
218 234 255
218 234 255
218 234 255
218 234 255
218 234 255
218 234 255
218 234 255
165 184 109
166 185 116
169 187 133
168 186 123
166 184 104
166 184 109
165 184 107
162 182 99
166 184 104
168 186 118
168 186 121
160 180 72
166 184 97
163 182 99
166 184 107
161 181 91
160 180 75
162 181 91
159 179 75
161 181 85
164 183 104
161 181 75
161 181 82
165 183 102
163 182 88
159 179 72
158 178 64
161 181 94
161 181 79
165 183 97
161 181 88
165 183 102
161 181 85
161 181 75
162 181 85
160 179 75
156 177 64
155 176 60
156 177 60
158 178 68
158 178 64
164 182 85
159 179 60
156 176 56
156 176 45
157 177 51
156 176 51
159 179 64
156 177 45
154 176 22
155 175 45
155 175 22
153 173 22
154 174 0
153 174 22
157 177 32
156 176 22
153 174 0
154 175 22
154 175 0
152 173 0
154 175 0
155 177 0
151 171 0
155 176 0
150 172 0
152 173 0
152 173 0
153 174 0
149 170 0
152 173 0
150 171 0
150 170 0
153 174 0
151 171 0
156 176 0
150 171 0
153 174 0
153 174 0
151 172 0
153 174 0
149 170 0
149 170 0
151 173 0
150 171 0
152 173 0
146 167 0
148 169 0
150 171 0
145 166 0
152 172 0
147 167 0
151 172 0
147 167 0
147 167 0
142 163 0
144 165 0
151 171 0
144 165 0
151 172 0
141 161 0
144 164 0
149 169 0
144 165 0
145 166 0
144 164 0
136 156 0
141 161 0
141 160 0
141 161 0
137 156 0
132 152 16
136 157 16
131 150 22
125 144 28
112 131 32
116 135 45
104 123 38
99 118 55
80 99 38
85 104 44
87 106 48
77 96 57
80 100 52
63 83 63
68 87 57
70 90 54
57 79 70
48 71 54
49 69 60
52 73 62
48 71 64
42 64 52
46 68 64
37 60 55
56 75 49
49 69 57
63 79 31
61 79 40
74 92 39
82 100 40
106 124 34
115 133 49
140 157 86
158 176 114
181 197 171
178 200 75
173 197 0
174 198 0
174 198 0
172 195 29
54 82 82
54 85 110
50 81 100
53 84 105
55 87 111
56 89 114
56 88 115
52 83 97
55 87 113
55 88 112
56 88 113
56 89 111
57 91 124
56 89 120
57 90 115
57 91 123
58 91 118
57 90 120
57 91 116
58 91 119
58 92 115
57 90 125
57 90 129
56 89 116
56 89 122
58 92 131
57 90 117
58 92 127
58 92 124
58 92 123
57 91 122
60 94 138
58 92 122
59 94 127
57 91 110
57 91 119
58 92 117
57 90 112
58 92 130
58 92 115
55 89 108
59 93 126
59 93 114
59 93 129
58 92 123
59 92 126
59 93 120
59 94 125
59 93 122
58 92 115
59 93 117
59 93 120
60 94 130
58 92 117
57 91 117
60 95 134
58 92 118
59 93 125
60 94 134
58 93 120
58 92 113
60 94 133
58 92 124
59 93 121
59 93 126
60 94 133
58 92 117
58 91 105
59 93 122
60 94 131
60 94 125
58 92 126
57 91 118
59 94 125
59 93 126
58 92 110
59 94 125
58 92 117
59 93 129
60 94 128
59 93 122
60 94 121
60 95 125
59 93 124
56 89 111
59 92 111
59 94 118
60 95 131
59 93 125
59 93 124
59 94 125
59 93 128
59 93 129
60 95 133
60 94 131
62 97 144
60 95 140
68 101 140
171 194 36
175 198 0
174 198 0
173 197 0
179 202 102
209 229 255
210 229 255
211 230 255
212 230 255
212 230 255
213 231 255
213 231 255
213 231 255
214 231 255
214 231 255
214 232 255
214 232 255
215 232 255
215 232 255
215 232 255
215 232 255
215 232 255
215 232 255
216 232 255
216 232 255
216 232 255
216 233 255
216 233 255
216 233 255
216 233 255
216 233 255
216 233 255
216 233 255
217 233 255
217 233 255
217 233 255
217 233 255
217 233 255
217 233 255
217 233 255
217 233 255
217 233 255
217 233 255
217 233 255
217 233 255
217 233 255
217 233 255
217 233 255
217 233 255
217 233 255
217 233 255
217 233 255
217 233 255
217 233 255
217 233 255
218 233 255
218 233 255
218 233 255
218 233 255
218 234 255
218 234 255
218 234 255
218 234 255
218 234 255
218 234 255
218 234 255
218 234 255
218 234 255
218 234 255
218 234 255
218 234 255
218 234 255
218 234 255
218 234 255
218 234 255
218 234 255
218 234 255
218 234 255
218 234 255
218 234 255
218 234 255
218 234 255
218 234 255
218 234 255
218 234 255
218 234 255
218 234 255
218 234 255
218 234 255
218 234 255
218 234 255
218 234 255
218 234 255
218 234 255
218 234 255
218 234 255
218 234 255
218 234 255
218 234 255
218 234 255
218 234 255
218 234 255
218 234 255
218 234 255
218 234 255
218 234 255
218 234 255
218 234 255
218 234 255
218 234 255
218 234 255
218 234 255
218 234 255
218 234 255
218 234 255
218 234 255
218 234 255
218 234 255
218 234 255
218 234 255
218 234 255
218 234 255
218 234 255
218 234 255
218 234 255
218 234 255
218 234 255
218 234 255
218 234 255
218 234 255
218 234 255
218 234 255
218 234 255
218 234 255
218 234 255
218 234 255
218 233 255
218 233 255
218 233 255
218 233 255
218 233 255
218 233 255
218 233 255
217 233 255
217 233 255
217 233 255
217 233 255
217 233 255
217 233 255
217 233 255
217 233 255
164 183 97
161 181 88
165 184 107
172 189 131
163 182 94
164 183 102
166 184 102
164 183 99
163 182 97
161 181 82
164 183 94
167 185 114
164 183 104
164 183 94
164 183 97
161 180 82
161 180 75
162 181 88
161 181 82
160 179 72
158 178 64
161 180 82
156 176 72
158 178 79
159 178 79
158 178 68
159 178 60
156 176 64
160 180 79
158 178 64
157 177 51
159 179 64
161 181 79
158 178 79
158 179 68
157 178 56
159 178 68
156 177 45
158 178 51
158 178 45
156 176 60
154 176 32
155 176 32
155 176 32
157 177 45
157 177 39
153 173 0
154 174 0
155 175 0
153 174 0
154 175 0
154 174 0
154 175 0
151 172 0
151 172 0
153 174 0
155 176 0
152 173 0
153 173 0
154 176 0
152 173 0
155 175 0
152 173 0
153 173 0
154 175 0
153 174 0
153 174 0
150 171 0
151 171 0
153 174 0
153 174 0
151 172 0
155 175 0
150 172 0
152 173 0
150 171 0
152 173 0
147 168 0
152 173 0
148 169 0
151 171 0
151 172 0
149 170 0
149 170 0
149 170 0
149 170 0
148 169 0
148 169 0
151 171 0
151 172 0
149 170 0
148 170 0
146 166 0
149 170 0
145 166 0
146 167 0
149 170 0
143 163 0
146 167 0
141 162 0
139 160 0
143 164 0
143 163 0
141 162 0
147 167 0
141 162 0
140 160 0
138 159 0
135 156 0
143 163 0
133 153 0
131 151 16
123 142 16
119 138 36
116 135 36
118 138 22
107 126 28
109 128 31
115 134 41
99 118 42
90 108 57
77 96 57
81 100 56
77 96 69
83 102 57
62 82 50
75 94 60
54 75 68
64 81 50
44 67 52
53 72 42
53 73 56
47 68 52
52 73 58
48 68 53
58 78 40
63 80 35
72 91 45
72 90 34
97 115 45
91 108 22
115 133 40
127 145 35
152 170 108
171 188 135
186 203 165
173 197 0
174 198 0
173 197 0
172 196 0
176 198 0
101 124 76
50 79 86
49 78 95
52 83 97
55 86 109
56 88 100
55 87 115
55 87 105
54 86 114
57 90 122
52 84 99
56 88 110
55 88 108
53 84 95
57 90 114
57 90 112
58 92 122
58 91 115
56 89 121
56 90 116
58 92 123
56 88 103
57 90 117
57 91 112
58 92 122
58 91 110
57 90 105
58 91 120
57 91 105
58 92 115
60 94 131
58 92 114
59 93 124
58 92 119
58 92 114
59 92 130
58 92 122
57 91 111
58 91 109
56 88 108
61 95 135
57 90 112
58 92 117
58 91 117
58 92 117
58 92 121
58 92 127
58 92 115
60 94 131
59 92 125
58 92 129
59 93 121
59 93 125
58 91 117
59 92 120
58 93 118
59 93 121
58 92 122
60 94 122
58 92 115
58 91 121
58 91 118
59 93 134
58 91 110
60 94 130
60 94 124
59 93 118
57 91 121
59 93 118
58 92 128
59 94 131
59 92 114
61 95 140
60 94 133
59 94 128
58 91 114
57 91 113
59 93 117
58 91 120
58 92 114
59 94 122
58 92 118
60 94 129
56 90 113
58 92 117
61 96 137
59 93 133
59 93 130
59 93 130
59 93 121
60 95 129
58 92 118
61 95 135
59 93 125
62 97 147
60 94 125
61 95 137
103 129 107
172 196 0
174 198 0
175 198 0
174 198 0
176 199 0
199 220 217
209 229 255
210 229 255
211 230 255
211 230 255
212 230 255
212 231 255
213 231 255
213 231 255
213 231 255
214 231 255
214 231 255
214 231 255
214 232 255
214 232 255
215 232 255
215 232 255
215 232 255
215 232 255
215 232 255
215 232 255
215 232 255
216 232 255
216 232 255
216 233 255
216 233 255
216 233 255
216 233 255
216 233 255
216 233 255
216 233 255
216 233 255
216 233 255
217 233 255
217 233 255
217 233 255
217 233 255
217 233 255
217 233 255
217 233 255
217 233 255
217 233 255
217 233 255
217 233 255
217 233 255
217 233 255
217 233 255
217 233 255
217 233 255
217 233 255
217 233 255
217 233 255
217 233 255
217 233 255
217 233 255
217 233 255
217 233 255
217 233 255
217 233 255
217 233 255
217 233 255
218 233 255
218 233 255
218 233 255
218 233 255
218 233 255
218 233 255
218 233 255
218 234 255
218 234 255
218 234 255
218 234 255
218 234 255
218 234 255
218 234 255
218 234 255
218 234 255
218 234 255
218 234 255
218 234 255
218 234 255
218 234 255
218 234 255
218 234 255
218 234 255
218 234 255
218 234 255
218 234 255
218 234 255
218 234 255
218 234 255
218 234 255
218 234 255
218 234 255
218 234 255
218 234 255
218 234 255
218 234 255
218 234 255
218 234 255
218 234 255
218 234 255
218 234 255
218 234 255
218 234 255
218 234 255
218 234 255
218 234 255
218 234 255
218 233 255
218 234 255
218 233 255
218 233 255
218 233 255
218 233 255
218 233 255
218 233 255
218 233 255
218 233 255
218 233 255
217 233 255
217 233 255
217 233 255
217 233 255
217 233 255
217 233 255
217 233 255
217 233 255
217 233 255
217 233 255
217 233 255
217 233 255
217 233 255
217 233 255
217 233 255
217 233 255
217 233 255
217 233 255
217 233 255
217 233 255
217 233 255
217 233 255
217 233 255
217 233 255
217 233 255
217 233 255
166 184 107
164 182 97
161 180 94
164 183 94
162 182 91
166 185 112
161 181 88
161 181 85
163 182 88
157 178 72
162 181 91
160 179 68
161 181 75
161 180 75
164 183 94
160 180 72
163 181 85
161 181 82
157 177 51
156 176 64
159 179 64
158 179 60
159 179 75
158 178 51
155 176 51
159 179 75
158 178 68
161 181 85
156 177 60
157 177 68
157 177 56
157 177 32
156 176 39
156 176 39
157 177 39
157 178 51
155 176 32
155 176 22
155 176 0
154 175 0
153 175 22
152 173 0
155 176 0
155 175 0
153 174 0
152 173 0
155 176 0
153 174 0
156 177 0
154 175 0
153 174 0
153 174 0
153 174 0
154 174 0
153 174 0
148 169 0
153 175 0
152 173 0
154 175 0
152 174 0
153 174 0
152 174 0
150 171 0
153 174 0
152 173 0
153 175 0
150 171 0
151 172 0
153 173 0
148 169 0
153 173 0
152 173 0
148 169 0
152 172 0
149 169 0
149 170 0
151 172 0
145 166 0
151 173 0
149 169 0
149 170 0
146 167 0
146 168 0
151 173 0
150 171 0
148 169 0
149 170 0
146 168 0
151 172 0
148 170 0
146 167 0
147 168 0
145 167 0
146 167 0
146 167 0
148 168 0
142 162 0
144 164 0
146 167 0
146 166 0
143 163 0
140 161 0
144 164 0
137 157 0
141 162 0
134 154 0
132 152 0
134 154 0
136 156 0
134 154 0
138 157 0
138 158 0
135 153 22
124 142 16
120 139 22
114 133 45
122 140 16
103 122 34
101 119 42
95 114 37
91 111 52
88 106 39
84 102 49
83 101 48
85 102 52
64 84 60
73 90 42
69 89 61
65 83 50
57 76 46
53 71 53
48 69 44
59 77 49
53 72 38
58 75 30
63 81 44
66 83 50
79 95 17
86 103 28
97 115 41
106 124 36
120 139 21
143 162 47
157 175 107
173 189 150
178 199 99
173 197 0
173 197 0
175 198 0
173 197 0
175 198 0
146 168 37
51 80 98
48 77 95
53 84 110
53 85 101
54 86 103
54 85 113
54 86 106
55 87 115
55 87 112
54 86 113
57 90 124
55 87 113
56 89 111
55 88 108
57 90 122
57 90 115
58 91 120
54 87 109
57 90 115
57 89 112
57 90 113
57 91 119
58 91 126
59 92 123
58 91 112
56 90 108
58 91 117
60 94 130
54 86 93
59 93 126
58 91 108
59 93 127
59 94 123
60 94 132
58 92 116
60 94 129
56 89 103
57 90 122
59 93 117
60 94 133
58 91 115
59 94 131
58 92 122
58 91 115
57 90 113
59 93 126
58 91 121
56 89 102
58 91 119
58 91 115
58 92 121
56 90 108
58 91 120
57 91 114
59 93 114
58 92 126
59 92 117
59 93 120
59 93 130
59 93 124
59 93 129
57 91 117
58 91 114
59 92 121
58 92 115
58 92 115
59 93 121
59 94 130
60 94 126
58 92 118
58 92 114
59 93 120
59 93 121
57 90 115
59 94 126
58 91 115
59 93 117
59 93 122
58 92 121
60 94 126
58 92 125
59 93 122
59 93 122
57 91 113
58 92 130
59 93 114
60 94 135
59 92 110
60 95 139
58 92 126
60 95 128
61 95 139
60 94 129
58 92 120
60 94 134
62 96 142
144 168 86
173 197 0
174 197 0
171 195 0
174 197 0
171 195 0
185 208 149
208 228 255
209 229 255
210 229 255
211 230 255
211 230 255
212 230 255
212 230 255
212 231 255
213 231 255
213 231 255
213 231 255
213 231 255
214 231 255
214 231 255
214 232 255
214 232 255
214 232 255
215 232 255
215 232 255
215 232 255
215 232 255
215 232 255
215 232 255
215 232 255
216 232 255
216 232 255
216 232 255
216 233 255
216 233 255
216 233 255
216 233 255
216 233 255
216 233 255
216 233 255
216 233 255
216 233 255
216 233 255
217 233 255
217 233 255
217 233 255
217 233 255
217 233 255
217 233 255
217 233 255
217 233 255
217 233 255
217 233 255
217 233 255
217 233 255
217 233 255
217 233 255
217 233 255
217 233 255
217 233 255
217 233 255
217 233 255
217 233 255
217 233 255
217 233 255
217 233 255
217 233 255
217 233 255
217 233 255
217 233 255
217 233 255
217 233 255
217 233 255
217 233 255
217 233 255
217 233 255
217 233 255
217 233 255
217 233 255
217 233 255
217 233 255
217 233 255
217 233 255
217 233 255
217 233 255
217 233 255
217 233 255
217 233 255
217 233 255
217 233 255
217 233 255
217 233 255
217 233 255
217 233 255
217 233 255
217 233 255
217 233 255
217 233 255
217 233 255
217 233 255
217 233 255
217 233 255
217 233 255
217 233 255
217 233 255
217 233 255
217 233 255
217 233 255
217 233 255
217 233 255
217 233 255
217 233 255
217 233 255
217 233 255
217 233 255
217 233 255
217 233 255
217 233 255
217 233 255
217 233 255
217 233 255
217 233 255
217 233 255
217 233 255
217 233 255
217 233 255
217 233 255
217 233 255
217 233 255
217 233 255
217 233 255
217 233 255
217 233 255
217 233 255
217 233 255
217 233 255
217 233 255
217 233 255
217 233 255
217 233 255
217 233 255
217 233 255
217 233 255
217 233 255
217 233 255
217 233 255
217 233 255
217 233 255
217 233 255
217 233 255
217 233 255
167 185 116
159 180 68
163 182 94
158 178 72
163 181 97
161 181 88
160 180 72
156 177 56
161 181 85
160 179 75
161 180 75
158 178 75
161 180 72
159 178 68
158 177 64
158 179 72
161 180 75
157 178 64
161 180 72
156 176 56
155 176 45
159 179 64
156 175 56
153 174 45
156 176 39
156 176 56
157 178 51
156 176 51
158 178 39
155 176 22
152 173 0
157 177 22
155 176 22
156 177 39
152 173 0
153 174 0
154 176 0
155 176 0
153 174 0
153 175 0
152 173 0
154 175 0
150 171 0
150 171 0
153 174 0
154 175 0
153 174 0
154 175 0
150 171 0
152 173 0
150 171 0
153 174 0
152 173 0
152 173 0
152 173 0
153 174 0
152 173 0
153 174 0
153 174 0
150 171 0
152 173 0
151 172 0
154 174 0
150 171 0
151 172 0
150 172 0
153 174 0
150 171 0
152 172 0
152 174 0
149 170 0
152 173 0
146 166 0
149 169 0
151 172 0
153 174 0
148 170 0
150 171 0
148 169 0
149 170 0
149 170 0
152 172 0
145 165 0
148 168 0
150 170 0
148 168 0
146 167 0
147 168 0
148 168 0
141 162 0
145 166 0
148 167 0
143 163 0
145 165 0
146 166 0
138 159 0
147 168 0
142 163 0
143 164 0
142 161 0
141 161 0
145 165 0
137 157 0
137 157 0
140 160 0
138 158 0
134 153 0
135 155 0
131 151 0
128 147 0
127 147 0
129 147 0
127 146 0
130 149 0
126 144 0
114 133 16
110 128 38
109 126 36
85 103 22
91 109 42
89 107 48
98 116 53
81 99 39
90 108 49
75 94 45
68 85 38
74 91 42
59 76 42
56 75 52
69 86 61
63 81 9
65 82 37
63 79 48
65 83 50
72 90 43
63 82 57
73 90 48
74 91 23
90 108 34
103 122 21
117 135 31
133 153 0
142 161 69
164 181 124
181 198 152
175 198 32
175 198 0
173 197 0
172 196 0
174 198 0
173 197 0
173 195 0
78 102 73
51 80 91
52 82 103
53 83 107
52 83 98
53 84 101
53 84 100
54 86 99
57 89 116
56 88 114
53 85 106
57 89 118
55 88 113
57 90 121
57 90 115
56 89 105
58 92 122
56 88 109
57 89 116
57 90 117
58 91 125
56 88 109
58 91 119
57 91 116
57 90 122
57 90 119
57 91 113
58 91 107
59 93 130
56 90 115
57 91 123
57 91 109
57 91 115
59 93 126
56 88 120
59 93 119
57 90 114
58 92 114
57 91 111
59 93 117
58 92 118
57 90 117
58 92 115
58 93 129
59 93 128
58 91 115
57 91 109
57 90 111
57 90 108
59 93 122
59 93 122
58 92 118
57 90 110
59 93 121
58 92 117
59 93 133
58 92 118
58 92 124
60 94 128
56 90 107
59 93 120
58 92 120
58 92 118
60 94 126
56 89 108
58 92 114
57 90 120
58 92 118
57 91 110
59 92 122
59 92 114
57 91 111
58 91 117
59 92 107
60 94 122
57 91 108
58 92 113
58 91 108
61 95 139
59 93 129
58 92 120
58 91 117
59 93 120
57 91 111
60 94 128
59 93 121
60 95 135
57 90 122
58 92 120
58 92 118
60 94 134
61 96 141
58 91 113
59 93 126
60 95 140
77 107 129
173 196 25
174 197 0
174 197 0
174 197 0
174 197 0
174 197 0
177 199 36
200 222 228
208 228 255
209 229 255
210 229 255
210 229 255
211 230 255
211 230 255
212 230 255
212 230 255
212 231 255
213 231 255
213 231 255
213 231 255
213 231 255
214 231 255
214 231 255
214 231 255
214 232 255
214 232 255
215 232 255
215 232 255
215 232 255
215 232 255
215 232 255
215 232 255
215 232 255
215 232 255
215 232 255
216 232 255
216 232 255
216 232 255
216 232 255
216 233 255
216 233 255
216 233 255
216 233 255
216 233 255
216 233 255
216 233 255
216 233 255
216 233 255
216 233 255
216 233 255
217 233 255
217 233 255
217 233 255
217 233 255
217 233 255
217 233 255
217 233 255
217 233 255
217 233 255
217 233 255
217 233 255
217 233 255
217 233 255
217 233 255
217 233 255
217 233 255
217 233 255
217 233 255
217 233 255
217 233 255
217 233 255
217 233 255
217 233 255
217 233 255
217 233 255
217 233 255
217 233 255
217 233 255
217 233 255
217 233 255
217 233 255
217 233 255
217 233 255
217 233 255
217 233 255
217 233 255
217 233 255
217 233 255
217 233 255
217 233 255
217 233 255
217 233 255
217 233 255
217 233 255
217 233 255
217 233 255
217 233 255
217 233 255
217 233 255
217 233 255
217 233 255
217 233 255
217 233 255
217 233 255
217 233 255
217 233 255
217 233 255
217 233 255
217 233 255
217 233 255
217 233 255
217 233 255
217 233 255
217 233 255
217 233 255
217 233 255
217 233 255
217 233 255
217 233 255
217 233 255
217 233 255
217 233 255
217 233 255
217 233 255
217 233 255
217 233 255
217 233 255
217 233 255
217 233 255
217 233 255
217 233 255
217 233 255
217 233 255
217 233 255
217 233 255
217 233 255
217 233 255
217 233 255
217 233 255
217 233 255
217 233 255
217 233 255
217 233 255
217 233 255
217 233 255
217 233 255
217 233 255
217 233 255
217 233 255
217 233 255
217 233 255
217 233 255
163 182 88
160 180 72
160 180 79
163 183 97
161 180 72
162 182 85
161 180 75
161 180 82
162 181 79
163 182 85
159 179 60
159 179 64
159 179 64
156 176 56
157 178 60
156 177 39
156 177 45
158 178 79
153 174 39
155 175 45
156 177 32
157 177 32
158 178 39
156 176 0
155 176 32
155 176 39
154 175 0
153 174 22
153 175 0
155 176 0
153 174 0
149 171 0
154 175 0
153 175 0
153 174 0
154 175 0
156 176 0
155 176 0
153 175 0
154 175 0
152 173 0
156 176 0
152 173 0
154 175 0
153 174 0
150 171 0
153 173 0
154 175 0
151 171 0
153 174 0
154 175 0
150 171 0
152 173 0
152 173 0
150 171 0
152 173 0
151 173 0
154 175 0
151 172 0
151 172 0
150 171 0
152 172 0
153 174 0
152 173 0
150 171 0
150 171 0
148 169 0
152 172 0
151 172 0
152 173 0
148 168 0
153 174 0
145 165 0
147 168 0
148 169 0
149 170 0
149 170 0
149 170 0
151 171 0
150 171 0
146 167 0
152 172 0
149 170 0
147 168 0
149 169 0
146 167 0
147 167 0
144 165 0
148 169 0
143 164 0
144 165 0
147 168 0
147 168 0
144 164 0
146 166 0
148 169 0
140 161 0
141 161 0
144 164 0
149 170 0
136 156 0
139 159 0
138 159 0
137 157 0
139 158 0
137 156 0
137 156 0
136 156 0
124 144 0
124 144 0
134 153 0
125 144 0
119 138 0
125 144 0
111 128 0
109 127 16
119 137 36
110 128 32
108 126 39
100 118 35
102 120 51
92 109 32
79 96 31
80 98 39
86 102 21
80 97 48
79 96 28
67 83 35
71 88 42
59 75 37
53 72 42
67 85 44
72 89 44
59 75 46
71 89 35
66 83 35
91 108 38
95 113 21
95 113 19
114 132 33
124 143 16
140 159 28
150 168 87
169 186 134
183 202 130
172 196 0
171 195 0
174 197 0
173 196 0
174 198 0
173 196 0
173 197 0
115 137 55
47 75 83
52 83 89
51 81 90
52 82 89
53 83 94
53 84 107
54 85 107
55 87 103
55 87 115
54 86 101
54 86 96
57 90 120
57 90 113
57 90 111
58 92 120
56 88 111
56 89 110
57 90 117
56 89 104
56 89 100
57 91 105
57 91 118
57 91 109
59 94 131
58 92 124
59 93 134
57 89 119
58 91 115
56 89 109
57 90 104
58 91 124
58 92 113
58 91 126
59 93 125
57 91 111
59 93 121
57 90 117
58 92 117
57 90 109
58 91 106
58 92 121
58 91 111
59 93 118
57 91 111
59 92 129
57 91 117
57 90 111
59 93 125
57 90 115
58 91 120
56 90 111
58 92 118
57 90 111
60 94 133
56 89 110
57 89 110
59 93 114
58 92 118
56 90 114
59 93 126
57 90 114
57 90 114
56 90 99
59 94 125
60 94 128
59 93 115
58 91 115
59 93 117
58 92 121
57 90 117
58 91 113
59 93 115
60 94 120
58 91 118
57 91 111
58 91 117
58 92 120
58 92 113
59 92 120
58 92 125
60 95 130
58 91 111
57 91 117
59 93 131
59 93 121
60 94 125
58 92 117
60 95 130
60 94 130
59 92 120
60 94 130
59 93 135
58 92 125
59 93 128
128 152 90
173 197 0
173 196 0
174 197 0
174 197 0
174 197 0
173 196 0
172 195 0
186 209 151
207 227 255
208 228 255
209 229 255
209 229 255
210 229 255
210 230 255
211 230 255
211 230 255
212 230 255
212 230 255
212 231 255
213 231 255
213 231 255
213 231 255
213 231 255
214 231 255
214 231 255
214 231 255
214 232 255
214 232 255
214 232 255
214 232 255
215 232 255
215 232 255
215 232 255
215 232 255
215 232 255
215 232 255
215 232 255
215 232 255
215 232 255
216 232 255
216 232 255
216 232 255
216 232 255
216 233 255
216 233 255
216 233 255
216 233 255
216 233 255
216 233 255
216 233 255
216 233 255
216 233 255
216 233 255
216 233 255
216 233 255
216 233 255
216 233 255
216 233 255
217 233 255
217 233 255
217 233 255
217 233 255
217 233 255
217 233 255
217 233 255
217 233 255
217 233 255
217 233 255
217 233 255
217 233 255
217 233 255
217 233 255
217 233 255
217 233 255
217 233 255
217 233 255
217 233 255
217 233 255
217 233 255
217 233 255
217 233 255
217 233 255
217 233 255
217 233 255
217 233 255
217 233 255
217 233 255
217 233 255
217 233 255
217 233 255
217 233 255
217 233 255
217 233 255
217 233 255
217 233 255
217 233 255
217 233 255
217 233 255
217 233 255
217 233 255
217 233 255
217 233 255
217 233 255
217 233 255
217 233 255
217 233 255
217 233 255
217 233 255
217 233 255
217 233 255
217 233 255
217 233 255
217 233 255
217 233 255
217 233 255
217 233 255
217 233 255
217 233 255
217 233 255
217 233 255
217 233 255
217 233 255
217 233 255
217 233 255
217 233 255
217 233 255
217 233 255
217 233 255
217 233 255
217 233 255
217 233 255
217 233 255
217 233 255
217 233 255
217 233 255
217 233 255
217 233 255
217 233 255
217 233 255
217 233 255
217 233 255
217 233 255
217 233 255
217 233 255
216 233 255
216 233 255
216 233 255
216 233 255
216 233 255
216 233 255
216 233 255
216 233 255
158 178 64
166 184 107
158 178 68
157 178 45
158 178 64
160 180 79
157 177 56
157 178 64
158 178 64
157 177 51
160 180 72
156 176 51
156 177 45
157 178 56
157 177 51
156 177 51
157 177 39
155 176 39
155 176 0
155 176 22
154 175 22
154 175 0
156 177 0
151 173 0
152 174 0
152 174 0
154 175 0
152 174 0
155 176 0
152 172 0
153 174 0
154 175 0
153 175 0
152 173 0
154 174 0
151 173 0
151 172 0
154 175 0
152 173 0
153 174 0
154 175 0
155 176 0
153 174 0
153 174 0
152 174 0
153 173 0
153 174 0
149 170 0
152 174 0
154 175 0
151 172 0
154 174 0
154 175 0
153 173 0
154 174 0
151 172 0
153 174 0
152 174 0
150 171 0
150 171 0
152 173 0
154 174 0
151 171 0
149 170 0
152 173 0
150 172 0
149 170 0
149 169 0
149 170 0
152 172 0
148 169 0
147 168 0
152 173 0
148 169 0
151 171 0
150 170 0
151 172 0
147 168 0
147 167 0
147 168 0
148 168 0
146 166 0
140 160 0
147 168 0
142 163 0
144 165 0
140 160 0
145 165 0
147 167 0
146 167 0
147 167 0
145 166 0
142 162 0
145 165 0
140 160 0
138 158 0
135 154 0
143 163 0
138 157 0
135 155 0
140 160 0
135 154 0
142 162 0
141 161 0
140 159 0
141 162 0
137 157 0
140 160 0
125 144 0
131 151 0
124 143 0
122 141 0
134 153 0
120 138 0
123 142 16
116 134 36
110 128 32
110 129 28
98 115 22
103 122 36
85 102 36
79 96 27
85 102 42
82 99 42
93 109 28
80 95 29
70 88 51
64 81 46
70 86 32
74 91 21
64 80 20
72 89 40
82 98 36
77 93 27
87 103 21
95 112 14
85 103 31
93 112 32
104 123 32
125 144 0
133 152 0
151 171 36
158 177 99
174 191 134
175 198 25
174 198 0
175 198 0
174 197 0
173 197 0
170 194 0
174 197 0
171 195 0
164 187 24
56 83 86
52 82 91
51 81 96
54 85 109
51 80 92
55 88 114
53 84 98
55 86 105
56 89 108
55 87 105
54 86 105
55 88 102
56 89 114
55 87 110
55 88 100
55 87 103
57 90 114
58 91 121
58 91 122
58 91 118
58 91 118
58 91 115
59 93 122
55 88 111
56 89 108
57 91 111
57 89 117
58 92 123
56 89 105
59 93 113
58 92 124
56 89 99
58 92 115
56 89 105
57 89 117
58 91 117
57 90 114
58 91 117
61 95 129
58 92 119
57 90 113
57 90 111
56 89 111
59 93 128
58 92 128
57 91 115
56 90 108
58 92 118
57 90 102
59 93 129
58 90 117
60 94 124
57 90 107
59 93 124
59 93 121
58 92 126
59 93 117
59 92 121
57 91 114
58 91 108
58 92 114
57 90 115
57 90 110
57 91 108
57 91 114
59 93 122
59 93 122
58 91 115
58 92 118
57 91 111
57 90 110
58 92 110
59 93 122
58 91 115
58 92 114
57 91 114
58 92 111
58 92 122
59 92 121
59 94 122
57 91 107
58 92 117
58 92 121
58 91 114
57 90 124
58 92 120
59 93 121
61 96 139
58 92 126
57 89 121
59 93 129
60 94 133
60 95 134
59 93 124
159 182 40
173 196 0
174 197 0
174 198 0
172 196 0
172 196 0
172 196 0
172 196 0
173 197 25
202 223 240
207 227 255
208 228 255
208 228 255
209 229 255
210 229 255
210 229 255
211 230 255
211 230 255
211 230 255
212 230 255
212 230 255
212 231 255
212 231 255
213 231 255
213 231 255
213 231 255
213 231 255
214 231 255
214 231 255
214 231 255
214 232 255
214 232 255
214 232 255
214 232 255
215 232 255
215 232 255
215 232 255
215 232 255
215 232 255
215 232 255
215 232 255
215 232 255
215 232 255
215 232 255
215 232 255
216 232 255
216 232 255
216 232 255
216 232 255
216 232 255
216 233 255
216 233 255
216 233 255
216 233 255
216 233 255
216 233 255
216 233 255
216 233 255
216 233 255
216 233 255
216 233 255
216 233 255
216 233 255
216 233 255
216 233 255
216 233 255
216 233 255
216 233 255
216 233 255
217 233 255
217 233 255
217 233 255
217 233 255
217 233 255
217 233 255
217 233 255
217 233 255
217 233 255
217 233 255
217 233 255
217 233 255
217 233 255
217 233 255
217 233 255
217 233 255
217 233 255
217 233 255
217 233 255
217 233 255
217 233 255
217 233 255
217 233 255
217 233 255
217 233 255
217 233 255
217 233 255
217 233 255
217 233 255
217 233 255
217 233 255
217 233 255
217 233 255
217 233 255
217 233 255
217 233 255
217 233 255
217 233 255
217 233 255
217 233 255
217 233 255
217 233 255
217 233 255
217 233 255
217 233 255
217 233 255
217 233 255
217 233 255
217 233 255
217 233 255
217 233 255
217 233 255
217 233 255
217 233 255
217 233 255
217 233 255
217 233 255
217 233 255
217 233 255
217 233 255
216 233 255
216 233 255
216 233 255
216 233 255
216 233 255
216 233 255
216 233 255
216 233 255
216 233 255
216 233 255
216 233 255
216 233 255
216 233 255
216 233 255
216 233 255
216 233 255
216 233 255
216 233 255
216 233 255
216 233 255
216 233 255
216 233 255
216 233 255
216 233 255
161 181 82
162 181 75
158 178 60
158 178 60
160 180 72
155 176 56
157 177 56
159 179 64
158 178 60
154 175 45
155 175 60
158 178 51
154 175 32
155 175 0
157 178 39
154 175 0
155 176 0
154 175 22
154 175 0
155 175 0
156 177 0
152 173 0
153 175 0
153 174 0
153 174 0
151 172 0
153 174 0
154 175 0
155 176 0
151 173 0
154 175 0
154 175 0
154 174 0
155 176 0
154 175 0
153 174 0
155 175 0
152 173 0
151 171 0
152 174 0
151 172 0
152 172 0
151 172 0
152 173 0
154 176 0
151 172 0
153 173 0
150 170 0
150 171 0
151 171 0
149 171 0
150 171 0
149 169 0
151 172 0
154 176 0
149 170 0
152 173 0
152 172 0
152 172 0
153 173 0
151 172 0
149 170 0
154 175 0
150 171 0
152 173 0
151 172 0
148 168 0
151 172 0
149 170 0
150 170 0
149 171 0
151 171 0
150 171 0
150 171 0
149 170 0
147 168 0
148 169 0
147 167 0
147 168 0
148 169 0
145 166 0
146 167 0
143 164 0
147 167 0
148 169 0
147 167 0
146 166 0
144 165 0
144 165 0
145 166 0
144 165 0
147 166 0
143 164 0
140 160 0
139 159 0
140 161 0
142 162 0
145 165 0
141 161 0
137 158 0
131 152 0
137 157 0
136 156 0
134 154 0
137 156 0
131 151 0
130 150 0
126 145 0
132 151 0
123 141 0
130 149 0
126 144 0
123 142 0
114 132 0
127 145 0
115 133 0
108 126 0
111 129 14
108 125 16
94 111 28
90 107 35
92 108 22
91 107 27
83 99 35
87 103 28
79 95 22
73 89 25
75 92 35
68 82 31
77 92 36
87 103 22
75 91 35
77 92 26
80 97 27
91 108 16
86 102 10
95 111 22
111 129 0
113 131 10
126 145 16
135 154 0
153 172 100
163 181 121
174 195 85
171 195 0
174 197 0
175 197 0
174 197 0
172 195 0
171 195 0
174 197 0
173 196 0
173 196 0
112 133 69
49 78 86
52 83 92
51 81 91
53 84 98
52 84 103
52 83 102
51 81 86
56 89 110
56 88 112
53 84 106
57 89 113
55 87 99
55 87 110
57 90 118
55 88 102
57 90 109
57 90 113
59 92 122
56 89 110
55 87 103
58 91 120
56 89 103
57 91 114
57 89 120
57 91 117
58 91 115
57 90 116
57 90 108
57 91 120
54 87 103
58 92 120
56 89 95
58 92 117
56 90 108
56 89 97
58 92 117
57 90 115
58 91 122
58 91 122
58 91 111
57 91 118
58 92 121
58 92 108
56 89 113
59 93 118
58 92 124
58 92 124
55 88 103
58 92 113
58 92 118
56 90 113
56 89 113
59 93 121
60 94 125
55 88 105
58 92 125
57 90 111
58 92 125
58 92 117
58 92 117
59 92 125
57 91 118
59 92 125
58 91 120
58 92 120
58 93 122
57 90 113
58 92 121
58 92 113
59 93 122
57 91 103
57 90 122
58 92 110
59 93 126
58 92 125
58 92 118
57 90 108
59 93 124
58 91 113
59 93 128
58 91 117
57 90 108
58 91 117
58 92 114
58 91 114
60 94 133
57 91 111
57 91 115
58 91 130
59 94 128
58 91 117
58 92 126
122 147 100
175 198 0
172 196 0
174 197 0
173 196 0
172 196 0
174 197 0
174 197 0
174 197 0
170 194 0
186 209 161
205 227 255
206 227 255
207 228 255
208 228 255
209 229 255
209 229 255
210 229 255
210 229 255
211 230 255
211 230 255
211 230 255
212 230 255
212 230 255
212 231 255
212 231 255
213 231 255
213 231 255
213 231 255
213 231 255
213 231 255
214 231 255
214 231 255
214 231 255
214 232 255
214 232 255
214 232 255
214 232 255
215 232 255
215 232 255
215 232 255
215 232 255
215 232 255
215 232 255
215 232 255
215 232 255
215 232 255
215 232 255
215 232 255
215 232 255
215 232 255
216 232 255
216 232 255
216 232 255
216 232 255
216 232 255
216 232 255
216 233 255
216 233 255
216 233 255
216 233 255
216 233 255
216 233 255
216 233 255
216 233 255
216 233 255
216 233 255
216 233 255
216 233 255
216 233 255
216 233 255
216 233 255
216 233 255
216 233 255
216 233 255
216 233 255
216 233 255
216 233 255
216 233 255
216 233 255
216 233 255
216 233 255
216 233 255
216 233 255
216 233 255
216 233 255
216 233 255
216 233 255
216 233 255
216 233 255
216 233 255
216 233 255
217 233 255
216 233 255
216 233 255
217 233 255
217 233 255
217 233 255
216 233 255
216 233 255
217 233 255
217 233 255
216 233 255
216 233 255
217 233 255
216 233 255
217 233 255
216 233 255
216 233 255
216 233 255
216 233 255
216 233 255
216 233 255
216 233 255
216 233 255
216 233 255
216 233 255
216 233 255
216 233 255
216 233 255
216 233 255
216 233 255
216 233 255
216 233 255
216 233 255
216 233 255
216 233 255
216 233 255
216 233 255
216 233 255
216 233 255
216 233 255
216 233 255
216 233 255
216 233 255
216 233 255
216 233 255
216 233 255
216 233 255
216 233 255
216 233 255
216 233 255
216 233 255
216 233 255
216 233 255
216 233 255
216 233 255
216 233 255
216 233 255
216 233 255
216 233 255
216 233 255
216 232 255
216 232 255
162 181 75
158 178 51
156 177 39
157 177 56
154 174 22
159 179 64
155 176 32
157 177 51
157 177 39
154 174 22
155 176 32
156 176 32
153 174 0
154 176 0
153 174 0
154 175 0
153 174 0
154 175 0
154 174 0
153 174 0
154 175 0
155 175 0
153 174 0
153 173 0
154 175 0
155 176 0
153 174 0
153 174 0
153 174 0
154 175 0
150 171 0
152 173 0
153 174 0
153 174 0
153 173 0
152 173 0
152 173 0
152 173 0
150 171 0
150 171 0
153 174 0
152 173 0
151 172 0
151 173 0
153 174 0
152 172 0
153 174 0
148 169 0
154 175 0
152 173 0
153 174 0
153 174 0
149 170 0
151 171 0
153 173 0
155 176 0
153 173 0
151 172 0
147 168 0
151 173 0
146 167 0
149 170 0
151 172 0
150 171 0
152 172 0
150 171 0
148 169 0
141 162 0
149 170 0
152 172 0
149 169 0
149 170 0
150 172 0
149 169 0
146 167 0
143 163 0
151 171 0
147 168 0
148 169 0
150 171 0
148 169 0
147 167 0
144 165 0
143 164 0
144 165 0
143 164 0
148 168 0
144 165 0
140 161 0
141 161 0
141 161 0
147 168 0
150 170 0
140 161 0
137 157 0
143 162 0
138 158 0
126 146 0
136 157 0
133 153 0
138 158 0
136 156 0
131 151 0
141 159 0
129 148 0
136 157 0
130 149 0
129 148 0
122 142 0
119 138 0
127 145 0
132 150 0
118 136 0
124 142 0
119 136 0
109 127 0
108 125 0
106 121 16
110 128 0
109 126 22
95 112 0
91 107 22
84 100 22
83 98 16
82 98 31
84 99 35
83 99 31
82 98 32
80 96 30
77 93 50
83 97 16
86 102 32
86 102 27
84 98 28
90 106 16
104 122 28
109 126 21
105 123 24
126 144 0
129 148 0
137 155 62
154 171 104
176 194 138
174 198 25
170 193 0
173 196 0
171 195 0
170 193 0
169 192 0
172 196 0
173 197 0
173 197 0
172 196 0
156 179 27
49 77 80
51 82 94
53 85 104
52 83 84
55 88 104
50 81 83
54 85 102
55 86 106
54 85 106
55 88 103
53 84 96
55 87 108
55 87 107
57 89 117
54 86 110
56 89 115
56 89 120
57 91 123
55 87 103
56 89 123
58 91 113
57 91 111
58 92 124
59 92 127
58 92 117
58 91 121
59 93 120
59 92 126
53 85 88
57 91 113
57 91 112
58 91 118
59 92 121
56 90 111
58 91 113
59 93 122
56 89 117
57 90 106
57 91 114
59 92 126
58 91 115
58 91 117
57 90 100
59 92 124
58 92 118
58 92 120
57 90 117
57 91 108
58 92 113
58 91 113
58 92 114
58 93 111
59 93 122
59 93 126
58 91 118
59 93 111
57 91 105
58 92 118
57 90 114
58 91 114
58 91 121
58 92 115
59 93 120
59 93 125
58 92 117
57 91 111
59 94 126
57 91 103
58 92 108
57 90 110
59 94 126
58 92 129
58 92 117
57 90 102
57 91 113
58 92 111
59 93 125
57 90 110
58 92 120
60 94 125
57 90 118
57 90 113
58 92 118
58 92 115
58 92 115
58 92 122
58 91 115
58 92 125
58 92 125
57 90 113
56 90 111
58 91 125
162 185 44
173 196 0
173 197 0
174 198 0
174 197 0
171 194 0
175 198 0
174 197 0
174 197 0
174 197 0
173 196 0
198 220 230
205 227 255
206 227 255
207 228 255
208 228 255
208 228 255
209 229 255
209 229 255
210 229 255
210 229 255
211 230 255
211 230 255
211 230 255
212 230 255
212 230 255
212 230 255
212 231 255
213 231 255
213 231 255
213 231 255
213 231 255
213 231 255
213 231 255
214 231 255
214 231 255
214 231 255
214 231 255
214 232 255
214 232 255
214 232 255
214 232 255
215 232 255
215 232 255
215 232 255
215 232 255
215 232 255
215 232 255
215 232 255
215 232 255
215 232 255
215 232 255
215 232 255
215 232 255
215 232 255
215 232 255
215 232 255
216 232 255
216 232 255
216 232 255
216 232 255
216 232 255
216 232 255
216 232 255
216 232 255
216 233 255
216 233 255
216 233 255
216 233 255
216 233 255
216 233 255
216 233 255
216 233 255
216 233 255
216 233 255
216 233 255
216 233 255
216 233 255
216 233 255
216 233 255
216 233 255
216 233 255
216 233 255
216 233 255
216 233 255
216 233 255
216 233 255
216 233 255
216 233 255
216 233 255
216 233 255
216 233 255
216 233 255
216 233 255
216 233 255
216 233 255
216 233 255
216 233 255
216 233 255
216 233 255
216 233 255
216 233 255
216 233 255
216 233 255
216 233 255
216 233 255
216 233 255
216 233 255
216 233 255
216 233 255
216 233 255
216 233 255
216 233 255
216 233 255
216 233 255
216 233 255
216 233 255
216 233 255
216 233 255
216 233 255
216 233 255
216 233 255
216 233 255
216 233 255
216 233 255
216 233 255
216 233 255
216 233 255
216 233 255
216 233 255
216 233 255
216 233 255
216 233 255
216 233 255
216 233 255
216 233 255
216 233 255
216 233 255
216 233 255
216 232 255
216 232 255
216 232 255
216 232 255
216 232 255
216 232 255
216 232 255
216 232 255
216 232 255
216 232 255
216 232 255
216 232 255
216 232 255
216 232 255
215 232 255
156 177 45
157 177 45
157 177 51
157 177 39
157 177 45
154 175 0
157 177 22
155 176 32
153 175 0
155 176 22
152 173 0
154 175 0
151 172 0
153 174 0
155 176 0
152 173 0
152 173 0
153 173 0
153 174 0
153 175 0
153 174 0
155 176 0
154 175 0
154 175 0
154 174 0
153 173 0
154 175 0
153 173 0
155 176 0
153 174 0
151 172 0
153 174 0
151 172 0
154 175 0
154 174 0
151 172 0
153 174 0
151 171 0
155 176 0
150 171 0
150 171 0
151 172 0
152 173 0
148 168 0
151 172 0
149 171 0
152 173 0
151 173 0
150 171 0
152 173 0
145 167 0
153 174 0
148 169 0
150 171 0
151 172 0
149 169 0
150 171 0
146 168 0
150 171 0
149 170 0
151 172 0
148 168 0
152 172 0
152 173 0
148 170 0
151 173 0
146 167 0
137 158 0
150 170 0
152 173 0
148 169 0
151 171 0
147 168 0
148 168 0
152 172 0
151 171 0
151 171 0
145 165 0
148 168 0
146 166 0
145 166 0
143 163 0
148 168 0
139 159 0
145 166 0
142 163 0
144 164 0
142 162 0
137 156 0
145 166 0
137 158 0
143 163 0
144 163 0
141 162 0
150 170 0
139 158 0
137 157 0
135 155 0
140 161 0
133 152 0
134 154 0
132 152 0
135 154 0
134 154 0
126 146 0
133 152 0
129 149 0
132 152 0
120 139 0
128 146 0
121 140 0
118 137 0
116 134 0
118 136 0
120 137 0
115 132 0
114 132 0
108 124 0
113 130 0
101 118 22
105 122 32
93 110 32
90 105 21
89 104 0
86 101 27
86 99 22
101 116 0
75 91 32
84 100 31
77 91 28
95 111 0
83 99 22
94 110 22
99 116 0
97 114 27
108 126 0
111 129 0
121 138 0
124 144 0
139 158 36
151 168 92
173 189 142
176 198 76
173 196 0
171 195 0
168 192 0
171 195 0
171 194 0
168 192 0
172 196 0
171 194 0
172 195 0
173 197 0
170 192 0
113 135 73
47 76 72
51 80 96
49 79 69
52 83 96
54 85 97
52 83 96
56 88 106
54 85 105
54 86 95
54 86 105
56 89 107
54 87 108
56 89 96
56 88 110
57 90 109
55 88 99
56 89 98
55 87 104
59 92 111
58 91 116
55 87 108
54 86 96
58 91 122
57 90 111
56 88 108
54 86 93
58 91 123
56 89 105
54 86 95
57 90 115
58 92 118
58 91 113
57 91 115
55 88 99
57 90 114
58 92 120
58 91 111
57 90 117
58 91 115
58 92 118
57 90 114
57 91 114
57 90 111
60 94 124
57 90 114
58 92 122
58 91 114
57 90 108
58 91 115
58 92 111
57 91 115
59 93 121
57 90 108
58 91 108
59 93 118
57 90 108
56 89 114
58 91 117
57 90 115
57 91 110
57 91 105
57 91 124
57 90 113
56 90 107
58 92 117
57 91 111
55 88 95
56 90 110
59 93 124
58 92 122
56 89 103
59 93 118
59 92 125
57 91 118
59 92 125
58 91 114
59 93 118
57 91 102
58 92 118
58 92 113
59 93 126
59 93 122
57 90 115
57 91 114
58 92 122
58 91 120
59 93 125
59 92 128
58 91 122
57 90 125
114 139 103
171 194 0
175 198 0
173 196 0
174 197 0
172 195 0
172 195 0
173 197 0
173 197 0
175 197 0
172 195 0
174 197 0
181 204 130
203 225 254
205 226 255
206 227 255
207 228 255
208 228 255
208 228 255
209 229 255
209 229 255
210 229 255
210 229 255
210 229 255
211 230 255
211 230 255
211 230 255
212 230 255
212 230 255
212 230 255
212 231 255
212 231 255
213 231 255
213 231 255
213 231 255
213 231 255
213 231 255
213 231 255
214 231 255
214 231 255
214 231 255
214 231 255
214 232 255
214 232 255
214 232 255
214 232 255
214 232 255
215 232 255
215 232 255
215 232 255
215 232 255
215 232 255
215 232 255
215 232 255
215 232 255
215 232 255
215 232 255
215 232 255
215 232 255
215 232 255
215 232 255
215 232 255
215 232 255
215 232 255
215 232 255
215 232 255
216 232 255
216 232 255
216 232 255
216 232 255
216 232 255
216 232 255
216 232 255
216 232 255
216 232 255
216 232 255
216 232 255
216 233 255
216 233 255
216 233 255
216 233 255
216 233 255
216 233 255
216 233 255
216 233 255
216 233 255
216 233 255
216 233 255
216 233 255
216 233 255
216 233 255
216 233 255
216 233 255
216 233 255
216 233 255
216 233 255
216 233 255
216 233 255
216 233 255
216 233 255
216 233 255
216 233 255
216 233 255
216 233 255
216 233 255
216 233 255
216 233 255
216 233 255
216 233 255
216 233 255
216 233 255
216 233 255
216 233 255
216 233 255
216 233 255
216 233 255
216 233 255
216 233 255
216 233 255
216 233 255
216 233 255
216 233 255
216 233 255
216 233 255
216 232 255
216 233 255
216 232 255
216 232 255
216 232 255
216 232 255
216 232 255
216 232 255
216 232 255
216 232 255
216 232 255
216 232 255
216 232 255
216 232 255
216 232 255
216 232 255
216 232 255
216 232 255
215 232 255
215 232 255
215 232 255
215 232 255
215 232 255
215 232 255
215 232 255
215 232 255
215 232 255
215 232 255
215 232 255
215 232 255
215 232 255
157 177 45
154 174 22
155 175 22
156 176 22
154 176 0
154 175 0
153 174 0
152 174 0
156 176 0
154 175 0
152 173 0
152 172 0
153 173 0
155 175 0
155 175 0
152 173 0
152 174 0
153 174 0
152 173 0
155 176 0
153 174 0
155 175 0
151 172 0
153 174 0
149 171 0
152 174 0
152 174 0
152 173 0
153 174 0
151 172 0
148 169 0
149 170 0
153 173 0
152 172 0
151 171 0
152 173 0
151 172 0
150 171 0
152 172 0
151 171 0
153 174 0
153 174 0
150 170 0
152 173 0
151 172 0
151 171 0
154 174 0
148 169 0
152 173 0
146 167 0
147 169 0
150 171 0
151 172 0
148 169 0
150 171 0
151 172 0
148 168 0
150 170 0
151 172 0
149 169 0
149 170 0
150 171 0
147 168 0
145 165 0
145 166 0
150 171 0
146 167 0
148 169 0
148 169 0
144 166 0
149 170 0
149 170 0
145 166 0
143 164 0
150 170 0
148 169 0
148 169 0
148 168 0
145 166 0
145 164 0
144 164 0
148 169 0
149 169 0
145 165 0
144 164 0
149 169 0
147 168 0
143 163 0
141 161 0
139 159 0
144 164 0
142 162 0
143 165 0
139 158 0
138 159 0
142 162 0
141 162 0
145 165 0
136 156 0
138 158 0
144 164 0
137 157 0
134 154 0
127 147 0
129 148 0
129 149 0
132 150 0
130 150 0
135 155 0
123 141 0
126 144 0
114 133 0
115 133 0
122 140 0
116 133 0
124 142 0
109 126 0
108 124 0
108 124 0
102 117 0
102 117 14
88 105 16
103 119 0
98 114 0
91 105 0
94 110 16
95 110 0
82 96 16
84 99 28
91 108 35
72 87 0
90 104 16
97 112 0
97 113 0
108 124 0
115 133 0
124 142 0
124 143 0
140 158 25
144 164 36
164 181 121
184 202 134
165 189 0
172 195 0
172 195 0
171 195 0
170 194 0
169 193 0
169 192 0
170 194 0
174 197 0
171 194 0
169 193 0
168 191 0
164 187 25
50 76 83
50 80 80
51 81 92
46 74 68
50 80 93
53 84 100
56 88 114
52 83 87
53 84 100
55 87 107
55 87 103
55 87 116
53 84 95
55 87 107
54 86 111
56 89 103
56 88 109
56 89 101
58 91 118
56 89 103
56 88 105
56 88 105
56 89 111
58 92 115
56 89 103
58 91 120
57 91 118
56 89 117
58 91 115
54 86 90
57 90 108
57 91 122
56 89 105
56 88 114
56 88 108
58 91 107
58 92 126
58 91 117
57 90 117
56 89 111
58 91 114
55 88 103
57 90 115
59 93 121
58 91 121
56 89 118
59 93 124
58 91 113
58 92 121
57 91 107
57 90 107
57 90 115
59 92 120
55 88 108
57 91 108
58 91 110
57 91 114
57 89 102
58 91 103
58 91 124
58 91 117
58 92 117
57 90 115
56 89 100
58 92 122
58 91 115
57 91 115
58 92 117
59 93 115
57 91 117
58 92 113
55 88 100
59 93 128
60 94 129
59 93 136
58 91 111
56 88 105
57 91 115
58 91 115
60 94 121
57 90 108
58 92 125
58 91 125
61 95 128
59 92 124
56 89 103
59 92 126
58 92 124
55 88 102
57 91 117
163 187 57
174 197 0
171 194 0
171 195 0
168 192 0
170 194 0
175 197 0
174 197 0
170 193 0
174 197 0
173 197 0
174 196 0
171 195 0
191 214 209
203 226 255
205 226 255
206 227 255
206 227 255
207 228 255
208 228 255
208 228 255
209 229 255
209 229 255
210 229 255
210 229 255
210 229 255
211 230 255
211 230 255
211 230 255
211 230 255
212 230 255
212 230 255
212 230 255
212 231 255
212 231 255
213 231 255
213 231 255
213 231 255
213 231 255
213 231 255
213 231 255
214 231 255
214 231 255
214 231 255
214 231 255
214 231 255
214 232 255
214 232 255
214 232 255
214 232 255
214 232 255
214 232 255
215 232 255
215 232 255
215 232 255
215 232 255
215 232 255
215 232 255
215 232 255
215 232 255
215 232 255
215 232 255
215 232 255
215 232 255
215 232 255
215 232 255
215 232 255
215 232 255
215 232 255
215 232 255
215 232 255
215 232 255
215 232 255
215 232 255
215 232 255
215 232 255
215 232 255
216 232 255
216 232 255
216 232 255
216 232 255
216 232 255
216 232 255
216 232 255
216 232 255
216 232 255
216 232 255
216 232 255
216 232 255
216 232 255
216 232 255
216 232 255
216 232 255
216 232 255
216 232 255
216 232 255
216 232 255
216 232 255
216 232 255
216 232 255
216 232 255
216 232 255
216 232 255
216 232 255
216 232 255
216 232 255
216 232 255
216 232 255
216 232 255
216 232 255
216 232 255
216 232 255
216 232 255
216 232 255
216 232 255
216 232 255
216 232 255
216 232 255
216 232 255
216 232 255
216 232 255
216 232 255
216 232 255
216 232 255
216 232 255
216 232 255
216 232 255
216 232 255
215 232 255
215 232 255
215 232 255
215 232 255
215 232 255
215 232 255
215 232 255
215 232 255
215 232 255
215 232 255
215 232 255
215 232 255
215 232 255
215 232 255
215 232 255
215 232 255
215 232 255
215 232 255
215 232 255
215 232 255
215 232 255
215 232 255
215 232 255
215 232 255
215 232 255
215 232 255
215 232 255
153 174 0
154 175 0
154 175 0
153 175 0
154 175 0
155 175 0
153 174 0
153 174 0
154 175 0
153 174 0
156 177 0
154 175 0
152 173 0
152 173 0
153 174 0
154 175 0
153 173 0
154 175 0
152 174 0
150 171 0
155 176 0
153 173 0
152 173 0
152 173 0
153 174 0
152 173 0
151 172 0
153 174 0
154 174 0
152 172 0
152 172 0
151 172 0
152 172 0
152 172 0
152 172 0
150 171 0
153 173 0
151 172 0
154 175 0
153 174 0
151 172 0
152 172 0
153 174 0
151 171 0
150 171 0
152 172 0
152 172 0
148 169 0
149 170 0
151 172 0
148 170 0
146 167 0
147 168 0
150 171 0
149 170 0
153 174 0
149 170 0
150 170 0
147 168 0
149 171 0
149 169 0
147 168 0
147 168 0
147 168 0
149 169 0
146 167 0
150 171 0
151 172 0
149 170 0
148 169 0
148 169 0
146 167 0
146 167 0
145 166 0
143 163 0
145 165 0
143 164 0
140 161 0
143 163 0
146 166 0
146 166 0
146 167 0
142 161 0
145 166 0
143 163 0
144 164 0
141 161 0
144 163 0
141 162 0
141 161 0
144 164 0
140 161 0
142 163 0
140 160 0
140 160 0
136 156 0
140 160 0
130 150 0
134 154 0
136 155 0
130 149 0
129 149 0
130 149 0
134 154 0
132 152 0
131 150 0
131 150 0
125 145 0
124 142 0
129 148 0
127 147 0
128 147 0
116 133 0
109 126 0
112 130 0
120 139 0
119 136 0
104 121 0
103 120 0
112 129 0
99 114 0
106 122 0
97 112 16
96 111 16
106 122 16
93 107 16
93 107 16
95 111 0
93 107 22
87 102 16
96 111 22
101 117 0
103 120 0
110 126 0
109 127 0
121 138 0
124 141 0
113 132 0
140 159 51
159 176 99
167 184 121
170 194 25
170 193 0
170 193 0
171 195 0
170 193 0
169 193 0
168 192 0
169 192 0
172 195 0
166 190 0
168 192 0
169 192 0
171 194 0
169 192 0
121 143 51
49 78 87
51 81 90
51 81 88
52 83 91
51 81 84
55 86 107
53 84 101
54 86 103
56 88 115
55 87 114
55 87 95
55 88 98
55 87 91
56 89 110
55 88 112
53 84 96
56 88 110
53 84 101
57 90 110
57 90 123
56 89 109
57 90 105
56 89 111
54 86 96
57 91 113
57 90 106
55 88 103
55 87 91
56 88 103
58 92 118
56 88 100
57 91 118
58 92 108
58 91 118
55 88 108
57 90 114
58 92 115
56 89 110
59 93 118
56 90 103
58 92 115
56 89 102
56 89 117
58 92 120
56 89 114
56 89 117
56 89 103
58 92 122
56 89 113
55 88 105
57 90 111
55 88 103
55 87 97
58 90 114
57 91 108
57 91 118
57 90 107
56 89 107
58 92 118
56 90 111
56 88 97
56 89 97
58 91 120
55 88 107
58 92 113
58 92 117
56 90 111
56 90 108
58 91 111
58 92 122
57 90 111
59 92 118
59 92 118
58 91 110
57 91 114
58 91 107
57 90 103
59 93 122
58 91 114
56 90 107
57 90 108
59 93 121
56 89 110
56 89 94
57 90 113
59 93 124
58 91 108
58 92 124
126 150 82
171 194 0
171 194 0
170 194 0
169 193 0
172 196 0
173 196 0
170 194 0
171 194 0
170 193 0
171 195 0
172 195 0
170 193 0
173 195 0
174 197 44
199 222 242
203 226 255
204 226 255
205 227 255
206 227 255
207 228 255
207 228 255
208 228 255
208 228 255
209 229 255
209 229 255
210 229 255
210 229 255
210 229 255
211 230 255
211 230 255
211 230 255
211 230 255
212 230 255
212 230 255
212 230 255
212 230 255
212 231 255
213 231 255
213 231 255
213 231 255
213 231 255
213 231 255
213 231 255
213 231 255
213 231 255
214 231 255
214 231 255
214 231 255
214 231 255
214 231 255
214 232 255
214 232 255
214 232 255
214 232 255
214 232 255
214 232 255
214 232 255
214 232 255
215 232 255
215 232 255
215 232 255
215 232 255
215 232 255
215 232 255
215 232 255
215 232 255
215 232 255
215 232 255
215 232 255
215 232 255
215 232 255
215 232 255
215 232 255
215 232 255
215 232 255
215 232 255
215 232 255
215 232 255
215 232 255
215 232 255
215 232 255
215 232 255
215 232 255
215 232 255
215 232 255
215 232 255
215 232 255
215 232 255
215 232 255
215 232 255
215 232 255
215 232 255
215 232 255
215 232 255
215 232 255
215 232 255
215 232 255
215 232 255
215 232 255
215 232 255
215 232 255
215 232 255
215 232 255
215 232 255
215 232 255
215 232 255
215 232 255
215 232 255
215 232 255
215 232 255
215 232 255
215 232 255
215 232 255
215 232 255
215 232 255
215 232 255
215 232 255
215 232 255
215 232 255
215 232 255
215 232 255
215 232 255
215 232 255
215 232 255
215 232 255
215 232 255
215 232 255
215 232 255
215 232 255
215 232 255
215 232 255
215 232 255
215 232 255
215 232 255
215 232 255
215 232 255
215 232 255
215 232 255
215 232 255
215 232 255
215 232 255
215 232 255
215 232 255
215 232 255
215 232 255
215 232 255
215 232 255
215 232 255
215 232 255
215 232 255
215 232 255
215 232 255
215 232 255
215 232 255
215 232 255
156 176 0
154 175 0
153 174 0
156 176 0
153 174 0
154 174 0
153 174 0
155 175 0
151 172 0
154 175 0
155 175 0
154 174 0
153 175 0
151 172 0
153 175 0
153 174 0
154 175 0
153 173 0
154 174 0
152 173 0
153 174 0
154 175 0
153 174 0
154 174 0
153 174 0
153 174 0
153 173 0
153 174 0
151 172 0
152 173 0
153 174 0
151 172 0
150 171 0
152 173 0
149 170 0
151 172 0
153 173 0
153 173 0
149 170 0
152 173 0
150 171 0
149 168 0
150 171 0
150 171 0
150 171 0
151 172 0
150 170 0
152 172 0
149 170 0
149 169 0
153 173 0
152 173 0
147 169 0
149 170 0
149 170 0
151 172 0
150 170 0
151 172 0
148 169 0
147 168 0
151 171 0
149 170 0
142 162 0
148 169 0
150 171 0
147 168 0
142 162 0
147 168 0
151 171 0
149 169 0
148 169 0
143 164 0
147 168 0
143 164 0
148 169 0
150 171 0
141 161 0
141 161 0
142 162 0
149 168 0
142 162 0
143 163 0
146 166 0
144 165 0
143 163 0
144 165 0
139 159 0
143 164 0
146 167 0
143 163 0
143 164 0
141 161 0
137 157 0
136 156 0
136 156 0
140 159 0
135 155 0
136 156 0
136 157 0
137 157 0
134 153 0
128 146 0
131 151 0
127 146 0
124 142 0
124 143 0
126 145 0
122 141 0
131 150 0
120 138 0
120 137 0
122 141 0
127 144 0
123 142 0
119 136 0
118 135 0
113 129 0
116 133 0
110 126 0
109 125 0
105 120 0
94 110 0
102 117 0
101 115 0
98 114 0
98 113 16
92 107 16
101 116 0
86 100 0
103 118 0
105 120 0
101 116 0
103 119 0
105 122 0
120 137 0
117 134 0
132 149 0
133 150 51
159 176 108
165 181 128
166 188 80
169 193 0
172 195 0
171 195 0
166 190 0
168 192 0
171 194 0
165 188 0
167 191 0
169 192 0
170 193 0
170 193 0
168 191 0
170 193 0
165 189 0
165 189 0
64 90 63
51 81 92
52 81 98
55 87 101
51 81 93
51 81 84
55 87 105
54 85 104
55 87 102
55 87 101
53 84 89
55 87 102
54 86 93
56 88 110
56 88 115
54 85 106
56 88 110
54 86 102
55 86 103
55 88 114
56 89 109
55 88 103
56 90 108
56 88 102
55 87 103
58 91 112
56 89 103
56 88 113
57 90 120
55 88 102
56 89 118
57 90 101
57 89 115
55 87 100
57 91 100
56 89 103
56 89 107
57 91 118
57 90 103
55 88 103
57 90 118
57 90 110
58 92 115
57 91 117
57 90 108
55 87 100
59 93 124
58 92 120
57 89 111
58 91 115
56 88 99
57 90 117
58 91 108
57 90 111
58 92 110
56 89 100
57 90 113
58 91 117
55 87 94
57 90 107
57 90 107
57 89 108
57 90 105
54 87 97
57 91 107
58 92 117
56 89 107
55 88 100
58 92 110
57 91 99
59 93 114
58 92 110
56 89 110
58 92 122
56 89 113
58 91 121
59 93 124
58 91 110
58 92 118
56 89 111
57 90 103
54 86 102
58 91 103
57 90 115
56 89 103
57 91 110
56 89 126
89 116 113
161 184 25
172 195 0
169 192 0
173 196 0
168 192 0
169 192 0
169 192 0
172 195 0
169 192 0
171 195 0
170 192 0
171 195 0
172 195 0
174 197 0
169 193 0
180 203 125
202 225 255
203 225 255
204 226 255
205 227 255
206 227 255
206 227 255
207 228 255
208 228 255
208 228 255
209 228 255
209 229 255
209 229 255
210 229 255
210 229 255
210 229 255
211 230 255
211 230 255
211 230 255
211 230 255
211 230 255
212 230 255
212 230 255
212 230 255
212 230 255
212 231 255
212 231 255
213 231 255
213 231 255
213 231 255
213 231 255
213 231 255
213 231 255
213 231 255
213 231 255
214 231 255
214 231 255
214 231 255
214 231 255
214 231 255
214 231 255
214 231 255
214 232 255
214 232 255
214 232 255
214 232 255
214 232 255
214 232 255
214 232 255
214 232 255
215 232 255
215 232 255
215 232 255
215 232 255
215 232 255
215 232 255
215 232 255
215 232 255
215 232 255
215 232 255
215 232 255
215 232 255
215 232 255
215 232 255
215 232 255
215 232 255
215 232 255
215 232 255
215 232 255
215 232 255
215 232 255
215 232 255
215 232 255
215 232 255
215 232 255
215 232 255
215 232 255
215 232 255
215 232 255
215 232 255
215 232 255
215 232 255
215 232 255
215 232 255
215 232 255
215 232 255
215 232 255
215 232 255
215 232 255
215 232 255
215 232 255
215 232 255
215 232 255
215 232 255
215 232 255
215 232 255
215 232 255
215 232 255
215 232 255
215 232 255
215 232 255
215 232 255
215 232 255
215 232 255
215 232 255
215 232 255
215 232 255
215 232 255
215 232 255
215 232 255
215 232 255
215 232 255
215 232 255
215 232 255
215 232 255
215 232 255
215 232 255
215 232 255
215 232 255
215 232 255
215 232 255
215 232 255
215 232 255
215 232 255
215 232 255
215 232 255
215 232 255
215 232 255
215 232 255
215 232 255
215 232 255
215 232 255
215 232 255
214 232 255
214 232 255
214 232 255
214 232 255
214 232 255
214 232 255
214 232 255
214 232 255
153 174 0
153 174 0
152 172 0
154 174 0
153 175 0
154 174 0
156 176 0
153 173 0
152 173 0
153 175 0
153 174 0
154 174 0
153 175 0
151 173 0
153 174 0
153 174 0
153 173 0
152 173 0
153 174 0
153 174 0
152 172 0
153 175 0
155 175 0
154 175 0
152 173 0
152 172 0
150 171 0
153 173 0
153 174 0
153 175 0
152 173 0
152 173 0
152 173 0
151 172 0
150 171 0
152 174 0
154 175 0
150 170 0
151 172 0
151 172 0
153 172 0
150 170 0
154 174 0
151 172 0
147 168 0
150 171 0
154 174 0
152 172 0
147 167 0
148 169 0
147 168 0
152 172 0
150 171 0
150 171 0
150 171 0
149 169 0
151 173 0
153 173 0
149 169 0
150 170 0
148 169 0
147 167 0
147 168 0
147 167 0
145 166 0
149 169 0
148 168 0
144 164 0
151 171 0
142 163 0
142 163 0
143 163 0
145 166 0
146 166 0
144 164 0
144 164 0
146 166 0
146 166 0
144 164 0
139 160 0
141 161 0
144 165 0
138 158 0
145 165 0
137 157 0
145 165 0
142 162 0
144 164 0
142 162 0
145 165 0
134 154 0
136 155 0
137 157 0
144 163 0
135 155 0
135 155 0
136 156 0
131 151 0
129 148 0
134 152 0
135 154 0
129 149 0
135 154 0
136 156 0
128 147 0
125 144 0
126 145 0
130 148 0
123 141 0
116 134 0
120 138 0
122 139 0
113 131 0
124 142 0
121 139 0
113 130 0
116 134 0
115 132 0
111 127 0
105 122 0
109 124 0
103 119 0
110 126 0
109 125 0
101 117 0
92 107 0
105 120 0
102 117 0
104 119 0
97 111 0
99 114 0
99 115 0
93 110 0
109 125 0
126 144 0
129 146 0
132 150 36
143 160 80
155 171 108
173 192 105
170 194 0
171 194 0
167 191 0
168 191 0
165 188 0
167 191 0
169 192 0
167 190 0
170 193 0
167 190 0
168 192 0
168 191 0
163 187 0
164 188 0
167 190 0
167 191 0
143 166 47
45 72 72
51 80 92
52 83 81
49 78 80
50 79 93
51 82 88
52 83 92
53 85 94
53 84 106
55 87 115
54 86 110
56 88 111
54 85 99
54 85 96
53 84 97
57 90 109
56 89 98
55 87 112
54 85 106
56 89 108
55 87 102
56 89 112
56 89 105
56 89 109
57 90 117
56 88 101
57 90 122
55 87 110
56 89 105
55 88 93
56 89 102
56 89 108
58 92 127
59 93 115
55 88 100
57 90 107
57 90 114
54 86 95
56 89 105
56 88 107
57 90 114
58 92 122
56 89 107
56 89 113
57 90 117
54 87 100
56 89 107
57 90 110
57 91 117
55 87 102
57 91 107
58 91 110
58 91 115
57 90 113
58 91 122
55 88 103
57 90 113
56 89 108
55 88 97
56 89 114
57 90 111
57 90 108
58 92 115
58 92 124
57 90 113
57 91 107
56 89 102
57 90 117
54 87 97
57 89 111
57 90 111
57 90 114
57 90 110
56 88 110
56 89 102
56 90 100
59 92 120
57 90 115
58 93 110
57 91 110
57 91 110
56 88 114
57 91 124
55 88 113
58 92 120
57 90 114
139 163 80
172 195 0
166 190 0
170 194 0
170 193 0
170 193 0
174 197 0
170 193 0
170 193 0
175 198 0
169 192 0
169 192 0
170 193 0
172 196 0
173 197 0
167 190 0
167 191 0
186 209 179
201 225 255
203 225 255
204 226 255
205 226 255
205 227 255
206 227 255
207 227 255
207 228 255
208 228 255
208 228 255
209 228 255
209 229 255
209 229 255
210 229 255
210 229 255
210 229 255
210 230 255
211 230 255
211 230 255
211 230 255
211 230 255
211 230 255
212 230 255
212 230 255
212 230 255
212 230 255
212 231 255
212 231 255
213 231 255
213 231 255
213 231 255
213 231 255
213 231 255
213 231 255
213 231 255
213 231 255
213 231 255
213 231 255
214 231 255
214 231 255
214 231 255
214 231 255
214 231 255
214 231 255
214 231 255
214 232 255
214 232 255
214 232 255
214 232 255
214 232 255
214 232 255
214 232 255
214 232 255
214 232 255
214 232 255
214 232 255
214 232 255
215 232 255
215 232 255
215 232 255
215 232 255
215 232 255
215 232 255
215 232 255
215 232 255
215 232 255
215 232 255
215 232 255
215 232 255
215 232 255
215 232 255
215 232 255
215 232 255
215 232 255
215 232 255
215 232 255
215 232 255
215 232 255
215 232 255
215 232 255
215 232 255
215 232 255
215 232 255
215 232 255
215 232 255
215 232 255
215 232 255
215 232 255
215 232 255
215 232 255
215 232 255
215 232 255
215 232 255
215 232 255
215 232 255
215 232 255
215 232 255
215 232 255
215 232 255
215 232 255
215 232 255
215 232 255
215 232 255
215 232 255
215 232 255
215 232 255
215 232 255
215 232 255
215 232 255
215 232 255
215 232 255
215 232 255
215 232 255
215 232 255
215 232 255
215 232 255
215 232 255
215 232 255
215 232 255
215 232 255
214 232 255
214 232 255
214 232 255
214 232 255
214 232 255
214 232 255
214 232 255
214 232 255
214 232 255
214 232 255
214 232 255
214 232 255
214 232 255
214 232 255
214 232 255
214 232 255
214 231 255
214 231 255
214 231 255
155 176 0
153 174 0
154 175 0
155 176 0
152 173 0
154 175 0
154 174 0
155 175 0
154 175 0
151 172 0
152 173 0
154 174 0
152 174 0
152 172 0
154 175 0
152 172 0
152 172 0
153 173 0
155 175 0
152 174 0
155 176 0
150 172 0
153 174 0
152 172 0
153 174 0
150 171 0
152 173 0
152 172 0
150 171 0
150 171 0
152 173 0
154 175 0
152 173 0
152 172 0
151 171 0
151 172 0
151 172 0
148 169 0
149 169 0
147 167 0
151 172 0
150 171 0
150 171 0
148 169 0
153 174 0
150 171 0
149 170 0
148 169 0
149 169 0
149 169 0
150 171 0
146 167 0
147 168 0
152 172 0
149 170 0
151 172 0
145 166 0
146 167 0
146 167 0
145 165 0
147 168 0
151 171 0
143 164 0
146 166 0
148 169 0
147 167 0
147 167 0
147 168 0
147 167 0
149 170 0
145 166 0
143 164 0
144 163 0
144 164 0
140 161 0
145 166 0
145 166 0
147 167 0
140 161 0
146 166 0
144 164 0
142 162 0
146 166 0
142 163 0
141 161 0
138 158 0
142 162 0
141 160 0
138 158 0
135 155 0
137 158 0
142 162 0
136 156 0
137 157 0
138 158 0
133 153 0
137 157 0
137 156 0
133 152 0
136 155 0
139 159 0
131 150 0
128 147 0
128 147 0
129 147 0
133 152 0
121 139 0
126 145 0
125 143 0
131 150 0
120 137 0
115 133 0
113 130 0
118 135 0
114 132 0
108 124 0
113 130 0
109 126 0
113 129 0
114 131 0
109 125 0
103 119 0
115 131 0
108 125 0
101 117 0
102 118 0
107 122 0
104 120 0
99 115 0
107 122 0
107 122 0
107 123 0
104 120 0
121 139 0
118 135 0
127 145 0
133 151 57
162 177 120
167 185 113
167 191 25
169 192 0
168 192 0
162 185 0
167 190 0
169 192 0
163 186 0
167 191 0
169 192 0
167 190 0
165 189 0
160 184 0
167 190 0
164 187 0
168 191 0
162 186 0
168 191 0
162 185 0
116 138 53
49 78 84
49 78 82
51 81 91
52 82 95
52 82 90
52 82 83
54 86 97
52 83 97
51 81 84
55 87 104
53 85 95
55 87 116
53 84 99
53 85 98
55 87 101
56 89 113
54 86 96
56 89 103
55 88 110
55 88 116
56 88 102
55 88 95
56 89 105
54 85 90
57 90 111
56 89 112
56 89 102
56 89 112
57 91 116
57 89 111
55 88 110
57 90 117
59 92 118
55 87 100
56 89 99
56 90 111
55 87 102
58 92 117
57 90 105
57 89 117
55 88 103
57 89 103
56 89 95
57 91 103
56 88 105
56 89 107
56 89 113
56 88 95
57 90 105
56 89 107
57 90 114
55 88 105
56 89 105
56 89 113
57 90 110
58 91 115
58 91 111
57 91 110
57 91 108
59 93 122
58 91 120
58 91 121
57 90 99
58 91 114
56 90 100
56 89 103
54 85 102
58 92 111
57 90 105
57 90 115
57 91 108
57 89 114
55 88 100
57 90 110
57 90 118
57 91 103
57 89 100
57 90 108
56 89 102
58 92 120
56 88 113
56 89 102
56 89 111
56 88 111
108 132 74
171 194 0
176 199 0
171 194 0
167 191 0
168 191 0
170 193 0
167 191 0
171 194 0
168 191 0
169 192 0
169 193 0
170 193 0
171 195 0
170 193 0
174 196 0
173 195 0
171 194 0
171 195 0
194 218 231
201 224 255
202 225 255
203 226 255
204 226 255
205 227 255
206 227 255
206 227 255
207 228 255
207 228 255
208 228 255
208 228 255
209 228 255
209 229 255
209 229 255
210 229 255
210 229 255
210 229 255
210 229 255
211 230 255
211 230 255
211 230 255
211 230 255
211 230 255
211 230 255
212 230 255
212 230 255
212 230 255
212 230 255
212 230 255
212 231 255
212 231 255
213 231 255
213 231 255
213 231 255
213 231 255
213 231 255
213 231 255
213 231 255
213 231 255
213 231 255
213 231 255
213 231 255
214 231 255
214 231 255
214 231 255
214 231 255
214 231 255
214 231 255
214 231 255
214 231 255
214 231 255
214 231 255
214 232 255
214 232 255
214 232 255
214 232 255
214 232 255
214 232 255
214 232 255
214 232 255
214 232 255
214 232 255
214 232 255
214 232 255
214 232 255
214 232 255
214 232 255
214 232 255
215 232 255
215 232 255
215 232 255
215 232 255
215 232 255
215 232 255
215 232 255
215 232 255
215 232 255
215 232 255
215 232 255
215 232 255
215 232 255
215 232 255
215 232 255
215 232 255
215 232 255
215 232 255
215 232 255
215 232 255
215 232 255
215 232 255
215 232 255
215 232 255
215 232 255
215 232 255
215 232 255
215 232 255
215 232 255
215 232 255
215 232 255
215 232 255
215 232 255
214 232 255
214 232 255
214 232 255
214 232 255
214 232 255
214 232 255
214 232 255
214 232 255
214 232 255
214 232 255
214 232 255
214 232 255
214 232 255
214 232 255
214 232 255
214 232 255
214 232 255
214 232 255
214 232 255
214 232 255
214 232 255
214 232 255
214 232 255
214 232 255
214 232 255
214 231 255
214 231 255
214 231 255
214 231 255
214 231 255
214 231 255
214 231 255
214 231 255
214 231 255
214 231 255
214 231 255
214 231 255
154 175 0
154 175 0
151 171 0
154 175 0
151 172 0
154 175 0
153 174 0
153 174 0
153 173 0
152 174 0
152 172 0
150 171 0
151 173 0
155 175 0
150 171 0
152 173 0
153 174 0
155 176 0
152 173 0
152 173 0
151 172 0
152 173 0
151 172 0
151 172 0
151 172 0
151 171 0
151 171 0
152 173 0
151 172 0
150 171 0
155 175 0
151 172 0
151 172 0
152 172 0
153 174 0
152 172 0
150 171 0
147 168 0
152 173 0
151 172 0
152 172 0
148 168 0
150 170 0
150 170 0
151 172 0
147 169 0
150 171 0
148 168 0
150 170 0
152 173 0
148 168 0
149 170 0
151 171 0
152 172 0
144 164 0
146 166 0
148 168 0
150 170 0
150 170 0
150 171 0
149 169 0
145 165 0
149 169 0
148 169 0
147 167 0
145 165 0
141 162 0
146 167 0
148 168 0
145 165 0
147 168 0
147 168 0
144 165 0
143 163 0
145 166 0
146 166 0
146 166 0
142 161 0
141 161 0
142 162 0
146 166 0
145 164 0
147 167 0
140 160 0
140 160 0
137 157 0
138 157 0
140 160 0
139 159 0
137 156 0
138 157 0
139 158 0
138 157 0
135 154 0
135 154 0
129 149 0
132 151 0
140 158 0
131 150 0
135 155 0
137 156 0
129 148 0
131 150 0
132 151 0
130 148 0
136 154 0
126 144 0
117 135 0
126 144 0
128 146 0
123 140 0
117 134 0
122 140 0
116 132 0
120 138 0
116 133 0
115 131 0
116 134 0
118 135 0
109 125 0
106 121 0
95 110 0
114 130 0
98 113 0
113 129 0
98 113 0
104 121 0
101 116 0
115 132 0
103 119 0
105 121 0
111 127 0
112 129 0
111 128 0
119 137 0
132 149 44
156 172 105
171 187 133
164 187 36
168 191 0
161 185 0
165 187 0
167 191 0
163 185 0
169 192 0
166 189 0
165 188 0
166 189 0
166 189 0
162 186 0
164 188 0
167 189 0
163 185 0
168 192 0
166 189 0
165 188 0
165 187 0
155 179 18
62 87 87
50 80 86
52 82 86
50 79 92
51 81 89
53 85 95
54 86 98
53 84 89
54 85 106
52 83 89
55 88 94
51 82 85
53 85 104
55 87 106
53 84 100
57 89 110
52 83 90
57 90 115
54 86 101
57 89 113
56 88 100
55 86 103
55 88 106
57 90 107
56 89 115
58 91 108
59 92 108
54 86 96
54 86 97
56 88 102
57 89 105
55 87 102
55 88 95
56 89 102
58 91 108
58 91 102
57 90 105
56 89 105
57 91 113
58 92 115
57 90 111
56 89 105
55 87 102
57 90 108
55 88 103
57 91 115
57 89 111
55 87 103
57 90 108
56 89 113
56 89 105
58 91 110
57 90 107
58 91 113
57 90 113
57 90 118
57 90 107
57 90 110
58 91 107
56 89 97
54 86 92
56 89 95
56 89 107
55 88 99
58 92 107
56 89 99
57 91 108
56 89 100
54 86 100
55 87 105
56 89 105
54 87 88
57 89 107
56 89 100
58 91 113
57 90 129
55 88 94
57 91 103
55 88 97
56 90 102
56 89 111
56 88 108
56 89 111
75 104 97
160 184 18
170 192 0
168 191 0
169 192 0
170 193 0
169 192 0
172 194 0
167 190 0
165 189 0
170 192 0
172 195 0
173 196 0
169 192 0
172 195 0
166 189 0
171 194 0
173 196 0
166 190 0
173 196 0
174 197 80
196 220 246
201 224 255
202 225 255
203 225 255
204 226 255
205 226 255
205 227 255
206 227 255
206 227 255
207 228 255
207 228 255
208 228 255
208 228 255
208 228 255
209 229 255
209 229 255
209 229 255
210 229 255
210 229 255
210 229 255
210 229 255
211 230 255
211 230 255
211 230 255
211 230 255
211 230 255
211 230 255
212 230 255
212 230 255
212 230 255
212 230 255
212 230 255
212 231 255
212 231 255
212 231 255
213 231 255
213 231 255
213 231 255
213 231 255
213 231 255
213 231 255
213 231 255
213 231 255
213 231 255
213 231 255
213 231 255
213 231 255
213 231 255
214 231 255
214 231 255
214 231 255
214 231 255
214 231 255
214 231 255
214 231 255
214 231 255
214 231 255
214 231 255
214 231 255
214 231 255
214 231 255
214 232 255
214 232 255
214 232 255
214 232 255
214 232 255
214 232 255
214 232 255
214 232 255
214 232 255
214 232 255
214 232 255
214 232 255
214 232 255
214 232 255
214 232 255
214 232 255
214 232 255
214 232 255
214 232 255
214 232 255
214 232 255
214 232 255
214 232 255
214 232 255
214 232 255
214 232 255
214 232 255
214 232 255
214 232 255
214 232 255
214 232 255
214 232 255
214 232 255
214 232 255
214 232 255
214 232 255
214 232 255
214 232 255
214 232 255
214 232 255
214 232 255
214 232 255
214 232 255
214 232 255
214 232 255
214 232 255
214 232 255
214 232 255
214 232 255
214 232 255
214 232 255
214 232 255
214 231 255
214 231 255
214 231 255
214 231 255
214 231 255
214 231 255
214 231 255
214 231 255
214 231 255
214 231 255
214 231 255
214 231 255
214 231 255
214 231 255
214 231 255
214 231 255
214 231 255
214 231 255
214 231 255
213 231 255
213 231 255
213 231 255
213 231 255
213 231 255
213 231 255
152 173 0
155 175 0
150 172 0
156 176 0
155 175 0
153 173 0
153 173 0
153 175 0
152 173 0
152 174 0
149 170 0
152 172 0
154 175 0
151 172 0
151 171 0
151 171 0
154 175 0
153 174 0
153 174 0
155 175 0
153 174 0
151 172 0
153 174 0
150 171 0
152 173 0
153 173 0
149 170 0
148 169 0
149 170 0
150 170 0
151 171 0
153 174 0
151 171 0
151 172 0
151 172 0
150 169 0
150 170 0
151 172 0
152 172 0
151 172 0
148 169 0
152 172 0
150 170 0
149 169 0
150 170 0
152 173 0
152 172 0
149 169 0
148 168 0
148 169 0
150 171 0
149 169 0
152 173 0
143 163 0
151 172 0
149 170 0
151 171 0
149 169 0
149 169 0
146 165 0
152 172 0
149 169 0
141 162 0
147 167 0
146 166 0
145 165 0
144 164 0
151 171 0
142 162 0
149 170 0
146 165 0
150 171 0
142 163 0
145 165 0
142 162 0
144 165 0
146 166 0
141 161 0
140 160 0
141 161 0
144 164 0
146 167 0
142 162 0
145 164 0
138 158 0
142 162 0
141 161 0
135 155 0
141 161 0
137 157 0
140 160 0
136 155 0
140 160 0
136 156 0
131 150 0
134 153 0
138 158 0
138 157 0
136 154 0
133 152 0
128 146 0
129 148 0
124 143 0
122 140 0
125 144 0
132 151 0
129 149 0
131 149 0
120 138 0
122 140 0
124 143 0
120 138 0
123 141 0
116 133 0
119 136 0
119 136 0
121 138 0
115 132 0
111 128 0
109 126 0
113 129 0
112 128 0
109 126 0
101 116 0
105 121 0
103 117 0
113 130 0
109 124 0
110 125 0
107 123 0
102 117 0
116 132 0
110 127 0
112 129 0
131 148 57
154 170 102
172 187 149
169 191 80
170 192 0
165 189 0
159 182 0
161 183 0
165 188 0
165 187 0
165 188 0
164 187 0
164 186 0
166 189 0
160 183 0
161 184 0
167 190 0
163 186 0
163 185 0
163 186 0
163 185 0
163 186 0
162 186 0
159 181 0
151 173 25
52 79 68
48 77 73
49 77 71
50 79 75
52 82 82
52 82 95
54 86 93
55 87 90
52 83 90
55 87 102
53 84 97
55 87 102
53 84 87
55 87 93
53 84 95
56 89 105
56 88 109
54 86 95
53 85 106
54 85 91
55 87 102
56 89 105
55 87 103
57 90 110
55 87 95
53 84 96
55 88 92
56 88 105
56 88 105
51 82 90
56 89 111
57 90 99
56 88 102
54 86 95
56 89 103
55 87 105
55 87 97
58 91 113
54 86 99
57 90 100
56 89 108
56 89 99
56 88 105
57 90 107
57 91 114
57 89 110
56 89 102
56 88 108
55 87 108
55 87 99
55 87 107
57 90 103
56 88 102
57 89 111
55 87 107
56 88 103
56 89 99
57 90 107
55 88 103
58 91 113
59 93 120
57 90 105
55 86 100
57 90 108
55 87 99
56 88 102
56 89 105
56 88 105
55 87 107
56 89 105
55 87 100
59 93 129
56 89 108
56 90 97
54 86 95
56 89 108
57 90 105
55 88 100
59 94 120
56 89 100
58 91 114
57 89 111
149 172 44
166 190 0
164 188 0
165 187 0
168 191 0
166 190 0
165 188 0
169 192 0
168 190 0
170 192 0
173 196 0
170 193 0
167 190 0
168 191 0
170 192 0
170 194 0
169 192 0
175 197 0
173 196 0
171 194 0
171 194 0
175 198 105
198 222 252
200 224 255
202 225 255
203 225 255
203 226 255
204 226 255
205 226 255
206 227 255
206 227 255
206 227 255
207 228 255
207 228 255
208 228 255
208 228 255
208 228 255
209 229 255
209 229 255
209 229 255
210 229 255
210 229 255
210 229 255
210 229 255
210 230 255
211 230 255
211 230 255
211 230 255
211 230 255
211 230 255
211 230 255
212 230 255
212 230 255
212 230 255
212 230 255
212 230 255
212 230 255
212 231 255
212 231 255
212 231 255
213 231 255
213 231 255
213 231 255
213 231 255
213 231 255
213 231 255
213 231 255
213 231 255
213 231 255
213 231 255
213 231 255
213 231 255
213 231 255
213 231 255
213 231 255
213 231 255
213 231 255
214 231 255
214 231 255
214 231 255
214 231 255
214 231 255
214 231 255
214 231 255
214 231 255
214 231 255
214 231 255
214 231 255
214 231 255
214 231 255
214 231 255
214 231 255
214 231 255
214 231 255
214 231 255
214 231 255
214 231 255
214 231 255
214 231 255
214 231 255
214 231 255
214 231 255
214 231 255
214 231 255
214 231 255
214 231 255
214 231 255
214 231 255
214 231 255
214 231 255
214 231 255
214 231 255
214 231 255
214 231 255
214 231 255
214 231 255
214 231 255
214 231 255
214 231 255
214 231 255
214 231 255
214 231 255
214 231 255
214 231 255
214 231 255
214 231 255
214 231 255
214 231 255
214 231 255
214 231 255
214 231 255
214 231 255
214 231 255
214 231 255
214 231 255
214 231 255
214 231 255
214 231 255
214 231 255
214 231 255
214 231 255
214 231 255
213 231 255
213 231 255
213 231 255
213 231 255
213 231 255
213 231 255
213 231 255
213 231 255
213 231 255
213 231 255
213 231 255
213 231 255
213 231 255
213 231 255
213 231 255
213 231 255
213 231 255
155 175 0
152 173 0
153 173 0
153 174 0
153 174 0
154 175 0
154 174 0
154 175 0
153 174 0
154 176 0
153 174 0
152 172 0
154 174 0
153 174 0
153 174 0
153 173 0
152 173 0
151 172 0
151 172 0
151 172 0
153 173 0
149 170 0
149 170 0
153 173 0
152 173 0
152 172 0
146 167 0
152 172 0
151 171 0
150 170 0
148 168 0
149 169 0
151 171 0
149 170 0
153 173 0
151 172 0
149 170 0
149 169 0
150 171 0
152 173 0
148 169 0
153 173 0
151 171 0
151 171 0
145 166 0
149 169 0
148 169 0
150 170 0
150 171 0
147 168 0
145 166 0
148 168 0
147 168 0
148 168 0
146 167 0
144 164 0
150 170 0
143 163 0
146 166 0
146 166 0
148 169 0
144 165 0
147 167 0
149 169 0
141 161 0
145 165 0
143 164 0
140 160 0
146 166 0
142 162 0
137 157 0
146 166 0
144 163 0
141 161 0
145 165 0
136 156 0
148 169 0
139 159 0
143 164 0
142 161 0
141 161 0
137 156 0
142 161 0
143 162 0
138 157 0
136 156 0
136 156 0
138 157 0
138 158 0
135 155 0
133 152 0
134 154 0
136 155 0
140 159 0
133 152 0
136 155 0
131 149 0
136 155 0
136 154 0
135 154 0
131 150 0
133 152 0
130 149 0
129 148 0
119 138 0
121 140 0
131 149 0
117 134 0
125 143 0
122 140 0
125 143 0
121 139 0
116 133 0
119 137 0
118 134 0
109 126 0
111 129 0
109 126 0
116 132 0
104 120 0
118 135 0
107 123 0
109 124 0
105 121 0
121 138 0
100 116 0
108 125 0
113 129 0
106 122 0
107 123 0
108 125 0
108 123 0
118 134 0
131 148 44
143 158 102
156 171 114
167 188 72
160 183 0
163 185 0
161 185 0
166 189 0
164 187 0
163 186 0
158 180 0
169 192 0
164 187 0
162 185 0
164 186 0
164 186 0
161 184 0
164 187 0
162 184 0
162 185 0
162 184 0
162 184 0
160 183 0
159 181 0
156 179 0
160 183 0
121 142 43
46 74 69
51 81 89
51 81 85
51 80 93
52 83 95
53 83 84
52 83 96
53 84 102
52 82 95
54 87 91
54 85 98
50 81 82
55 87 100
54 85 96
56 88 100
54 85 98
54 86 100
52 83 90
55 87 108
57 90 107
53 85 80
55 87 93
54 86 97
56 88 100
55 87 102
55 87 95
55 88 102
55 87 92
55 87 92
56 90 105
56 90 99
56 88 99
55 87 95
55 87 100
54 86 88
57 91 106
55 88 103
55 87 107
57 90 99
56 89 103
57 90 105
55 87 108
54 86 94
55 87 99
56 89 111
58 91 107
56 89 105
56 89 99
56 89 111
57 90 107
57 90 105
55 88 102
55 88 102
57 90 108
57 90 110
57 90 108
58 92 114
55 88 97
54 86 99
54 86 90
55 88 114
54 86 76
57 90 100
56 88 100
56 89 105
55 87 99
56 89 105
57 90 105
56 88 103
56 89 107
55 88 108
56 89 107
55 88 113
56 89 100
54 86 84
57 91 100
57 89 120
55 88 105
55 87 105
55 87 94
129 151 74
167 190 0
160 183 0
166 189 0
164 187 0
170 193 0
164 187 0
164 187 0
164 187 0
165 189 0
170 193 0
169 192 0
169 191 0
169 192 0
166 189 0
171 195 0
171 193 0
169 193 0
166 189 0
165 188 0
172 194 0
174 196 0
168 192 0
179 203 140
198 223 255
200 224 255
201 224 255
202 225 255
203 225 255
204 226 255
204 226 255
205 227 255
206 227 255
206 227 255
206 227 255
207 228 255
207 228 255
208 228 255
208 228 255
208 228 255
209 229 255
209 229 255
209 229 255
209 229 255
210 229 255
210 229 255
210 229 255
210 229 255
210 230 255
211 230 255
211 230 255
211 230 255
211 230 255
211 230 255
211 230 255
211 230 255
212 230 255
212 230 255
212 230 255
212 230 255
212 230 255
212 230 255
212 230 255
212 231 255
212 231 255
212 231 255
212 231 255
213 231 255
213 231 255
213 231 255
213 231 255
213 231 255
213 231 255
213 231 255
213 231 255
213 231 255
213 231 255
213 231 255
213 231 255
213 231 255
213 231 255
213 231 255
213 231 255
213 231 255
213 231 255
213 231 255
213 231 255
213 231 255
213 231 255
213 231 255
214 231 255
214 231 255
214 231 255
214 231 255
214 231 255
214 231 255
214 231 255
214 231 255
214 231 255
214 231 255
214 231 255
214 231 255
214 231 255
214 231 255
214 231 255
214 231 255
214 231 255
214 231 255
214 231 255
214 231 255
214 231 255
214 231 255
214 231 255
214 231 255
214 231 255
214 231 255
214 231 255
214 231 255
214 231 255
214 231 255
214 231 255
214 231 255
214 231 255
214 231 255
214 231 255
214 231 255
214 231 255
214 231 255
213 231 255
213 231 255
213 231 255
213 231 255
213 231 255
213 231 255
213 231 255
213 231 255
213 231 255
213 231 255
213 231 255
213 231 255
213 231 255
213 231 255
213 231 255
213 231 255
213 231 255
213 231 255
213 231 255
213 231 255
213 231 255
213 231 255
213 231 255
213 231 255
213 231 255
213 231 255
213 231 255
213 231 255
213 231 255
213 231 255
213 231 255
213 231 255
156 176 0
153 174 0
154 174 0
150 171 0
152 173 0
153 173 0
152 173 0
154 175 0
153 174 0
153 175 0
155 175 0
155 175 0
152 172 0
153 173 0
152 172 0
153 174 0
154 175 0
153 174 0
151 171 0
153 173 0
152 172 0
152 171 0
150 172 0
153 173 0
152 173 0
150 171 0
150 170 0
151 172 0
151 171 0
152 173 0
150 171 0
148 170 0
152 173 0
148 169 0
150 171 0
153 173 0
152 172 0
151 173 0
148 169 0
149 170 0
151 170 0
148 168 0
149 170 0
145 165 0
147 167 0
149 170 0
146 166 0
150 170 0
145 165 0
152 172 0
150 170 0
149 169 0
150 170 0
147 167 0
149 169 0
152 172 0
150 170 0
144 165 0
147 167 0
150 170 0
144 164 0
145 166 0
143 163 0
149 169 0
150 169 0
148 169 0
147 167 0
145 165 0
143 163 0
144 164 0
143 163 0
141 161 0
145 165 0
142 161 0
144 164 0
140 159 0
141 161 0
147 167 0
142 161 0
146 166 0
143 163 0
145 165 0
142 162 0
140 160 0
144 163 0
142 161 0
141 160 0
145 165 0
137 157 0
138 158 0
137 156 0
143 163 0
140 160 0
137 156 0
127 146 0
132 151 0
129 148 0
130 149 0
135 153 0
126 145 0
135 154 0
126 145 0
133 152 0
130 149 0
130 148 0
126 144 0
127 144 0
121 139 0
130 149 0
128 145 0
122 141 0
112 129 0
127 145 0
126 144 0
122 139 0
120 135 0
114 130 0
123 140 0
117 135 0
113 129 0
114 130 0
97 113 0
112 127 0
110 126 0
113 129 0
111 127 0
109 123 0
117 133 0
105 120 0
103 119 0
109 123 0
126 144 0
128 145 25
139 155 88
158 173 120
171 190 105
160 181 0
160 183 0
161 183 0
165 187 0
157 179 0
159 182 0
162 184 0
159 182 0
160 182 0
167 189 0
165 188 0
165 187 0
165 188 0
160 183 0
156 178 0
158 180 0
161 184 0
160 182 0
163 185 0
161 184 0
159 181 0
161 183 0
158 180 0
157 180 0
103 123 54
49 78 80
47 75 73
50 80 80
51 81 83
52 83 98
52 83 78
52 82 96
53 84 91
51 81 78
53 84 90
55 87 104
55 87 103
54 86 105
54 86 90
55 87 103
58 90 122
53 85 93
51 82 90
52 82 86
53 85 94
55 87 110
51 82 80
54 86 102
57 90 100
55 88 98
56 88 100
54 85 94
56 89 105
54 86 97
55 88 102
55 88 102
56 88 106
54 86 103
56 89 108
55 88 94
57 89 108
54 86 92
57 90 107
57 90 107
55 88 100
54 86 102
56 88 99
57 90 111
57 90 102
57 90 114
57 90 105
56 89 105
57 90 107
56 88 113
55 87 108
57 91 115
55 87 108
53 84 99
58 91 107
56 88 100
57 89 111
57 90 99
56 89 108
54 86 86
57 90 99
57 91 113
55 87 105
56 88 105
54 86 97
57 90 117
57 89 111
57 90 102
54 86 103
56 89 113
55 88 107
55 87 97
55 88 94
54 86 86
55 87 102
56 88 110
57 90 99
55 87 105
55 87 108
101 125 80
165 188 0
165 188 0
159 182 0
163 186 0
165 188 0
164 187 0
164 187 0
166 189 0
171 194 0
171 195 0
171 194 0
167 191 0
172 194 0
167 191 0
167 190 0
167 189 0
172 195 0
168 191 0
170 193 0
168 191 0
171 194 0
170 193 0
164 188 0
168 191 0
181 205 173
198 223 255
199 224 255
201 224 255
202 225 255
202 225 255
203 226 255
204 226 255
205 226 255
205 227 255
206 227 255
206 227 255
206 227 255
207 228 255
207 228 255
208 228 255
208 228 255
208 228 255
208 228 255
209 229 255
209 229 255
209 229 255
209 229 255
210 229 255
210 229 255
210 229 255
210 229 255
210 229 255
211 230 255
211 230 255
211 230 255
211 230 255
211 230 255
211 230 255
211 230 255
211 230 255
212 230 255
212 230 255
212 230 255
212 230 255
212 230 255
212 230 255
212 230 255
212 230 255
212 231 255
212 231 255
212 231 255
212 231 255
212 231 255
213 231 255
213 231 255
213 231 255
213 231 255
213 231 255
213 231 255
213 231 255
213 231 255
213 231 255
213 231 255
213 231 255
213 231 255
213 231 255
213 231 255
213 231 255
213 231 255
213 231 255
213 231 255
213 231 255
213 231 255
213 231 255
213 231 255
213 231 255
213 231 255
213 231 255
213 231 255
213 231 255
213 231 255
213 231 255
213 231 255
213 231 255
213 231 255
213 231 255
213 231 255
213 231 255
213 231 255
213 231 255
213 231 255
213 231 255
213 231 255
213 231 255
213 231 255
213 231 255
213 231 255
213 231 255
213 231 255
213 231 255
213 231 255
213 231 255
213 231 255
213 231 255
213 231 255
213 231 255
213 231 255
213 231 255
213 231 255
213 231 255
213 231 255
213 231 255
213 231 255
213 231 255
213 231 255
213 231 255
213 231 255
213 231 255
213 231 255
213 231 255
213 231 255
213 231 255
213 231 255
213 231 255
213 231 255
213 231 255
213 231 255
213 231 255
213 231 255
213 231 255
213 231 255
213 231 255
213 231 255
212 231 255
212 231 255
212 231 255
212 231 255
212 231 255
212 231 255
212 231 255
157 177 0
152 172 0
153 174 0
152 173 0
153 173 0
155 175 0
153 173 0
151 171 0
152 173 0
153 174 0
153 173 0
155 175 0
153 173 0
153 173 0
152 172 0
151 172 0
152 172 0
151 172 0
150 171 0
151 172 0
153 173 0
151 172 0
151 172 0
152 172 0
150 170 0
152 172 0
152 173 0
151 172 0
151 172 0
150 171 0
148 168 0
152 172 0
151 171 0
151 172 0
153 174 0
152 172 0
151 171 0
148 169 0
150 169 0
147 167 0
147 167 0
151 171 0
149 169 0
152 171 0
151 171 0
151 171 0
152 172 0
147 168 0
144 163 0
147 166 0
150 171 0
150 170 0
148 168 0
150 170 0
148 169 0
142 162 0
145 165 0
148 169 0
146 166 0
149 169 0
143 163 0
146 166 0
144 164 0
145 165 0
148 168 0
146 166 0
146 166 0
145 165 0
144 164 0
139 158 0
137 157 0
143 163 0
144 164 0
144 164 0
146 165 0
141 161 0
145 165 0
142 161 0
139 158 0
146 167 0
140 159 0
138 157 0
134 154 0
134 153 0
138 157 0
134 154 0
137 157 0
127 147 0
132 150 0
135 153 0
140 160 0
128 147 0
131 150 0
135 155 0
139 158 0
127 146 0
134 152 0
139 157 0
128 147 0
131 150 0
127 146 0
124 143 0
128 146 0
124 142 0
127 145 0
125 143 0
120 137 0
127 146 0
119 138 0
123 141 0
120 137 0
115 132 0
112 129 0
118 134 0
115 132 0
113 130 0
111 127 0
113 129 0
114 129 0
115 131 0
110 127 0
113 129 0
105 121 0
109 125 0
116 132 0
111 126 0
110 126 0
114 131 0
104 121 0
116 132 0
109 126 0
125 141 51
143 159 92
150 165 105
166 184 114
160 183 0
162 184 0
161 183 0
164 186 0
161 183 0
157 180 0
158 180 0
163 186 0
161 184 0
157 180 0
150 172 0
158 180 0
165 188 0
160 183 0
160 182 0
155 177 0
160 183 0
159 182 0
159 181 0
155 177 0
154 176 0
159 181 0
156 178 0
152 174 0
152 173 0
158 180 0
86 110 59
50 79 75
49 79 73
50 79 86
48 76 64
50 80 83
52 83 91
53 84 94
53 84 83
53 84 101
52 83 86
53 84 93
53 85 91
53 84 83
53 85 96
55 87 105
54 86 106
56 88 95
55 88 92
52 84 88
56 89 103
54 87 100
52 83 82
54 86 99
55 88 100
56 88 102
55 88 106
56 88 103
54 86 95
55 87 95
54 86 95
56 89 110
52 83 88
56 88 100
57 89 110
56 89 107
55 87 108
54 86 100
56 89 100
56 89 106
54 86 95
55 87 92
55 88 108
54 86 84
55 88 102
54 86 95
55 87 105
57 90 114
55 87 113
57 90 108
58 91 117
55 87 90
56 89 99
56 89 113
53 85 92
56 89 105
56 89 107
55 88 86
57 90 108
58 91 107
54 87 97
54 87 99
57 90 110
57 91 105
55 87 99
56 89 107
56 89 99
55 88 103
53 85 95
56 88 111
56 89 107
55 87 114
54 86 103
55 88 102
55 87 102
52 83 94
55 87 102
93 119 88
158 181 0
163 186 0
164 186 0
162 184 0
167 190 0
165 188 0
165 187 0
166 189 0
170 192 0
167 189 0
168 191 0
167 189 0
167 190 0
163 186 0
169 192 0
169 191 0
167 191 0
163 185 0
167 190 0
165 187 0
168 191 0
172 195 0
170 192 0
168 192 0
171 193 0
172 195 0
181 205 179
197 222 255
199 223 255
200 224 255
201 224 255
202 225 255
203 225 255
204 226 255
204 226 255
205 226 255
205 227 255
206 227 255
206 227 255
206 227 255
207 228 255
207 228 255
207 228 255
208 228 255
208 228 255
208 228 255
209 228 255
209 229 255
209 229 255
209 229 255
209 229 255
210 229 255
210 229 255
210 229 255
210 229 255
210 229 255
210 230 255
211 230 255
211 230 255
211 230 255
211 230 255
211 230 255
211 230 255
211 230 255
211 230 255
211 230 255
212 230 255
212 230 255
212 230 255
212 230 255
212 230 255
212 230 255
212 230 255
212 230 255
212 230 255
212 230 255
212 231 255
212 231 255
212 231 255
212 231 255
212 231 255
212 231 255
213 231 255
213 231 255
213 231 255
213 231 255
213 231 255
213 231 255
213 231 255
213 231 255
213 231 255
213 231 255
213 231 255
213 231 255
213 231 255
213 231 255
213 231 255
213 231 255
213 231 255
213 231 255
213 231 255
213 231 255
213 231 255
213 231 255
213 231 255
213 231 255
213 231 255
213 231 255
213 231 255
213 231 255
213 231 255
213 231 255
213 231 255
213 231 255
213 231 255
213 231 255
213 231 255
213 231 255
213 231 255
213 231 255
213 231 255
213 231 255
213 231 255
213 231 255
213 231 255
213 231 255
213 231 255
213 231 255
213 231 255
213 231 255
213 231 255
213 231 255
213 231 255
213 231 255
213 231 255
213 231 255
213 231 255
213 231 255
213 231 255
213 231 255
213 231 255
213 231 255
213 231 255
213 231 255
212 231 255
212 231 255
212 231 255
212 231 255
212 231 255
212 231 255
212 231 255
212 231 255
212 230 255
212 230 255
212 230 255
212 230 255
212 230 255
212 230 255
212 230 255
212 230 255
212 230 255
155 175 0
150 171 0
154 174 0
153 174 0
152 173 0
153 174 0
154 174 0
152 172 0
153 173 0
153 174 0
153 173 0
151 172 0
152 173 0
151 171 0
153 173 0
150 171 0
150 171 0
151 172 0
153 173 0
148 169 0
152 173 0
153 173 0
151 172 0
152 172 0
150 171 0
152 172 0
152 172 0
151 171 0
150 171 0
150 170 0
148 169 0
153 174 0
151 171 0
152 172 0
150 171 0
149 169 0
149 170 0
149 170 0
149 170 0
147 168 0
149 169 0
147 168 0
147 168 0
147 168 0
149 169 0
150 171 0
148 168 0
149 169 0
147 168 0
151 172 0
147 168 0
148 168 0
149 169 0
146 166 0
148 168 0
147 168 0
148 168 0
148 168 0
149 169 0
149 170 0
147 168 0
145 165 0
144 165 0
146 168 0
146 165 0
141 160 0
146 165 0
144 164 0
136 155 0
146 165 0
138 157 0
148 167 0
139 159 0
140 159 0
137 157 0
146 166 0
140 159 0
142 161 0
138 157 0
136 156 0
142 162 0
141 160 0
136 155 0
141 160 0
141 160 0
139 158 0
141 159 0
134 153 0
140 159 0
134 152 0
134 153 0
137 156 0
133 152 0
139 158 0
132 151 0
131 149 0
139 158 0
131 150 0
128 147 0
129 148 0
136 155 0
133 152 0
132 151 0
127 144 0
122 139 0
121 138 0
129 147 0
129 148 0
124 142 0
120 137 0
122 140 0
121 137 0
119 136 0
118 135 0
109 125 0
116 133 0
121 138 0
109 125 0
122 138 0
113 130 0
115 132 0
111 127 0
113 128 0
111 127 0
110 125 0
110 126 0
121 137 0
104 119 0
107 122 0
109 125 0
129 145 25
145 161 88
156 171 117
172 189 128
156 179 0
159 180 0
163 184 0
161 182 0
160 182 0
157 179 0
160 182 0
158 179 0
157 179 0
156 177 0
160 181 0
156 178 0
156 178 0
159 181 0
154 176 0
156 178 0
158 180 0
146 168 0
154 176 0
149 171 0
151 173 0
151 172 0
146 167 0
147 168 0
151 173 0
153 174 0
151 174 0
146 169 24
78 101 73
49 77 80
51 81 78
49 79 84
50 80 90
48 77 78
51 81 86
51 81 88
51 82 83
53 83 95
49 79 82
52 83 82
52 83 75
51 81 95
51 82 84
54 86 97
52 83 88
53 84 86
54 86 93
55 87 97
52 83 86
58 91 114
52 84 86
55 88 100
56 88 108
56 89 115
55 87 92
55 87 90
56 89 98
55 87 102
56 88 95
56 89 108
55 88 100
54 86 102
57 90 110
56 89 107
54 86 97
56 89 108
54 87 100
55 87 103
54 86 92
53 85 92
54 86 94
55 88 102
56 88 102
56 89 110
54 86 111
55 87 86
55 87 102
56 89 100
55 87 97
56 89 108
56 88 111
56 88 95
55 87 95
55 87 97
54 87 95
55 87 100
55 87 90
55 87 108
57 90 117
55 88 100
53 84 92
56 89 108
55 88 103
54 86 90
55 88 102
54 87 107
53 84 94
55 87 107
52 84 102
55 87 99
55 87 105
56 89 107
55 88 114
78 104 97
159 181 18
159 182 0
160 182 0
160 182 0
164 186 0
155 177 0
165 188 0
160 183 0
158 181 0
170 193 0
163 185 0
160 183 0
166 188 0
168 190 0
163 186 0
164 187 0
173 195 0
168 191 0
171 194 0
164 187 0
167 190 0
169 193 0
161 184 0
166 189 0
167 189 0
170 193 0
167 189 0
167 190 25
182 206 177
197 222 255
198 223 255
200 224 255
201 224 255
201 225 255
202 225 255
203 225 255
204 226 255
204 226 255
205 226 255
205 227 255
206 227 255
206 227 255
206 227 255
207 227 255
207 228 255
207 228 255
208 228 255
208 228 255
208 228 255
208 228 255
209 229 255
209 229 255
209 229 255
209 229 255
209 229 255
210 229 255
210 229 255
210 229 255
210 229 255
210 229 255
210 229 255
210 230 255
211 230 255
211 230 255
211 230 255
211 230 255
211 230 255
211 230 255
211 230 255
211 230 255
211 230 255
211 230 255
212 230 255
212 230 255
212 230 255
212 230 255
212 230 255
212 230 255
212 230 255
212 230 255
212 230 255
212 230 255
212 230 255
212 230 255
212 230 255
212 231 255
212 231 255
212 231 255
212 231 255
212 231 255
212 231 255
212 231 255
212 231 255
212 231 255
212 231 255
213 231 255
213 231 255
213 231 255
213 231 255
213 231 255
213 231 255
213 231 255
213 231 255
213 231 255
213 231 255
213 231 255
213 231 255
213 231 255
213 231 255
213 231 255
213 231 255
213 231 255
213 231 255
213 231 255
213 231 255
213 231 255
213 231 255
213 231 255
213 231 255
213 231 255
213 231 255
213 231 255
213 231 255
213 231 255
213 231 255
213 231 255
213 231 255
213 231 255
213 231 255
213 231 255
212 231 255
212 231 255
212 231 255
212 231 255
212 231 255
212 231 255
212 231 255
212 231 255
212 231 255
212 231 255
212 231 255
212 231 255
212 231 255
212 230 255
212 230 255
212 230 255
212 230 255
212 230 255
212 230 255
212 230 255
212 230 255
212 230 255
212 230 255
212 230 255
212 230 255
212 230 255
212 230 255
212 230 255
212 230 255
212 230 255
212 230 255
211 230 255
153 174 0
152 173 0
151 172 0
153 174 0
155 175 0
152 173 0
154 174 0
151 172 0
151 173 0
154 174 0
153 174 0
153 173 0
152 173 0
151 172 0
152 173 0
151 171 0
153 173 0
151 171 0
153 173 0
150 172 0
151 171 0
151 173 0
150 171 0
149 170 0
148 169 0
149 170 0
154 175 0
151 172 0
154 173 0
151 172 0
149 170 0
148 169 0
150 171 0
151 172 0
150 170 0
150 170 0
150 170 0
148 169 0
150 171 0
151 171 0
147 167 0
149 169 0
147 167 0
148 168 0
149 169 0
146 167 0
147 167 0
150 171 0
146 167 0
149 169 0
146 165 0
149 169 0
145 164 0
144 165 0
144 164 0
146 166 0
149 170 0
145 165 0
141 161 0
145 165 0
148 168 0
144 164 0
148 167 0
146 166 0
141 160 0
143 163 0
143 163 0
147 166 0
143 163 0
144 164 0
141 161 0
142 162 0
137 156 0
145 165 0
139 158 0
144 163 0
141 159 0
139 158 0
142 162 0
141 160 0
141 160 0
140 160 0
136 155 0
136 155 0
134 155 0
137 156 0
139 159 0
137 157 0
135 155 0
139 159 0
135 154 0
135 154 0
134 153 0
134 153 0
138 156 0
137 155 0
139 158 0
136 154 0
132 150 0
138 157 0
128 145 0
119 137 0
130 147 0
122 139 0
130 148 0
121 138 0
126 143 0
127 145 0
128 146 0
116 134 0
118 136 0
118 134 0
113 130 0
126 143 0
124 141 0
124 140 0
118 134 0
119 136 0
114 130 0
120 136 0
103 118 0
102 118 0
111 127 0
111 127 0
107 124 0
113 128 0
110 125 0
116 131 0
112 128 0
129 146 51
127 143 67
145 159 114
155 172 99
158 181 0
156 178 0
158 179 0
158 180 0
157 179 0
154 176 0
155 176 0
153 175 0
153 173 0
152 175 0
151 173 0
155 177 0
151 172 0
157 179 0
152 173 0
152 174 0
152 173 0
156 179 0
145 167 0
151 172 0
156 177 0
150 172 0
149 170 0
142 166 0
152 173 0
154 176 0
147 168 0
147 169 0
152 174 0
138 160 0
78 101 57
48 77 76
49 78 80
51 81 82
47 75 80
51 81 81
53 84 90
50 80 83
52 82 92
54 87 92
51 82 88
53 83 93
52 82 92
54 85 95
52 83 97
54 85 103
54 85 93
56 89 108
52 82 92
54 86 82
56 88 99
52 84 80
52 83 95
55 87 109
56 88 105
53 85 88
55 87 102
54 85 95
53 84 84
54 86 100
55 88 100
55 86 103
57 89 100
55 87 94
54 86 90
55 87 105
54 85 94
55 87 102
55 88 102
55 87 94
57 90 107
54 87 95
56 89 86
55 87 99
52 83 86
55 87 105
55 88 108
55 87 100
55 87 95
54 86 100
55 88 95
56 89 103
55 87 94
57 90 114
55 88 99
54 87 100
52 83 95
56 89 94
56 88 97
56 88 103
54 87 92
54 85 94
52 83 86
55 87 97
55 87 103
54 87 90
54 86 97
54 86 94
56 88 100
53 85 92
52 83 84
53 85 99
53 85 100
88 112 80
151 173 36
157 179 0
151 174 0
153 175 0
159 181 0
159 181 0
160 182 0
164 186 0
160 183 0
163 186 0
163 186 0
165 188 0
158 180 0
158 181 0
160 182 0
163 187 0
166 188 0
167 190 0
165 188 0
163 186 0
168 191 0
164 188 0
167 189 0
163 186 0
163 185 0
167 189 0
171 193 0
169 192 0
169 192 0
168 191 0
180 205 182
196 222 255
198 223 255
199 223 255
200 224 255
201 224 255
202 225 255
202 225 255
203 225 255
204 226 255
204 226 255
205 226 255
205 227 255
205 227 255
206 227 255
206 227 255
207 227 255
207 228 255
207 228 255
207 228 255
208 228 255
208 228 255
208 228 255
208 228 255
209 229 255
209 229 255
209 229 255
209 229 255
209 229 255
209 229 255
210 229 255
210 229 255
210 229 255
210 229 255
210 229 255
210 229 255
210 230 255
211 230 255
211 230 255
211 230 255
211 230 255
211 230 255
211 230 255
211 230 255
211 230 255
211 230 255
211 230 255
211 230 255
211 230 255
211 230 255
212 230 255
212 230 255
212 230 255
212 230 255
212 230 255
212 230 255
212 230 255
212 230 255
212 230 255
212 230 255
212 230 255
212 230 255
212 230 255
212 230 255
212 230 255
212 230 255
212 230 255
212 230 255
212 230 255
212 230 255
212 231 255
212 231 255
212 231 255
212 231 255
212 231 255
212 231 255
212 231 255
212 231 255
212 231 255
212 231 255
212 231 255
212 231 255
212 231 255
212 231 255
212 231 255
212 231 255
212 231 255
212 231 255
212 231 255
212 231 255
212 231 255
212 231 255
212 231 255
212 231 255
212 231 255
212 231 255
212 231 255
212 230 255
212 230 255
212 230 255
212 230 255
212 230 255
212 230 255
212 230 255
212 230 255
212 230 255
212 230 255
212 230 255
212 230 255
212 230 255
212 230 255
212 230 255
212 230 255
212 230 255
212 230 255
212 230 255
212 230 255
212 230 255
212 230 255
212 230 255
212 230 255
212 230 255
212 230 255
211 230 255
211 230 255
211 230 255
211 230 255
211 230 255
211 230 255
211 230 255
211 230 255
211 230 255
211 230 255
153 173 0
153 173 0
152 174 0
151 172 0
154 174 0
152 173 0
155 176 0
153 173 0
152 172 0
154 174 0
152 173 0
152 173 0
151 172 0
155 174 0
151 172 0
151 171 0
152 172 0
152 172 0
153 174 0
149 169 0
151 171 0
151 172 0
149 169 0
152 172 0
153 174 0
151 171 0
149 168 0
152 173 0
148 169 0
151 171 0
148 168 0
150 170 0
149 168 0
152 172 0
150 171 0
151 171 0
151 170 0
152 172 0
149 169 0
149 169 0
147 168 0
149 169 0
145 165 0
145 165 0
151 170 0
148 168 0
147 167 0
148 169 0
145 165 0
147 166 0
148 168 0
149 169 0
146 165 0
150 170 0
149 169 0
143 163 0
146 166 0
143 163 0
146 166 0
142 162 0
145 164 0
146 166 0
144 165 0
146 166 0
142 162 0
142 161 0
142 161 0
147 167 0
145 164 0
144 163 0
141 161 0
142 161 0
140 159 0
144 162 0
139 159 0
139 159 0
141 159 0
138 157 0
137 156 0
136 154 0
137 156 0
139 158 0
138 157 0
138 158 0
137 156 0
135 155 0
135 153 0
135 154 0
136 155 0
130 149 0
129 147 0
139 158 0
139 158 0
138 156 0
136 155 0
132 150 0
128 146 0
128 146 0
122 140 0
128 147 0
128 146 0
125 143 0
130 149 0
128 147 0
125 143 0
130 148 0
123 141 0
122 139 0
128 146 0
119 135 0
119 136 0
127 144 0
116 133 0
118 135 0
115 131 0
120 137 0
117 133 0
113 129 0
111 128 0
115 131 0
103 118 0
96 110 0
112 128 0
113 129 0
105 121 0
118 133 0
110 125 0
108 125 0
119 135 44
137 153 92
162 176 135
162 179 105
154 175 0
155 175 0
157 178 0
156 177 0
158 178 0
155 176 0
155 176 0
151 172 0
158 179 0
156 178 0
151 173 0
151 173 0
157 178 0
153 174 0
150 172 0
157 178 0
147 169 0
147 168 0
153 175 0
151 174 0
144 166 0
150 172 0
154 176 0
150 172 0
147 168 0
138 159 0
137 160 0
147 168 0
140 161 0
143 165 0
136 157 0
133 154 0
76 98 46
48 77 72
51 81 80
49 79 78
51 81 83
55 87 97
51 81 88
53 84 99
50 80 84
52 82 84
52 84 82
49 79 80
53 84 91
53 84 88
52 83 88
53 84 98
52 83 84
53 85 92
53 85 97
49 78 88
52 83 86
52 83 88
56 89 111
55 87 95
54 86 99
55 87 94
53 85 94
55 87 99
53 85 97
53 85 90
56 89 100
53 84 92
54 85 103
54 86 90
56 88 100
55 86 107
54 86 102
56 88 95
54 85 86
54 86 94
54 86 88
53 84 94
54 86 103
53 84 80
55 87 94
53 84 92
54 86 92
55 86 99
54 86 90
56 89 110
54 86 92
55 87 99
57 90 107
53 85 99
55 88 108
53 85 86
56 88 90
54 85 94
54 87 97
55 87 99
54 86 90
52 83 76
54 86 97
53 85 82
54 87 94
53 84 99
54 86 94
53 84 92
54 85 97
55 87 100
56 88 92
86 112 86
142 164 36
146 168 0
157 179 0
158 180 0
166 187 0
156 178 0
158 180 0
158 181 0
152 175 0
156 178 0
166 188 0
160 182 0
167 190 0
158 180 0
164 187 0
168 190 0
159 181 0
160 183 0
160 183 0
163 185 0
167 189 0
167 190 0
164 187 0
163 186 0
166 189 0
170 193 0
161 184 0
169 191 0
167 190 0
166 189 0
164 187 0
165 188 0
182 208 203
195 221 255
197 222 255
198 223 255
199 224 255
200 224 255
201 224 255
202 225 255
202 225 255
203 226 255
204 226 255
204 226 255
205 226 255
205 227 255
205 227 255
206 227 255
206 227 255
206 227 255
207 227 255
207 228 255
207 228 255
207 228 255
208 228 255
208 228 255
208 228 255
208 228 255
209 228 255
209 229 255
209 229 255
209 229 255
209 229 255
209 229 255
209 229 255
210 229 255
210 229 255
210 229 255
210 229 255
210 229 255
210 229 255
210 229 255
210 230 255
210 230 255
211 230 255
211 230 255
211 230 255
211 230 255
211 230 255
211 230 255
211 230 255
211 230 255
211 230 255
211 230 255
211 230 255
211 230 255
211 230 255
211 230 255
211 230 255
211 230 255
212 230 255
212 230 255
212 230 255
212 230 255
212 230 255
212 230 255
212 230 255
212 230 255
212 230 255
212 230 255
212 230 255
212 230 255
212 230 255
212 230 255
212 230 255
212 230 255
212 230 255
212 230 255
212 230 255
212 230 255
212 230 255
212 230 255
212 230 255
212 230 255
212 230 255
212 230 255
212 230 255
212 230 255
212 230 255
212 230 255
212 230 255
212 230 255
212 230 255
212 230 255
212 230 255
212 230 255
212 230 255
212 230 255
212 230 255
212 230 255
212 230 255
212 230 255
212 230 255
212 230 255
212 230 255
212 230 255
212 230 255
212 230 255
212 230 255
212 230 255
212 230 255
212 230 255
212 230 255
212 230 255
211 230 255
211 230 255
211 230 255
211 230 255
211 230 255
211 230 255
211 230 255
211 230 255
211 230 255
211 230 255
211 230 255
211 230 255
211 230 255
211 230 255
211 230 255
211 230 255
211 230 255
211 230 255
211 230 255
211 230 255
153 173 0
154 174 0
152 173 0
151 171 0
151 172 0
153 173 0
151 172 0
152 172 0
152 172 0
151 171 0
151 172 0
153 173 0
150 170 0
151 171 0
154 174 0
151 172 0
152 172 0
150 170 0
150 171 0
149 169 0
147 167 0
149 168 0
152 172 0
151 170 0
151 171 0
150 171 0
151 171 0
150 170 0
150 170 0
151 171 0
150 169 0
150 170 0
151 171 0
147 168 0
148 168 0
150 170 0
149 169 0
148 168 0
148 168 0
148 169 0
149 169 0
150 170 0
149 169 0
148 168 0
150 169 0
153 172 0
146 167 0
147 166 0
146 167 0
147 167 0
146 166 0
148 168 0
145 165 0
144 164 0
149 169 0
145 165 0
145 165 0
145 166 0
146 165 0
143 163 0
145 165 0
136 154 0
141 162 0
147 167 0
143 164 0
142 162 0
144 164 0
143 161 0
138 157 0
143 162 0
144 163 0
140 159 0
138 157 0
139 158 0
143 162 0
137 156 0
139 158 0
136 155 0
139 158 0
137 156 0
141 161 0
139 158 0
146 164 0
142 161 0
135 153 0
129 147 0
133 153 0
132 151 0
135 154 0
128 145 0
132 150 0
135 155 0
140 158 0
132 150 0
133 152 0
129 147 0
135 154 0
134 153 0
128 146 0
131 149 0
124 141 0
127 144 0
132 149 0
118 135 0
125 143 0
125 142 0
123 141 0
121 138 0
129 147 0
121 137 0
117 134 0
126 143 0
120 136 0
111 127 0
125 142 0
104 120 0
113 129 0
113 129 0
106 123 0
115 130 0
115 130 0
112 127 0
113 127 0
106 121 0
110 125 0
112 128 0
110 125 25
123 137 57
131 146 76
163 176 135
156 173 84
159 179 0
155 175 0
152 173 0
154 174 0
147 166 0
150 171 0
153 174 0
149 170 0
141 162 0
151 173 0
147 169 0
159 180 0
148 168 0
151 172 0
154 175 0
146 167 0
145 165 0
147 168 0
146 168 0
145 166 0
146 167 0
144 165 0
143 164 0
149 170 0
142 164 0
145 166 0
134 155 0
134 155 0
142 163 0
139 160 0
144 165 0
143 163 0
136 156 0
135 155 0
67 90 56
45 72 74
48 75 92
50 80 87
49 79 80
49 78 88
50 80 86
53 83 93
52 82 87
53 84 98
47 76 69
50 80 86
52 83 78
52 83 93
54 85 97
53 84 95
55 87 100
49 78 80
53 84 94
52 83 86
52 83 94
52 83 95
53 84 95
53 84 84
52 83 88
55 87 93
54 86 99
51 82 90
52 84 84
56 88 107
53 84 90
54 86 94
53 85 90
54 87 100
56 88 94
55 87 99
54 85 92
54 86 100
54 87 92
54 86 92
54 85 107
55 87 107
54 86 90
55 88 94
56 88 107
54 86 84
55 87 99
54 86 94
55 87 88
55 88 99
55 87 95
54 86 97
57 89 117
56 89 103
53 85 86
55 87 92
54 87 90
54 86 94
54 87 90
55 87 97
54 86 86
53 84 84
53 85 92
53 84 84
50 81 88
53 84 90
54 85 92
52 83 82
53 84 99
71 98 80
149 171 18
138 160 0
152 174 0
154 176 0
150 171 0
153 176 0
156 178 0
158 180 0
153 175 0
159 181 0
156 178 0
161 183 0
158 180 0
160 183 0
151 174 0
167 190 0
157 180 0
163 186 0
162 185 0
162 185 0
163 186 0
162 184 0
159 182 0
165 188 0
162 185 0
160 183 0
165 188 0
167 190 0
165 187 0
168 191 0
167 190 0
168 191 0
161 184 0
165 188 0
178 203 167
194 220 253
196 222 255
198 223 255
199 223 255
200 224 255
200 224 255
201 224 255
202 225 255
202 225 255
203 226 255
203 226 255
204 226 255
204 226 255
205 226 255
205 227 255
206 227 255
206 227 255
206 227 255
206 227 255
207 227 255
207 228 255
207 228 255
207 228 255
208 228 255
208 228 255
208 228 255
208 228 255
208 228 255
209 229 255
209 229 255
209 229 255
209 229 255
209 229 255
209 229 255
209 229 255
210 229 255
210 229 255
210 229 255
210 229 255
210 229 255
210 229 255
210 229 255
210 229 255
210 229 255
210 230 255
211 230 255
211 230 255
211 230 255
211 230 255
211 230 255
211 230 255
211 230 255
211 230 255
211 230 255
211 230 255
211 230 255
211 230 255
211 230 255
211 230 255
211 230 255
211 230 255
211 230 255
211 230 255
211 230 255
211 230 255
211 230 255
211 230 255
211 230 255
211 230 255
211 230 255
212 230 255
212 230 255
212 230 255
212 230 255
212 230 255
212 230 255
212 230 255
212 230 255
212 230 255
212 230 255
212 230 255
212 230 255
212 230 255
212 230 255
212 230 255
212 230 255
212 230 255
212 230 255
212 230 255
212 230 255
212 230 255
212 230 255
211 230 255
212 230 255
211 230 255
211 230 255
211 230 255
211 230 255
211 230 255
211 230 255
211 230 255
211 230 255
211 230 255
211 230 255
211 230 255
211 230 255
211 230 255
211 230 255
211 230 255
211 230 255
211 230 255
211 230 255
211 230 255
211 230 255
211 230 255
211 230 255
211 230 255
211 230 255
211 230 255
211 230 255
211 230 255
211 230 255
211 230 255
211 230 255
211 230 255
210 230 255
210 230 255
210 229 255
210 229 255
210 229 255
154 174 0
152 173 0
152 172 0
151 171 0
151 171 0
151 172 0
150 171 0
150 170 0
153 173 0
152 173 0
152 172 0
152 172 0
152 172 0
153 174 0
151 171 0
150 170 0
148 168 0
151 171 0
150 170 0
149 169 0
152 172 0
149 169 0
151 171 0
150 170 0
152 171 0
148 168 0
150 170 0
148 168 0
150 171 0
148 168 0
153 173 0
150 171 0
149 169 0
151 171 0
147 168 0
148 168 0
149 168 0
149 169 0
151 171 0
148 169 0
149 169 0
147 167 0
149 169 0
147 166 0
148 169 0
147 167 0
147 168 0
147 166 0
148 167 0
147 167 0
143 163 0
147 166 0
149 168 0
147 167 0
145 165 0
147 166 0
150 169 0
147 167 0
143 162 0
145 164 0
144 162 0
145 164 0
149 169 0
143 162 0
141 160 0
145 164 0
144 163 0
145 164 0
139 159 0
142 160 0
145 165 0
141 160 0
140 159 0
135 154 0
135 153 0
144 163 0
135 154 0
142 160 0
136 155 0
140 159 0
142 162 0
132 151 0
141 159 0
133 153 0
139 158 0
132 150 0
128 147 0
140 159 0
133 152 0
133 152 0
134 153 0
132 149 0
135 153 0
135 152 0
124 142 0
133 150 0
130 147 0
135 154 0
128 146 0
123 141 0
126 144 0
128 145 0
129 146 0
124 142 0
128 144 0
125 142 0
124 142 0
120 137 0
115 132 0
129 145 0
120 137 0
111 127 0
115 132 0
114 130 0
115 130 0
106 121 0
108 125 0
110 126 0
112 129 0
111 126 0
112 127 0
107 121 0
112 127 0
110 125 0
115 130 0
117 132 0
125 139 57
143 156 102
162 174 144
156 173 88
160 181 0
154 174 0
145 166 0
149 169 0
153 173 0
150 170 0
147 167 0
152 173 0
147 167 0
142 162 0
152 172 0
150 171 0
149 171 0
157 178 0
139 158 0
145 165 0
144 164 0
149 170 0
144 165 0
144 164 0
149 168 0
144 165 0
144 164 0
136 156 0
149 170 0
144 164 0
131 151 0
132 152 0
136 157 0
136 157 0
149 169 0
131 149 0
135 156 0
138 158 0
129 149 0
133 154 0
93 115 70
49 78 72
50 80 84
49 78 61
50 80 75
49 79 76
49 79 74
48 77 86
51 81 97
52 83 80
52 82 80
51 81 78
51 81 78
52 83 88
53 85 86
51 81 86
50 80 82
51 81 82
55 87 109
52 83 94
51 81 82
50 80 88
53 84 92
53 84 96
53 84 90
54 86 94
55 87 94
51 82 86
56 89 113
56 89 113
54 86 86
54 86 99
53 84 82
55 87 80
55 86 99
53 84 95
55 87 103
55 87 107
55 87 97
56 88 92
54 86 94
53 84 92
55 86 90
56 88 94
55 87 95
55 87 94
53 85 88
54 86 88
55 88 92
56 89 92
53 84 92
51 82 82
55 87 102
50 80 78
53 84 84
54 85 94
51 83 74
55 87 86
53 84 99
52 84 84
56 89 97
51 82 82
55 87 108
54 85 94
51 82 76
52 84 84
49 78 80
101 124 74
145 166 0
135 156 0
152 174 0
143 165 0
152 173 0
146 167 0
158 180 0
153 175 0
154 176 0
157 179 0
150 172 0
164 186 0
154 176 0
155 178 0
163 185 0
158 181 0
159 182 0
155 177 0
160 182 0
164 187 0
162 184 0
161 182 0
165 188 0
158 180 0
167 190 0
163 186 0
167 189 0
155 178 0
160 183 0
162 185 0
161 184 0
168 190 0
165 187 0
162 186 0
169 191 0
169 191 0
176 201 144
194 220 254
195 221 255
197 222 255
198 223 255
199 223 255
200 224 255
201 224 255
201 225 255
202 225 255
202 225 255
203 225 255
203 226 255
204 226 255
204 226 255
205 226 255
205 227 255
205 227 255
206 227 255
206 227 255
206 227 255
207 227 255
207 228 255
207 228 255
207 228 255
207 228 255
208 228 255
208 228 255
208 228 255
208 228 255
208 228 255
208 228 255
209 229 255
209 229 255
209 229 255
209 229 255
209 229 255
209 229 255
209 229 255
210 229 255
210 229 255
210 229 255
210 229 255
210 229 255
210 229 255
210 229 255
210 229 255
210 229 255
210 229 255
210 229 255
210 229 255
210 230 255
210 230 255
211 230 255
211 230 255
211 230 255
211 230 255
211 230 255
211 230 255
211 230 255
211 230 255
211 230 255
211 230 255
211 230 255
211 230 255
211 230 255
211 230 255
211 230 255
211 230 255
211 230 255
211 230 255
211 230 255
211 230 255
211 230 255
211 230 255
211 230 255
211 230 255
211 230 255
211 230 255
211 230 255
211 230 255
211 230 255
211 230 255
211 230 255
211 230 255
211 230 255
211 230 255
211 230 255
211 230 255
211 230 255
211 230 255
211 230 255
211 230 255
211 230 255
211 230 255
211 230 255
211 230 255
211 230 255
211 230 255
211 230 255
211 230 255
211 230 255
211 230 255
211 230 255
211 230 255
211 230 255
211 230 255
211 230 255
211 230 255
211 230 255
211 230 255
211 230 255
211 230 255
211 230 255
211 230 255
211 230 255
210 230 255
210 230 255
210 229 255
210 229 255
210 229 255
210 229 255
210 229 255
210 229 255
210 229 255
210 229 255
210 229 255
210 229 255
210 229 255
210 229 255
154 175 0
154 174 0
152 173 0
151 171 0
152 172 0
154 175 0
152 173 0
153 174 0
151 171 0
151 172 0
153 173 0
151 171 0
150 171 0
151 171 0
152 171 0
152 172 0
150 170 0
150 170 0
150 169 0
149 169 0
151 171 0
149 170 0
149 169 0
150 171 0
150 170 0
151 172 0
147 168 0
148 167 0
149 169 0
145 165 0
154 174 0
150 171 0
149 168 0
148 168 0
148 168 0
146 166 0
148 168 0
145 166 0
149 168 0
148 168 0
152 173 0
144 164 0
146 166 0
144 165 0
148 169 0
147 167 0
146 166 0
145 165 0
146 166 0
146 165 0
146 165 0
146 167 0
146 167 0
146 165 0
146 164 0
144 163 0
150 170 0
144 163 0
141 161 0
144 164 0
142 162 0
143 162 0
142 162 0
138 157 0
143 163 0
142 160 0
141 161 0
140 159 0
144 164 0
143 162 0
143 162 0
142 162 0
138 156 0
136 156 0
135 154 0
136 155 0
142 159 0
143 161 0
141 159 0
145 164 0
140 158 0
135 153 0
139 158 0
135 154 0
137 156 0
135 152 0
136 155 0
136 154 0
134 152 0
135 154 0
130 148 0
125 142 0
136 154 0
132 151 0
125 142 0
133 151 0
131 149 0
131 149 0
126 145 0
132 150 0
123 141 0
128 146 0
133 152 0
121 138 0
123 140 0
122 139 0
121 139 0
125 142 0
124 141 0
123 139 0
121 137 0
118 134 0
125 141 0
113 128 0
115 131 0
104 120 0
114 129 0
113 128 0
104 119 0
115 130 0
106 121 0
116 130 0
102 116 0
116 130 0
109 123 44
129 143 76
151 165 111
171 184 153
150 168 62
150 169 0
151 169 0
151 171 0
149 169 0
151 170 0
146 166 0
147 167 0
142 162 0
140 159 0
146 165 0
146 166 0
143 163 0
150 172 0
150 171 0
152 173 0
142 163 0
151 171 0
147 168 0
148 169 0
142 162 0
133 153 0
146 166 0
137 158 0
136 156 0
142 163 0
131 150 0
137 157 0
138 157 0
137 157 0
134 153 0
136 155 0
135 154 0
137 157 0
138 159 0
130 150 0
127 146 0
120 140 0
139 159 0
90 109 36
46 74 65
46 74 54
50 80 87
47 76 72
51 80 92
49 78 65
49 78 82
51 81 80
51 81 96
50 80 80
50 80 71
50 81 84
52 82 86
49 78 78
53 84 98
51 82 88
53 84 82
52 84 90
52 83 94
54 86 92
54 86 96
52 83 90
52 83 84
52 83 90
52 83 86
52 83 97
52 82 84
55 87 99
55 87 99
53 85 86
53 85 84
57 90 111
53 84 86
55 87 100
57 90 107
51 82 70
53 84 95
52 83 72
53 83 90
54 86 94
54 86 82
52 82 84
53 84 94
52 83 88
53 84 74
54 86 99
54 85 97
54 86 88
52 83 88
53 85 97
50 80 86
55 87 102
55 87 99
51 82 76
50 80 78
52 83 94
55 87 94
54 85 99
53 84 88
52 83 92
51 81 86
51 82 92
53 84 88
50 80 84
94 117 51
151 172 0
138 158 0
145 165 0
141 161 0
139 160 0
137 157 0
151 174 0
148 169 0
145 166 0
148 169 0
145 167 0
143 164 0
157 179 0
155 177 0
156 179 0
163 186 0
156 178 0
153 175 0
162 184 0
163 186 0
161 183 0
158 181 0
165 188 0
162 185 0
159 182 0
158 180 0
165 189 0
162 184 0
165 188 0
158 181 0
167 190 0
166 190 0
163 186 0
164 187 0
164 186 0
164 189 0
165 188 0
162 185 0
175 199 142
192 218 245
195 221 255
196 222 255
197 222 255
198 223 255
199 223 255
200 224 255
201 224 255
201 224 255
202 225 255
202 225 255
203 225 255
203 226 255
204 226 255
204 226 255
204 226 255
205 226 255
205 227 255
205 227 255
206 227 255
206 227 255
206 227 255
206 227 255
207 227 255
207 228 255
207 228 255
207 228 255
208 228 255
208 228 255
208 228 255
208 228 255
208 228 255
208 228 255
208 228 255
209 229 255
209 229 255
209 229 255
209 229 255
209 229 255
209 229 255
209 229 255
209 229 255
209 229 255
209 229 255
210 229 255
210 229 255
210 229 255
210 229 255
210 229 255
210 229 255
210 229 255
210 229 255
210 229 255
210 229 255
210 229 255
210 229 255
210 229 255
210 229 255
210 230 255
210 230 255
210 230 255
210 230 255
210 230 255
211 230 255
211 230 255
211 230 255
211 230 255
211 230 255
211 230 255
211 230 255
211 230 255
211 230 255
211 230 255
211 230 255
211 230 255
211 230 255
211 230 255
211 230 255
211 230 255
211 230 255
211 230 255
211 230 255
211 230 255
211 230 255
211 230 255
211 230 255
211 230 255
211 230 255
211 230 255
211 230 255
211 230 255
211 230 255
211 230 255
211 230 255
211 230 255
211 230 255
211 230 255
211 230 255
211 230 255
211 230 255
211 230 255
210 230 255
210 230 255
210 230 255
210 230 255
210 230 255
210 229 255
210 229 255
210 229 255
210 229 255
210 229 255
210 229 255
210 229 255
210 229 255
210 229 255
210 229 255
210 229 255
210 229 255
210 229 255
210 229 255
210 229 255
210 229 255
210 229 255
210 229 255
210 229 255
209 229 255
209 229 255
209 229 255
152 173 0
154 173 0
150 170 0
150 171 0
152 171 0
146 166 0
153 172 0
154 173 0
151 170 0
151 171 0
149 169 0
149 169 0
155 174 0
151 172 0
153 173 0
153 174 0
151 171 0
149 169 0
150 170 0
153 173 0
147 167 0
150 170 0
148 169 0
148 168 0
149 169 0
152 172 0
147 166 0
148 169 0
149 169 0
149 169 0
149 170 0
148 168 0
147 168 0
146 167 0
145 165 0
148 168 0
147 168 0
150 170 0
150 170 0
148 167 0
149 168 0
150 170 0
151 170 0
150 169 0
147 168 0
151 171 0
147 166 0
147 167 0
146 166 0
144 165 0
148 166 0
146 166 0
149 169 0
151 170 0
149 169 0
142 161 0
143 163 0
147 166 0
141 160 0
140 159 0
146 165 0
143 162 0
138 156 0
141 160 0
143 162 0
140 159 0
141 159 0
141 159 0
142 160 0
140 159 0
143 162 0
137 155 0
140 160 0
142 160 0
139 158 0
136 155 0
140 158 0
139 157 0
141 160 0
136 155 0
132 151 0
135 153 0
131 149 0
130 147 0
133 151 0
137 155 0
136 153 0
136 155 0
134 152 0
130 147 0
130 148 0
135 153 0
128 146 0
137 155 0
131 149 0
133 152 0
130 148 0
121 138 0
133 150 0
129 146 0
127 144 0
123 139 0
127 144 0
121 139 0
125 142 0
119 135 0
118 135 0
119 135 0
126 143 0
119 135 0
124 140 0
120 136 0
106 122 0
118 134 0
101 116 0
115 130 0
110 125 0
110 126 0
104 118 0
113 128 0
115 130 0
107 122 0
116 131 0
119 132 57
136 148 80
153 165 128
151 164 108
147 166 51
148 167 0
144 163 0
146 166 0
146 166 0
145 164 0
139 157 0
147 167 0
143 161 0
143 162 0
142 161 0
142 161 0
146 165 0
147 166 0
136 156 0
148 168 0
143 163 0
140 160 0
143 162 0
142 162 0
144 164 0
130 150 0
138 158 0
143 163 0
138 157 0
132 151 0
138 158 0
139 158 0
135 155 0
137 156 0
130 150 0
128 148 0
134 155 0
128 146 0
130 149 0
127 146 0
125 145 0
124 142 0
136 155 0
121 140 0
128 146 0
99 118 36
51 78 54
46 74 57
48 77 80
49 78 76
50 79 88
50 79 91
49 78 72
51 80 80
50 80 88
49 79 84
51 80 95
50 79 82
51 81 88
51 82 86
51 81 86
52 83 90
52 83 88
49 78 65
52 84 95
51 82 72
53 84 88
52 83 88
54 85 102
53 84 88
55 87 90
54 87 78
51 81 86
51 82 78
53 85 84
54 86 102
53 85 90
53 85 78
53 84 88
51 82 88
53 85 95
54 85 99
52 83 84
53 85 92
53 85 92
52 84 78
52 83 92
51 81 76
54 86 102
53 84 82
53 83 95
52 83 84
52 82 90
53 84 100
52 83 94
55 87 95
54 87 102
54 85 95
50 80 80
53 84 84
52 83 94
53 85 84
53 84 86
51 82 80
52 82 78
51 82 88
53 84 88
63 89 70
119 139 51
139 160 0
141 162 0
133 154 0
134 154 0
146 167 0
148 168 0
148 169 0
137 158 0
144 166 0
149 170 0
150 172 0
149 171 0
160 181 0
148 170 0
155 177 0
159 182 0
156 179 0
153 175 0
161 184 0
158 180 0
149 172 0
158 180 0
159 181 0
157 180 0
163 186 0
164 187 0
160 183 0
162 185 0
160 183 0
155 178 0
164 188 0
162 185 0
169 193 0
164 187 0
165 188 0
164 187 0
164 187 0
166 189 0
170 194 0
169 193 0
162 186 84
188 215 237
193 220 255
195 221 255
196 222 255
197 222 255
198 223 255
199 223 255
200 224 255
200 224 255
201 224 255
202 225 255
202 225 255
203 225 255
203 226 255
203 226 255
204 226 255
204 226 255
205 226 255
205 227 255
205 227 255
205 227 255
206 227 255
206 227 255
206 227 255
206 227 255
207 227 255
207 228 255
207 228 255
207 228 255
207 228 255
208 228 255
208 228 255
208 228 255
208 228 255
208 228 255
208 228 255
208 228 255
208 228 255
209 229 255
209 229 255
209 229 255
209 229 255
209 229 255
209 229 255
209 229 255
209 229 255
209 229 255
209 229 255
209 229 255
210 229 255
210 229 255
210 229 255
210 229 255
210 229 255
210 229 255
210 229 255
210 229 255
210 229 255
210 229 255
210 229 255
210 229 255
210 229 255
210 229 255
210 229 255
210 229 255
210 229 255
210 229 255
210 229 255
210 229 255
210 229 255
210 229 255
210 229 255
210 229 255
210 229 255
210 229 255
210 229 255
210 229 255
210 229 255
210 229 255
210 229 255
210 229 255
210 229 255
210 229 255
210 229 255
210 229 255
210 229 255
210 229 255
210 229 255
210 229 255
210 229 255
210 229 255
210 229 255
210 229 255
210 229 255
210 229 255
210 229 255
210 229 255
210 229 255
210 229 255
210 229 255
210 229 255
210 229 255
210 229 255
210 229 255
210 229 255
210 229 255
210 229 255
210 229 255
210 229 255
210 229 255
210 229 255
210 229 255
210 229 255
210 229 255
210 229 255
210 229 255
209 229 255
209 229 255
209 229 255
209 229 255
209 229 255
209 229 255
209 229 255
209 229 255
209 229 255
209 229 255
209 229 255
155 175 0
152 171 0
154 173 0
153 173 0
153 173 0
151 171 0
150 171 0
150 170 0
148 168 0
152 172 0
151 172 0
152 172 0
153 174 0
151 171 0
153 173 0
152 172 0
151 171 0
149 170 0
152 172 0
150 170 0
151 170 0
152 172 0
151 172 0
148 168 0
152 172 0
150 170 0
146 165 0
149 168 0
151 171 0
147 167 0
148 167 0
150 169 0
148 168 0
148 167 0
153 172 0
148 168 0
146 166 0
150 169 0
145 165 0
145 166 0
149 169 0
148 167 0
142 163 0
148 167 0
142 160 0
150 169 0
146 166 0
142 161 0
144 163 0
143 162 0
141 162 0
146 165 0
142 161 0
144 163 0
143 163 0
142 161 0
144 164 0
145 164 0
145 165 0
140 160 0
142 161 0
144 164 0
145 165 0
144 163 0
145 164 0
141 160 0
142 161 0
140 159 0
139 157 0
137 156 0
144 163 0
144 163 0
143 160 0
136 155 0
142 161 0
140 159 0
137 155 0
139 158 0
141 159 0
134 152 0
138 156 0
132 150 0
134 152 0
131 149 0
132 150 0
135 154 0
132 151 0
133 151 0
134 152 0
125 142 0
131 149 0
131 149 0
129 146 0
132 150 0
134 152 0
129 146 0
128 145 0
124 141 0
129 146 0
130 146 0
122 138 0
129 146 0
123 140 0
124 142 0
127 143 0
117 134 0
123 139 0
123 139 0
121 137 0
122 137 0
110 125 0
115 130 0
122 138 0
121 137 0
117 133 0
108 122 0
111 126 0
112 127 0
110 125 0
113 128 0
112 127 0
111 125 36
122 135 72
128 141 67
138 150 99
160 173 125
144 162 25
142 160 0
148 167 0
145 163 0
144 161 0
142 161 0
139 157 0
148 168 0
146 165 0
135 153 0
141 160 0
136 155 0
141 160 0
141 160 0
141 159 0
137 156 0
137 155 0
129 148 0
139 158 0
138 156 0
135 154 0
143 162 0
134 154 0
144 164 0
132 152 0
134 153 0
134 154 0
132 151 0
133 152 0
134 153 0
137 156 0
139 159 0
133 153 0
127 146 0
130 149 0
129 149 0
121 140 0
121 140 0
115 135 0
123 141 0
124 142 0
119 138 0
109 127 0
122 141 0
60 86 64
49 77 80
47 75 74
44 70 74
48 77 62
48 78 65
50 80 86
50 81 84
49 79 72
49 78 72
53 84 91
52 83 95
51 81 88
49 79 80
51 81 88
48 76 71
55 87 97
53 84 90
51 82 86
51 82 97
52 83 82
51 81 80
49 79 78
53 84 92
54 86 94
53 84 97
54 86 95
52 83 88
50 80 72
50 79 74
54 85 88
50 80 76
53 84 94
51 82 67
52 83 92
55 87 113
53 85 78
52 82 88
52 82 90
55 88 99
53 84 90
55 87 90
53 84 92
54 86 92
52 83 88
54 85 94
52 82 86
51 82 86
51 82 80
53 84 92
50 80 82
51 81 76
53 85 90
53 84 94
52 84 78
52 83 84
53 84 100
50 80 84
52 83 78
73 97 67
118 138 36
128 148 0
132 152 0
138 159 0
141 161 0
133 154 0
144 164 0
136 157 0
148 169 0
153 174 0
144 165 0
148 170 0
152 174 0
153 175 0
154 175 0
148 170 0
159 181 0
158 180 0
155 176 0
159 180 0
158 180 0
154 177 0
155 177 0
155 177 0
167 189 0
154 176 0
151 174 0
159 181 0
158 180 0
160 183 0
158 181 0
158 181 0
167 191 0
162 185 0
163 187 0
165 188 0
159 183 0
166 190 0
167 191 0
170 193 0
163 188 0
167 191 0
164 188 0
167 190 36
182 208 199
193 220 255
194 221 255
195 221 255
197 222 255
197 223 255
198 223 255
199 223 255
200 224 255
200 224 255
201 224 255
202 225 255
202 225 255
202 225 255
203 225 255
203 226 255
204 226 255
204 226 255
204 226 255
205 226 255
205 226 255
205 227 255
205 227 255
206 227 255
206 227 255
206 227 255
206 227 255
206 227 255
207 227 255
207 228 255
207 228 255
207 228 255
207 228 255
207 228 255
208 228 255
208 228 255
208 228 255
208 228 255
208 228 255
208 228 255
208 228 255
208 228 255
209 228 255
209 229 255
209 229 255
209 229 255
209 229 255
209 229 255
209 229 255
209 229 255
209 229 255
209 229 255
209 229 255
209 229 255
209 229 255
209 229 255
209 229 255
209 229 255
210 229 255
210 229 255
210 229 255
210 229 255
210 229 255
210 229 255
210 229 255
210 229 255
210 229 255
210 229 255
210 229 255
210 229 255
210 229 255
210 229 255
210 229 255
210 229 255
210 229 255
210 229 255
210 229 255
210 229 255
210 229 255
210 229 255
210 229 255
210 229 255
210 229 255
210 229 255
210 229 255
210 229 255
210 229 255
210 229 255
210 229 255
210 229 255
210 229 255
210 229 255
210 229 255
210 229 255
210 229 255
210 229 255
210 229 255
210 229 255
210 229 255
210 229 255
210 229 255
210 229 255
210 229 255
209 229 255
209 229 255
209 229 255
209 229 255
209 229 255
209 229 255
209 229 255
209 229 255
209 229 255
209 229 255
209 229 255
209 229 255
209 229 255
209 229 255
209 229 255
209 229 255
209 229 255
209 229 255
209 229 255
209 229 255
209 228 255
208 228 255
208 228 255
152 173 0
151 171 0
150 170 0
152 173 0
153 174 0
151 171 0
151 172 0
151 171 0
149 169 0
149 169 0
151 171 0
151 171 0
153 173 0
150 170 0
154 174 0
153 173 0
149 169 0
152 172 0
150 169 0
150 170 0
150 170 0
150 170 0
150 169 0
151 170 0
150 170 0
147 167 0
149 169 0
150 170 0
147 167 0
150 170 0
146 166 0
145 165 0
150 170 0
148 167 0
146 166 0
148 168 0
145 164 0
148 168 0
148 168 0
149 168 0
146 167 0
147 166 0
147 167 0
146 165 0
147 166 0
146 165 0
146 166 0
145 165 0
142 161 0
144 163 0
145 165 0
145 165 0
143 163 0
147 167 0
143 162 0
147 166 0
142 160 0
143 162 0
142 161 0
143 163 0
145 163 0
145 164 0
142 161 0
145 163 0
142 161 0
140 159 0
144 163 0
140 159 0
142 160 0
139 158 0
142 161 0
139 157 0
142 161 0
137 155 0
138 156 0
134 152 0
137 155 0
140 158 0
134 153 0
142 161 0
136 154 0
129 148 0
136 155 0
133 151 0
134 152 0
139 157 0
133 150 0
130 148 0
140 158 0
135 152 0
132 149 0
128 145 0
128 145 0
131 149 0
126 144 0
130 148 0
126 143 0
123 140 0
124 141 0
127 144 0
122 139 0
124 142 0
124 139 0
127 144 0
125 142 0
120 135 0
124 140 0
110 126 0
110 126 0
121 137 0
120 135 0
115 131 0
115 130 0
119 135 0
113 128 0
107 122 0
112 126 0
107 123 0
97 111 0
104 117 0
102 116 25
122 133 92
139 151 108
159 170 142
147 163 88
142 160 0
145 163 0
143 161 0
139 157 0
149 168 0
135 152 0
144 164 0
144 162 0
134 152 0
142 161 0
139 157 0
141 160 0
139 158 0
138 156 0
142 162 0
133 151 0
130 149 0
137 156 0
144 163 0
131 149 0
121 140 0
132 151 0
139 159 0
129 147 0
129 148 0
143 163 0
127 146 0
127 146 0
138 157 0
140 159 0
133 153 0
134 154 0
133 151 0
128 148 0
126 143 0
125 145 0
120 138 0
125 143 0
123 142 0
121 139 0
124 143 0
122 141 0
117 136 0
124 143 0
120 139 0
105 123 0
95 113 50
46 71 62
45 72 56
47 75 58
48 78 69
48 76 80
49 78 74
47 76 60
49 77 80
49 78 86
49 78 78
48 77 80
50 80 97
51 81 86
53 84 76
52 82 86
52 83 84
51 82 78
51 81 84
51 81 78
51 82 76
50 80 86
53 85 97
51 81 88
55 87 92
53 85 95
51 81 80
52 83 90
50 80 88
53 83 94
49 79 82
51 82 88
54 86 90
52 83 90
54 86 80
55 87 84
51 82 92
54 86 84
53 85 86
52 83 88
52 83 82
55 87 92
51 81 76
52 82 95
53 85 92
53 84 99
50 80 72
51 82 80
51 81 78
54 85 95
51 82 78
50 80 86
53 84 90
52 83 76
49 79 84
52 82 80
49 79 74
104 125 47
119 138 0
127 146 0
131 151 0
127 146 0
128 148 0
137 157 0
143 163 0
131 152 0
146 165 0
144 165 0
138 159 0
143 163 0
151 172 0
148 170 0
143 164 0
155 177 0
156 177 0
154 175 0
146 168 0
150 171 0
157 179 0
155 177 0
156 177 0
148 170 0
157 179 0
154 176 0
162 185 0
159 183 0
160 183 0
161 183 0
161 184 0
162 185 0
160 182 0
159 183 0
157 180 0
161 184 0
166 190 0
158 182 0
161 184 0
165 189 0
161 185 0
161 184 0
163 187 0
162 187 0
162 186 0
166 189 0
177 202 159
190 218 250
193 220 255
195 221 255
196 222 255
197 222 255
198 223 255
198 223 255
199 223 255
200 224 255
200 224 255
201 224 255
201 225 255
202 225 255
202 225 255
203 225 255
203 225 255
203 226 255
204 226 255
204 226 255
204 226 255
205 226 255
205 226 255
205 227 255
205 227 255
206 227 255
206 227 255
206 227 255
206 227 255
206 227 255
206 227 255
207 227 255
207 228 255
207 228 255
207 228 255
207 228 255
207 228 255
208 228 255
208 228 255
208 228 255
208 228 255
208 228 255
208 228 255
208 228 255
208 228 255
208 228 255
208 228 255
208 228 255
209 228 255
209 229 255
209 229 255
209 229 255
209 229 255
209 229 255
209 229 255
209 229 255
209 229 255
209 229 255
209 229 255
209 229 255
209 229 255
209 229 255
209 229 255
209 229 255
209 229 255
209 229 255
209 229 255
209 229 255
209 229 255
209 229 255
209 229 255
209 229 255
209 229 255
209 229 255
209 229 255
209 229 255
209 229 255
209 229 255
209 229 255
209 229 255
209 229 255
209 229 255
209 229 255
209 229 255
209 229 255
209 229 255
209 229 255
209 229 255
209 229 255
209 229 255
209 229 255
209 229 255
209 229 255
209 229 255
209 229 255
209 229 255
209 229 255
209 229 255
209 229 255
209 229 255
209 229 255
209 229 255
209 229 255
209 229 255
209 229 255
209 229 255
209 229 255
209 229 255
209 229 255
209 229 255
209 229 255
209 229 255
209 229 255
209 228 255
208 228 255
208 228 255
208 228 255
208 228 255
208 228 255
208 228 255
208 228 255
208 228 255
208 228 255
208 228 255
208 228 255
150 171 0
153 172 0
152 173 0
153 174 0
151 171 0
152 171 0
149 169 0
151 171 0
151 171 0
148 167 0
151 171 0
150 170 0
149 168 0
150 170 0
150 171 0
148 167 0
151 171 0
150 170 0
147 167 0
151 172 0
150 169 0
150 170 0
147 167 0
147 167 0
150 171 0
146 165 0
150 170 0
147 167 0
149 168 0
150 169 0
148 167 0
148 167 0
148 166 0
145 164 0
143 162 0
147 167 0
148 167 0
150 169 0
148 167 0
144 164 0
146 165 0
146 164 0
145 164 0
147 167 0
142 162 0
151 169 0
148 167 0
143 162 0
146 165 0
144 164 0
146 165 0
146 165 0
147 166 0
143 162 0
143 163 0
142 161 0
143 163 0
145 165 0
143 162 0
138 157 0
143 162 0
146 164 0
140 159 0
141 160 0
140 158 0
141 161 0
134 153 0
142 161 0
137 154 0
138 156 0
137 156 0
145 165 0
138 156 0
138 155 0
138 156 0
140 157 0
132 149 0
137 156 0
143 161 0
132 150 0
141 159 0
137 155 0
132 149 0
136 153 0
140 158 0
134 152 0
133 150 0
136 153 0
132 149 0
135 152 0
133 150 0
129 146 0
130 148 0
124 141 0
129 146 0
128 145 0
118 135 0
128 145 0
118 135 0
122 139 0
125 142 0
122 138 0
112 128 0
122 138 0
120 138 0
115 130 0
118 133 0
120 136 0
116 131 0
116 131 0
111 127 0
115 130 0
115 130 0
106 120 0
112 128 0
112 126 0
106 120 0
111 125 25
105 118 0
130 143 92
133 145 95
133 145 99
153 166 117
146 162 57
134 150 0
147 165 0
132 149 0
139 157 0
138 155 0
134 151 0
140 158 0
130 147 0
131 149 0
141 159 0
138 156 0
127 143 0
129 147 0
128 146 0
142 160 0
133 151 0
139 156 0
137 156 0
131 151 0
136 156 0
130 149 0
141 160 0
122 140 0
124 142 0
137 157 0
129 148 0
141 160 0
130 148 0
121 139 0
128 147 0
130 148 0
124 143 0
122 140 0
125 143 0
119 136 0
130 149 0
117 136 0
122 140 0
130 148 0
123 141 0
110 129 0
104 123 0
123 141 0
105 122 0
127 144 0
111 128 0
104 121 0
97 112 0
94 111 25
72 91 47
46 74 70
45 73 62
43 70 67
43 70 57
49 78 80
50 79 84
48 76 74
45 73 68
48 77 72
48 77 84
49 79 60
50 79 78
51 82 72
52 82 80
50 80 72
49 79 74
51 81 90
50 81 64
48 77 72
50 80 74
50 80 72
51 81 84
49 79 76
51 81 76
50 79 76
51 81 80
50 80 80
51 80 80
52 83 88
51 82 78
50 79 74
54 85 95
51 82 90
52 83 90
49 79 72
54 85 95
49 79 62
49 78 72
50 81 78
52 83 88
52 83 90
53 84 90
52 82 72
50 81 72
52 83 84
52 82 84
49 78 65
52 82 80
51 81 76
51 81 80
53 84 90
49 79 74
80 103 70
121 140 31
123 141 0
120 139 0
132 151 0
120 140 0
129 149 0
129 149 0
137 156 0
130 150 0
136 157 0
145 165 0
144 164 0
141 162 0
137 157 0
134 155 0
143 164 0
146 166 0
146 167 0
149 170 0
148 170 0
153 174 0
149 171 0
149 171 0
152 174 0
154 177 0
157 179 0
159 182 0
157 180 0
148 170 0
156 179 0
158 181 0
156 178 0
159 181 0
165 187 0
154 177 0
159 182 0
168 191 0
160 183 0
160 183 0
161 185 0
165 189 0
161 185 0
164 187 0
161 185 0
163 186 0
166 191 0
161 185 0
168 192 0
162 186 0
172 197 105
183 211 230
192 219 255
193 220 255
195 221 255
196 222 255
197 222 255
197 223 255
198 223 255
199 223 255
200 224 255
200 224 255
201 224 255
201 224 255
201 225 255
202 225 255
202 225 255
203 225 255
203 225 255
203 226 255
204 226 255
204 226 255
204 226 255
205 226 255
205 226 255
205 227 255
205 227 255
205 227 255
206 227 255
206 227 255
206 227 255
206 227 255
206 227 255
206 227 255
207 227 255
207 227 255
207 228 255
207 228 255
207 228 255
207 228 255
207 228 255
207 228 255
207 228 255
208 228 255
208 228 255
208 228 255
208 228 255
208 228 255
208 228 255
208 228 255
208 228 255
208 228 255
208 228 255
208 228 255
208 228 255
208 228 255
209 228 255
209 228 255
209 229 255
209 229 255
209 229 255
209 229 255
209 229 255
209 229 255
209 229 255
209 229 255
209 229 255
209 229 255
209 229 255
209 229 255
209 229 255
209 229 255
209 229 255
209 229 255
209 229 255
209 229 255
209 229 255
209 229 255
209 229 255
209 229 255
209 229 255
209 229 255
209 229 255
209 229 255
209 229 255
209 229 255
209 229 255
209 229 255
209 229 255
209 229 255
209 229 255
209 229 255
209 229 255
209 229 255
209 229 255
209 229 255
209 229 255
209 229 255
209 229 255
209 229 255
209 229 255
209 228 255
209 228 255
208 228 255
208 228 255
208 228 255
208 228 255
208 228 255
208 228 255
208 228 255
208 228 255
208 228 255
208 228 255
208 228 255
208 228 255
208 228 255
208 228 255
208 228 255
208 228 255
208 228 255
208 228 255
207 228 255
207 228 255
207 228 255
153 173 0
153 173 0
151 170 0
151 171 0
151 171 0
151 172 0
152 171 0
151 171 0
151 171 0
151 170 0
149 170 0
149 170 0
151 171 0
148 168 0
151 171 0
151 171 0
146 165 0
152 172 0
149 168 0
146 165 0
150 170 0
151 170 0
146 166 0
151 170 0
150 170 0
150 169 0
149 169 0
146 166 0
143 163 0
150 169 0
150 170 0
149 168 0
147 166 0
148 168 0
149 169 0
149 167 0
149 168 0
149 168 0
144 164 0
147 166 0
143 162 0
147 166 0
143 163 0
146 166 0
144 163 0
147 166 0
149 168 0
145 163 0
148 168 0
146 165 0
143 163 0
144 162 0
142 161 0
147 166 0
143 162 0
144 162 0
143 161 0
140 160 0
144 163 0
143 161 0
144 163 0
140 159 0
140 158 0
140 159 0
139 158 0
145 163 0
143 162 0
139 158 0
140 158 0
144 161 0
141 159 0
139 158 0
139 158 0
141 159 0
138 156 0
137 156 0
132 150 0
135 153 0
137 155 0
138 157 0
136 154 0
137 155 0
139 156 0
131 147 0
133 150 0
129 147 0
134 152 0
126 143 0
127 144 0
129 146 0
127 144 0
121 138 0
129 146 0
130 147 0
124 140 0
124 140 0
122 139 0
122 139 0
117 133 0
121 137 0
124 140 0
113 129 0
118 133 0
119 135 0
126 143 0
116 132 0
121 137 0
111 126 0
110 124 0
113 128 0
112 127 0
112 127 0
114 129 0
106 120 0
112 125 0
104 118 0
107 121 0
115 128 51
128 140 88
137 148 108
150 160 133
151 163 114
138 155 0
136 151 0
140 158 0
137 153 0
135 152 0
130 147 0
125 142 0
130 147 0
127 144 0
131 147 0
138 157 0
139 156 0
139 156 0
117 135 0
137 155 0
130 148 0
131 148 0
138 156 0
137 155 0
144 163 0
141 158 0
138 157 0
133 151 0
130 149 0
138 157 0
126 145 0
128 146 0
126 143 0
134 153 0
115 133 0
129 147 0
126 145 0
129 147 0
123 142 0
127 145 0
129 147 0
119 138 0
119 137 0
124 142 0
112 129 0
123 140 0
123 140 0
125 142 0
117 134 0
120 136 0
114 131 0
111 128 0
114 131 0
100 116 0
105 122 0
94 109 0
90 106 0
79 97 40
48 72 57
46 73 67
46 74 56
46 73 66
47 76 76
45 73 67
48 76 70
48 77 76
46 74 62
47 76 78
51 81 76
52 83 84
50 79 80
48 77 70
49 77 82
53 83 90
51 82 70
50 79 74
49 78 80
51 82 84
51 82 82
52 83 90
52 83 88
51 82 70
50 80 78
52 83 76
51 81 86
52 83 80
47 76 72
50 80 90
52 83 80
50 80 80
51 81 84
54 85 92
54 85 90
49 79 76
54 86 90
53 83 84
49 78 84
52 83 84
50 80 76
51 81 78
51 81 92
50 80 70
49 78 72
50 79 90
51 81 97
50 81 70
47 77 76
72 96 70
95 114 36
121 138 0
110 127 0
124 142 0
113 131 0
119 138 0
130 149 0
118 136 0
125 145 0
125 145 0
141 161 0
136 156 0
132 151 0
148 168 0
143 164 0
140 159 0
135 156 0
151 172 0
143 165 0
143 164 0
133 154 0
148 170 0
157 178 0
142 163 0
156 177 0
141 162 0
148 169 0
152 175 0
161 184 0
155 178 0
148 170 0
151 174 0
152 174 0
159 182 0
162 184 0
156 180 0
157 179 0
155 178 0
160 183 0
159 182 0
164 187 0
158 182 0
161 184 0
156 179 0
164 188 0
159 182 0
165 190 0
167 191 0
164 188 0
162 186 0
165 189 0
163 188 0
165 189 36
177 203 177
190 219 254
192 220 255
194 221 255
195 221 255
196 222 255
197 222 255
197 222 255
198 223 255
199 223 255
199 223 255
200 224 255
200 224 255
201 224 255
201 225 255
202 225 255
202 225 255
202 225 255
203 225 255
203 225 255
203 226 255
204 226 255
204 226 255
204 226 255
204 226 255
205 226 255
205 226 255
205 227 255
205 227 255
205 227 255
206 227 255
206 227 255
206 227 255
206 227 255
206 227 255
206 227 255
206 227 255
207 227 255
207 227 255
207 228 255
207 228 255
207 228 255
207 228 255
207 228 255
207 228 255
207 228 255
207 228 255
208 228 255
208 228 255
208 228 255
208 228 255
208 228 255
208 228 255
208 228 255
208 228 255
208 228 255
208 228 255
208 228 255
208 228 255
208 228 255
208 228 255
208 228 255
208 228 255
208 228 255
208 228 255
208 228 255
208 228 255
208 228 255
208 228 255
208 228 255
208 228 255
208 228 255
208 228 255
208 228 255
208 228 255
208 228 255
208 228 255
208 228 255
208 228 255
208 228 255
208 228 255
208 228 255
208 228 255
208 228 255
208 228 255
208 228 255
208 228 255
208 228 255
208 228 255
208 228 255
208 228 255
208 228 255
208 228 255
208 228 255
208 228 255
208 228 255
208 228 255
208 228 255
208 228 255
208 228 255
208 228 255
208 228 255
208 228 255
208 228 255
208 228 255
208 228 255
208 228 255
208 228 255
208 228 255
208 228 255
208 228 255
207 228 255
207 228 255
207 228 255
207 228 255
207 228 255
207 228 255
207 228 255
207 228 255
207 228 255
207 228 255
207 228 255
151 171 0
152 173 0
149 169 0
152 171 0
150 170 0
152 172 0
152 172 0
151 170 0
151 171 0
148 167 0
148 167 0
153 172 0
148 168 0
150 169 0
151 170 0
148 168 0
153 172 0
151 171 0
150 170 0
146 166 0
151 171 0
149 168 0
149 168 0
148 168 0
148 168 0
150 169 0
150 168 0
151 170 0
149 168 0
148 168 0
148 168 0
144 163 0
148 168 0
146 165 0
146 165 0
147 167 0
145 164 0
143 162 0
150 169 0
146 165 0
146 165 0
146 165 0
145 163 0
146 165 0
145 164 0
143 161 0
145 164 0
144 162 0
144 163 0
143 161 0
141 159 0
141 159 0
142 161 0
142 160 0
146 164 0
149 168 0
146 165 0
141 160 0
142 161 0
138 157 0
139 158 0
137 156 0
138 158 0
138 157 0
141 160 0
142 161 0
140 158 0
137 154 0
139 158 0
134 152 0
138 156 0
136 155 0
141 158 0
137 155 0
138 156 0
136 153 0
134 152 0
132 150 0
143 160 0
130 148 0
134 153 0
143 161 0
134 151 0
136 154 0
122 139 0
128 146 0
130 148 0
134 151 0
128 145 0
133 150 0
128 145 0
126 142 0
128 144 0
125 140 0
123 141 0
130 146 0
127 143 0
128 145 0
128 144 0
115 131 0
119 134 0
122 138 0
122 138 0
121 136 0
111 126 0
113 128 0
117 131 0
122 138 0
120 135 0
114 128 0
116 131 0
114 128 0
103 117 0
101 116 0
114 128 0
110 124 44
115 128 51
131 144 88
148 159 130
163 174 144
137 152 62
136 152 0
132 149 0
129 145 0
141 157 0
129 146 0
136 153 0
136 152 0
131 148 0
134 151 0
122 138 0
127 143 0
126 144 0
140 157 0
133 149 0
128 146 0
134 151 0
134 151 0
131 148 0
140 158 0
129 146 0
132 149 0
124 142 0
126 144 0
119 137 0
124 142 0
130 147 0
132 150 0
129 146 0
128 146 0
129 148 0
126 145 0
126 145 0
110 129 0
136 154 0
124 142 0
117 134 0
130 147 0
114 132 0
126 143 0
119 137 0
109 127 0
117 135 0
113 130 0
110 128 0
103 120 0
104 122 0
109 125 0
106 123 0
107 124 0
91 108 0
103 119 0
90 105 0
101 116 0
97 112 0
97 112 0
70 89 36
49 73 36
43 70 51
47 75 67
48 76 67
47 75 65
47 75 54
47 76 70
48 76 70
48 77 65
50 79 76
50 79 76
49 78 78
48 76 76
50 79 65
50 80 76
48 77 82
51 81 90
49 79 80
48 76 72
51 80 86
52 84 84
50 81 74
52 83 88
51 82 80
50 80 78
52 82 94
49 79 78
48 78 65
52 83 84
50 80 78
53 84 82
44 72 60
49 78 70
50 80 78
52 83 76
53 84 82
47 76 65
51 81 74
49 79 82
48 77 67
44 71 62
50 80 84
49 78 74
47 75 62
45 72 72
60 84 62
86 106 54
99 116 0
113 130 0
121 139 0
113 130 0
120 139 0
114 133 0
114 132 0
135 154 0
125 144 0
123 143 0
137 157 0
129 148 0
129 149 0
128 147 0
127 148 0
133 153 0
134 154 0
137 157 0
134 154 0
144 165 0
146 167 0
142 164 0
149 170 0
138 158 0
152 173 0
151 173 0
145 167 0
156 179 0
150 173 0
157 179 0
157 180 0
158 181 0
145 167 0
158 181 0
150 173 0
154 177 0
161 184 0
154 177 0
154 177 0
159 181 0
162 185 0
155 178 0
161 185 0
165 189 0
162 186 0
160 184 0
163 187 0
162 187 0
158 183 0
160 184 0
160 184 0
167 192 0
169 193 0
165 189 0
163 188 0
171 197 130
185 213 226
191 219 255
193 220 255
194 220 255
195 221 255
196 222 255
196 222 255
197 222 255
198 223 255
198 223 255
199 223 255
200 224 255
200 224 255
201 224 255
201 224 255
201 225 255
202 225 255
202 225 255
202 225 255
203 225 255
203 225 255
203 226 255
203 226 255
204 226 255
204 226 255
204 226 255
204 226 255
205 226 255
205 226 255
205 227 255
205 227 255
205 227 255
205 227 255
206 227 255
206 227 255
206 227 255
206 227 255
206 227 255
206 227 255
206 227 255
206 227 255
207 227 255
207 227 255
207 227 255
207 228 255
207 228 255
207 228 255
207 228 255
207 228 255
207 228 255
207 228 255
207 228 255
207 228 255
207 228 255
208 228 255
208 228 255
208 228 255
208 228 255
208 228 255
208 228 255
208 228 255
208 228 255
208 228 255
208 228 255
208 228 255
208 228 255
208 228 255
208 228 255
208 228 255
208 228 255
208 228 255
208 228 255
208 228 255
208 228 255
208 228 255
208 228 255
208 228 255
208 228 255
208 228 255
208 228 255
208 228 255
208 228 255
208 228 255
208 228 255
208 228 255
208 228 255
208 228 255
208 228 255
208 228 255
208 228 255
208 228 255
208 228 255
208 228 255
208 228 255
208 228 255
208 228 255
208 228 255
208 228 255
207 228 255
207 228 255
207 228 255
207 228 255
207 228 255
207 228 255
207 228 255
207 228 255
207 228 255
207 228 255
207 228 255
207 228 255
207 228 255
207 228 255
207 228 255
207 227 255
207 227 255
207 227 255
206 227 255
206 227 255
206 227 255
206 227 255
154 174 0
152 171 0
154 173 0
153 174 0
152 171 0
153 173 0
153 172 0
151 171 0
151 171 0
151 171 0
152 172 0
150 170 0
148 168 0
151 170 0
151 170 0
149 169 0
149 169 0
147 167 0
151 171 0
151 171 0
149 169 0
152 170 0
149 167 0
144 164 0
152 171 0
150 169 0
147 167 0
150 168 0
149 169 0
147 167 0
145 164 0
150 168 0
151 171 0
146 166 0
147 166 0
147 166 0
147 165 0
146 165 0
147 166 0
145 165 0
151 170 0
146 165 0
144 164 0
146 165 0
148 167 0
145 164 0
139 157 0
143 162 0
147 166 0
142 161 0
147 166 0
143 162 0
142 161 0
143 163 0
145 164 0
143 161 0
144 164 0
148 167 0
142 162 0
139 157 0
141 159 0
141 159 0
144 162 0
137 156 0
144 162 0
144 163 0
137 155 0
142 160 0
140 158 0
143 161 0
142 160 0
136 154 0
137 155 0
134 151 0
141 159 0
135 153 0
138 155 0
125 142 0
129 146 0
137 155 0
133 150 0
135 152 0
128 145 0
134 152 0
129 145 0
123 140 0
133 150 0
124 140 0
132 150 0
136 154 0
128 146 0
139 156 0
126 143 0
122 137 0
125 141 0
130 146 0
131 148 0
132 148 0
124 138 0
126 142 0
122 138 0
122 138 0
110 124 0
111 125 0
114 129 0
115 130 0
119 134 0
112 127 0
117 132 0
119 133 0
111 125 0
118 132 0
110 124 0
117 130 51
117 129 72
124 134 84
142 154 111
152 163 135
153 166 111
138 153 36
130 145 0
128 144 0
135 150 0
131 147 0
133 149 0
126 141 0
126 143 0
137 152 0
126 142 0
125 142 0
120 136 0
126 144 0
126 142 0
128 144 0
127 144 0
117 133 0
138 155 0
115 132 0
135 153 0
126 144 0
134 153 0
120 138 0
125 142 0
124 143 0
130 148 0
117 134 0
128 146 0
130 147 0
125 143 0
135 153 0
116 133 0
130 148 0
121 139 0
118 135 0
123 141 0
120 137 0
112 130 0
124 142 0
124 142 0
119 137 0
118 136 0
120 137 0
112 129 0
111 129 0
111 127 0
113 128 0
110 127 0
107 124 0
97 113 0
99 116 0
98 113 0
101 117 0
99 116 0
95 110 0
87 101 0
98 113 0
100 115 0
87 101 0
83 98 0
48 71 54
44 71 57
45 72 51
44 71 76
46 74 51
49 79 74
48 77 65
48 76 74
46 73 62
48 77 60
46 74 57
46 74 80
42 68 60
49 78 76
44 72 65
48 78 76
48 77 80
48 77 71
49 78 82
45 72 70
47 75 67
47 76 62
48 77 70
51 81 76
52 82 76
50 80 90
49 79 72
43 69 70
48 78 60
47 75 51
50 80 86
47 76 67
44 71 62
50 79 67
46 74 62
48 78 65
47 75 76
48 77 65
47 76 67
44 72 65
47 76 60
57 81 51
82 99 40
97 113 0
108 124 0
108 123 0
114 132 0
105 122 0
127 146 0
125 144 0
118 136 0
118 136 0
116 134 0
126 143 0
127 146 0
127 146 0
131 150 0
131 151 0
126 147 0
134 154 0
138 158 0
139 159 0
143 163 0
139 158 0
150 170 0
138 160 0
136 156 0
144 165 0
147 169 0
144 166 0
151 172 0
154 175 0
149 171 0
149 171 0
140 162 0
154 176 0
158 179 0
150 173 0
158 180 0
151 173 0
154 177 0
153 175 0
157 180 0
154 178 0
157 180 0
157 179 0
157 181 0
156 180 0
159 183 0
159 181 0
160 184 0
162 186 0
160 185 0
165 190 0
160 185 0
162 186 0
160 184 0
162 187 0
160 185 0
164 189 0
162 187 0
162 186 25
173 201 179
189 218 254
191 219 255
193 220 255
194 220 255
195 221 255
195 221 255
196 222 255
197 222 255
198 223 255
198 223 255
199 223 255
199 223 255
200 224 255
200 224 255
201 224 255
201 224 255
201 225 255
202 225 255
202 225 255
202 225 255
203 225 255
203 225 255
203 226 255
203 226 255
203 226 255
204 226 255
204 226 255
204 226 255
204 226 255
205 226 255
205 226 255
205 226 255
205 227 255
205 227 255
205 227 255
205 227 255
206 227 255
206 227 255
206 227 255
206 227 255
206 227 255
206 227 255
206 227 255
206 227 255
206 227 255
206 227 255
207 227 255
207 227 255
207 227 255
207 227 255
207 228 255
207 228 255
207 228 255
207 228 255
207 228 255
207 228 255
207 228 255
207 228 255
207 228 255
207 228 255
207 228 255
207 228 255
207 228 255
207 228 255
207 228 255
207 228 255
207 228 255
207 228 255
207 228 255
207 228 255
207 228 255
207 228 255
207 228 255
207 228 255
207 228 255
207 228 255
207 228 255
207 228 255
207 228 255
207 228 255
207 228 255
207 228 255
207 228 255
207 228 255
207 228 255
207 228 255
207 228 255
207 228 255
207 228 255
207 228 255
207 228 255
207 228 255
207 228 255
207 228 255
207 228 255
207 228 255
207 228 255
207 228 255
207 228 255
207 228 255
207 227 255
207 227 255
207 227 255
207 227 255
207 227 255
206 227 255
206 227 255
206 227 255
206 227 255
206 227 255
206 227 255
206 227 255
206 227 255
206 227 255
206 227 255
206 227 255
206 227 255
206 227 255
152 172 0
150 169 0
155 174 0
151 171 0
152 172 0
149 169 0
152 172 0
150 170 0
151 170 0
150 170 0
150 170 0
147 166 0
151 171 0
151 170 0
150 170 0
150 169 0
148 168 0
151 170 0
148 166 0
151 170 0
153 172 0
148 166 0
148 168 0
149 168 0
152 172 0
147 166 0
147 167 0
149 169 0
148 166 0
148 168 0
146 165 0
147 166 0
145 164 0
147 167 0
144 163 0
152 171 0
145 163 0
144 164 0
145 164 0
142 160 0
145 164 0
142 161 0
144 162 0
142 160 0
147 165 0
148 166 0
145 163 0
148 166 0
142 161 0
145 164 0
141 159 0
144 163 0
144 163 0
139 157 0
141 159 0
144 163 0
142 161 0
147 165 0
143 162 0
145 163 0
135 152 0
141 159 0
140 157 0
137 155 0
140 159 0
142 160 0
135 153 0
144 162 0
136 154 0
134 152 0
138 155 0
141 159 0
138 155 0
141 158 0
142 160 0
133 152 0
137 155 0
137 155 0
137 154 0
125 142 0
123 139 0
132 150 0
132 149 0
137 154 0
137 153 0
125 141 0
137 154 0
122 139 0
132 148 0
139 156 0
124 141 0
127 142 0
133 150 0
129 146 0
119 135 0
125 141 0
118 133 0
119 134 0
122 138 0
120 135 0
123 139 0
120 135 0
116 131 0
110 125 0
113 128 0
113 127 0
113 127 0
112 126 0
113 127 0
106 120 0
106 119 0
120 134 36
110 122 57
122 135 80
136 146 105
152 162 135
141 152 111
134 148 67
122 137 0
131 145 0
118 133 0
131 146 0
127 142 0
123 138 0
118 133 0
128 144 0
128 144 0
127 142 0
127 142 0
124 139 0
124 140 0
128 145 0
131 147 0
132 149 0
126 143 0
122 138 0
122 139 0
118 136 0
115 132 0
132 150 0
130 148 0
129 147 0
121 137 0
126 144 0
126 144 0
118 135 0
120 139 0
132 150 0
123 141 0
128 145 0
124 143 0
126 144 0
115 132 0
127 145 0
120 138 0
122 140 0
120 139 0
126 143 0
128 146 0
111 128 0
115 133 0
116 133 0
124 142 0
114 131 0
101 118 0
115 132 0
115 132 0
107 124 0
110 126 0
100 116 0
102 118 0
108 124 0
92 108 0
94 107 0
89 104 0
83 97 0
85 98 0
94 108 0
74 87 0
78 92 0
69 83 18
58 75 44
49 73 51
43 70 62
44 72 51
46 74 51
48 76 78
46 73 78
46 75 62
47 76 67
47 75 72
47 75 76
47 75 76
47 76 69
48 76 82
48 77 62
47 75 70
47 76 72
47 75 72
47 75 76
45 72 67
47 75 74
48 77 72
49 79 78
48 77 72
51 81 80
49 78 62
46 73 54
48 77 65
46 75 62
47 76 70
48 78 62
48 77 78
45 73 62
47 76 70
48 76 70
47 76 78
43 68 67
68 88 31
92 108 25
95 111 0
108 123 0
76 91 0
105 122 0
108 125 0
105 122 0
117 136 0
114 131 0
102 121 0
114 133 0
106 123 0
128 146 0
140 159 0
131 149 0
121 139 0
130 150 0
128 148 0
131 151 0
141 161 0
136 155 0
134 154 0
144 164 0
148 169 0
143 164 0
143 164 0
140 161 0
148 169 0
139 160 0
149 170 0
145 166 0
151 172 0
151 174 0
155 177 0
148 170 0
149 172 0
152 175 0
155 178 0
152 174 0
156 179 0
156 177 0
155 177 0
154 177 0
159 182 0
151 174 0
156 179 0
153 177 0
158 182 0
155 178 0
149 173 0
154 177 0
164 189 0
160 184 0
160 185 0
160 185 0
153 178 0
163 188 0
164 189 0
161 187 0
160 186 0
158 184 0
165 191 0
165 191 0
167 193 92
183 212 230
189 218 255
191 219 255
192 220 255
193 220 255
194 221 255
195 221 255
196 222 255
197 222 255
197 222 255
198 223 255
198 223 255
199 223 255
199 223 255
200 224 255
200 224 255
200 224 255
201 224 255
201 224 255
201 225 255
202 225 255
202 225 255
202 225 255
203 225 255
203 225 255
203 226 255
203 226 255
204 226 255
204 226 255
204 226 255
204 226 255
204 226 255
204 226 255
205 226 255
205 226 255
205 226 255
205 227 255
205 227 255
205 227 255
205 227 255
205 227 255
206 227 255
206 227 255
206 227 255
206 227 255
206 227 255
206 227 255
206 227 255
206 227 255
206 227 255
206 227 255
206 227 255
206 227 255
206 227 255
206 227 255
207 227 255
207 227 255
207 227 255
207 227 255
207 227 255
207 227 255
207 227 255
207 228 255
207 228 255
207 228 255
207 228 255
207 228 255
207 228 255
207 228 255
207 228 255
207 228 255
207 228 255
207 228 255
207 228 255
207 228 255
207 228 255
207 228 255
207 228 255
207 228 255
207 228 255
207 228 255
207 228 255
207 228 255
207 228 255
207 228 255
207 228 255
207 227 255
207 227 255
207 227 255
207 227 255
207 227 255
207 227 255
207 227 255
206 227 255
206 227 255
206 227 255
206 227 255
206 227 255
206 227 255
206 227 255
206 227 255
206 227 255
206 227 255
206 227 255
206 227 255
206 227 255
206 227 255
206 227 255
206 227 255
206 227 255
205 227 255
205 227 255
205 227 255
205 227 255
205 227 255
205 227 255
205 226 255
152 172 0
151 171 0
151 170 0
149 168 0
152 172 0
151 170 0
152 172 0
151 170 0
150 170 0
150 170 0
150 170 0
149 168 0
150 170 0
149 168 0
149 168 0
149 169 0
150 169 0
149 168 0
151 170 0
146 165 0
145 165 0
150 169 0
150 170 0
148 167 0
149 168 0
148 167 0
147 166 0
150 169 0
146 164 0
149 168 0
146 165 0
147 166 0
149 168 0
148 167 0
145 164 0
144 164 0
151 171 0
143 162 0
143 162 0
145 164 0
143 160 0
142 161 0
144 163 0
141 160 0
147 166 0
142 160 0
145 163 0
144 162 0
138 156 0
143 162 0
145 163 0
142 160 0
142 160 0
140 158 0
141 160 0
144 162 0
139 157 0
144 162 0
143 161 0
142 159 0
140 159 0
145 164 0
140 159 0
134 152 0
136 154 0
139 157 0
139 157 0
134 151 0
141 159 0
141 159 0
136 154 0
140 158 0
137 154 0
132 149 0
137 154 0
140 158 0
130 147 0
137 154 0
135 153 0
132 149 0
124 140 0
135 153 0
132 148 0
127 143 0
129 147 0
130 146 0
132 149 0
129 145 0
133 149 0
128 144 0
125 141 0
122 137 0
127 143 0
127 143 0
126 142 0
112 127 0
111 126 0
113 128 0
133 148 0
114 128 0
121 135 0
117 132 0
122 137 0
113 128 0
119 133 0
113 128 0
105 119 0
113 127 0
105 118 0
108 122 25
125 137 80
122 134 76
132 144 95
158 168 144
154 164 140
127 139 67
125 139 0
128 142 0
123 137 0
133 147 0
123 137 0
119 134 0
124 139 0
127 141 0
121 136 0
122 138 0
127 143 0
119 135 0
135 152 0
130 145 0
121 137 0
129 145 0
123 139 0
129 145 0
119 135 0
118 135 0
127 144 0
116 133 0
120 136 0
128 146 0
123 139 0
122 140 0
112 128 0
123 140 0
124 142 0
120 137 0
125 142 0
107 124 0
122 139 0
120 137 0
123 139 0
115 132 0
124 142 0
108 124 0
113 130 0
111 128 0
122 140 0
112 129 0
114 131 0
104 121 0
113 131 0
100 117 0
102 119 0
121 138 0
100 116 0
101 118 0
108 123 0
108 126 0
91 106 0
111 127 0
100 117 0
92 108 0
92 108 0
95 109 0
80 93 0
72 86 0
81 96 0
79 93 0
74 86 0
86 99 0
76 89 0
71 83 0
73 86 0
54 69 36
58 77 36
37 60 54
42 68 54
38 62 51
44 71 72
46 73 70
42 67 54
42 68 54
43 70 57
46 75 72
50 80 80
44 72 47
47 76 67
45 72 62
47 76 60
42 68 60
43 70 54
47 75 74
46 75 70
48 76 74
48 76 74
47 76 70
44 72 54
46 74 57
43 70 62
47 74 80
50 79 74
44 71 54
46 74 57
42 68 51
40 65 57
49 71 54
56 73 36
78 91 0
71 84 0
86 101 0
103 119 0
86 101 0
90 106 0
101 116 0
108 125 0
102 118 0
105 122 0
111 127 0
110 129 0
126 143 0
113 132 0
110 128 0
123 141 0
128 146 0
127 146 0
126 146 0
136 155 0
141 161 0
136 156 0
132 151 0
134 154 0
139 159 0
139 159 0
147 167 0
131 152 0
146 167 0
144 165 0
139 160 0
141 163 0
154 176 0
149 171 0
149 171 0
158 180 0
141 163 0
154 176 0
150 172 0
153 176 0
152 174 0
148 171 0
154 177 0
154 177 0
151 175 0
157 180 0
162 186 0
157 181 0
154 177 0
148 171 0
159 182 0
156 180 0
158 182 0
160 183 0
164 189 0
163 187 0
163 188 0
162 187 0
165 190 0
160 185 0
160 185 0
161 186 0
166 191 0
162 188 0
161 187 0
166 192 0
164 190 0
170 197 122
183 212 236
189 218 255
191 219 255
192 220 255
193 220 255
194 221 255
195 221 255
196 221 255
196 222 255
197 222 255
197 222 255
198 223 255
198 223 255
199 223 255
199 223 255
200 224 255
200 224 255
200 224 255
201 224 255
201 224 255
201 225 255
202 225 255
202 225 255
202 225 255
202 225 255
203 225 255
203 225 255
203 225 255
203 226 255
203 226 255
204 226 255
204 226 255
204 226 255
204 226 255
204 226 255
204 226 255
204 226 255
205 226 255
205 226 255
205 226 255
205 226 255
205 227 255
205 227 255
205 227 255
205 227 255
205 227 255
205 227 255
205 227 255
206 227 255
206 227 255
206 227 255
206 227 255
206 227 255
206 227 255
206 227 255
206 227 255
206 227 255
206 227 255
206 227 255
206 227 255
206 227 255
206 227 255
206 227 255
206 227 255
206 227 255
206 227 255
206 227 255
206 227 255
206 227 255
206 227 255
206 227 255
206 227 255
206 227 255
206 227 255
206 227 255
206 227 255
206 227 255
206 227 255
206 227 255
206 227 255
206 227 255
206 227 255
206 227 255
206 227 255
206 227 255
206 227 255
206 227 255
206 227 255
206 227 255
206 227 255
206 227 255
206 227 255
206 227 255
206 227 255
206 227 255
206 227 255
206 227 255
206 227 255
206 227 255
205 227 255
205 227 255
205 227 255
205 227 255
205 227 255
205 227 255
205 227 255
205 227 255
205 226 255
205 226 255
205 226 255
205 226 255
205 226 255
204 226 255
204 226 255
204 226 255
151 170 36
151 170 25
151 171 0
150 171 0
151 172 0
150 169 0
150 169 0
151 169 0
148 168 0
151 170 0
149 168 0
148 168 0
147 167 0
149 168 0
150 169 0
150 169 0
153 172 0
149 169 0
149 168 0
148 167 0
151 171 0
148 168 0
147 166 0
148 167 0
149 168 0
146 164 0
148 167 0
147 166 0
148 167 0
146 166 0
145 164 0
148 167 0
148 167 0
147 166 0
147 166 0
148 167 0
142 160 0
147 166 0
148 166 0
146 165 0
145 163 0
143 161 0
143 162 0
146 164 0
140 158 0
144 162 0
142 160 0
142 160 0
142 161 0
147 165 0
146 164 0
145 164 0
142 159 0
140 158 0
142 160 0
138 157 0
138 156 0
142 161 0
142 159 0
143 161 0
144 163 0
135 153 0
141 158 0
137 154 0
135 153 0
139 156 0
136 154 0
138 157 0
131 149 0
137 154 0
134 151 0
143 161 0
130 148 0
131 148 0
137 154 0
134 152 0
132 150 0
143 159 0
128 144 0
129 145 0
128 145 0
133 149 0
126 143 0
133 149 0
124 140 0
131 147 0
128 144 0
127 144 0
126 141 0
122 138 0
114 129 0
135 151 0
126 142 0
130 146 0
124 139 0
125 140 0
118 133 0
128 142 0
121 136 0
112 126 0
115 129 0
115 130 0
120 133 0
119 134 0
119 133 0
111 125 0
109 123 0
109 122 25
118 130 67
116 128 62
133 144 99
143 153 120
141 151 120
130 140 105
114 126 25
117 131 0
110 123 0
121 136 0
123 137 0
120 134 0
116 131 0
124 139 0
128 143 0
110 125 0
123 138 0
122 137 0
112 127 0
126 142 0
123 138 0
125 141 0
131 147 0
127 143 0
122 138 0
114 131 0
127 144 0
127 143 0
121 137 0
126 143 0
123 141 0
130 148 0
131 149 0
126 142 0
126 143 0
125 142 0
119 136 0
125 142 0
129 147 0
122 140 0
129 147 0
117 133 0
124 140 0
117 134 0
125 144 0
114 131 0
121 138 0
117 134 0
115 133 0
119 137 0
115 132 0
111 128 0
109 126 0
106 123 0
119 136 0
105 121 0
98 116 0
110 127 0
95 111 0
103 120 0
96 112 0
99 116 0
92 108 0
94 108 0
103 118 0
89 106 0
101 116 0
83 97 0
91 105 0
85 99 0
83 96 0
82 97 0
78 90 0
71 84 0
48 60 0
77 89 0
71 83 0
61 73 0
64 75 0
48 67 54
42 60 47
41 66 44
42 67 57
45 72 74
38 62 54
40 65 51
43 69 57
43 70 62
46 73 80
42 68 57
41 66 67
44 70 54
41 67 60
43 69 76
45 72 65
44 70 70
43 69 54
44 70 62
43 70 57
41 67 62
42 68 72
44 71 60
42 68 54
45 66 54
54 75 57
55 69 0
76 89 0
63 75 0
73 87 0
90 104 0
93 107 0
79 94 0
92 106 0
92 108 0
97 113 0
104 120 0
98 113 0
95 112 0
106 124 0
118 137 0
117 135 0
125 143 0
128 146 0
123 141 0
128 146 0
104 121 0
119 137 0
123 142 0
130 149 0
121 140 0
126 145 0
129 149 0
128 147 0
144 163 0
138 157 0
134 155 0
145 166 0
140 161 0
146 167 0
148 169 0
156 177 0
144 166 0
139 159 0
146 166 0
148 170 0
144 167 0
150 173 0
152 174 0
157 179 0
153 175 0
148 170 0
148 171 0
148 170 0
155 178 0
155 178 0
157 180 0
157 181 0
155 179 0
159 183 0
156 179 0
156 180 0
154 179 0
153 177 0
165 189 0
161 185 0
161 184 0
164 189 0
160 185 0
155 180 0
163 189 0
160 186 0
156 183 0
159 184 0
161 188 0
162 188 0
165 191 0
161 187 0
161 189 25
174 203 167
186 215 244
189 218 255
191 219 255
192 220 255
193 220 255
194 220 255
194 221 255
195 221 255
196 222 255
196 222 255
197 222 255
197 223 255
198 223 255
198 223 255
199 223 255
199 223 255
200 224 255
200 224 255
200 224 255
201 224 255
201 224 255
201 224 255
201 225 255
202 225 255
202 225 255
202 225 255
202 225 255
202 225 255
203 225 255
203 225 255
203 225 255
203 226 255
203 226 255
204 226 255
204 226 255
204 226 255
204 226 255
204 226 255
204 226 255
204 226 255
204 226 255
204 226 255
205 226 255
205 226 255
205 226 255
205 226 255
205 226 255
205 227 255
205 227 255
205 227 255
205 227 255
205 227 255
205 227 255
205 227 255
205 227 255
205 227 255
205 227 255
205 227 255
206 227 255
206 227 255
206 227 255
206 227 255
206 227 255
206 227 255
206 227 255
206 227 255
206 227 255
206 227 255
206 227 255
206 227 255
206 227 255
206 227 255
206 227 255
206 227 255
206 227 255
206 227 255
206 227 255
206 227 255
206 227 255
206 227 255
206 227 255
206 227 255
206 227 255
206 227 255
205 227 255
205 227 255
205 227 255
205 227 255
205 227 255
205 227 255
205 227 255
205 227 255
205 227 255
205 227 255
205 227 255
205 227 255
205 226 255
205 226 255
205 226 255
205 226 255
205 226 255
205 226 255
204 226 255
204 226 255
204 226 255
204 226 255
204 226 255
204 226 255
204 226 255
204 226 255
204 226 255
204 226 255
203 226 255
152 171 44
151 170 36
155 175 44
153 172 25
150 170 0
152 172 0
148 167 0
150 168 0
148 168 0
148 167 0
151 170 0
150 170 0
151 170 0
151 170 0
149 168 0
146 166 0
153 172 0
145 164 0
142 160 0
151 171 0
148 168 0
148 166 0
148 167 0
149 168 0
146 165 0
146 165 0
148 166 0
146 165 0
143 161 0
147 165 0
147 165 0
145 164 0
145 163 0
146 164 0
144 162 0
145 163 0
144 162 0
147 166 0
143 162 0
148 167 0
144 162 0
141 159 0
143 162 0
143 161 0
142 160 0
144 162 0
144 163 0
143 161 0
141 159 0
143 160 0
141 158 0
143 161 0
140 157 0
142 160 0
143 161 0
142 159 0
142 160 0
143 161 0
143 160 0
140 158 0
141 158 0
138 156 0
136 154 0
143 161 0
142 158 0
140 158 0
145 162 0
137 154 0
135 152 0
137 153 0
132 150 0
135 152 0
133 149 0
131 147 0
134 151 0
128 144 0
130 147 0
136 153 0
132 149 0
139 157 0
130 146 0
130 145 0
121 138 0
132 148 0
127 143 0
124 140 0
127 142 0
121 137 0
126 141 0
128 143 0
124 139 0
125 141 0
114 129 0
115 130 0
125 140 0
120 134 0
118 132 0
112 126 0
119 134 0
118 133 0
118 133 0
114 129 0
117 131 0
115 128 0
118 130 0
114 127 51
111 123 51
124 136 72
133 143 102
128 139 95
137 148 114
135 145 105
120 133 44
109 121 0
121 134 0
125 138 0
108 121 0
115 128 0
110 124 0
116 129 0
119 133 0
117 131 0
123 137 0
117 132 0
115 130 0
108 121 0
119 134 0
120 134 0
120 136 0
131 147 0
128 144 0
119 134 0
123 138 0
115 131 0
124 141 0
114 129 0
122 139 0
121 139 0
126 144 0
124 141 0
113 130 0
115 131 0
129 147 0
121 138 0
116 133 0
118 135 0
113 129 0
122 140 0
129 147 0
123 141 0
124 143 0
131 149 0
117 135 0
128 146 0
109 126 0
108 125 0
114 132 0
122 139 0
115 132 0
119 137 0
98 115 0
126 142 0
112 130 0
126 143 0
104 121 0
109 126 0
100 116 0
111 126 0
84 100 0
103 119 0
96 112 0
91 105 0
99 115 0
96 112 0
80 95 0
87 102 0
83 98 0
100 114 0
86 99 0
94 107 0
80 94 0
88 101 0
71 83 0
59 73 0
69 81 0
70 80 0
70 81 0
67 77 0
71 81 0
55 65 0
44 56 0
52 64 25
47 64 36
40 58 40
50 70 44
34 55 36
44 69 44
40 64 47
42 69 60
45 72 70
36 58 51
38 62 47
39 64 57
47 70 60
44 67 62
45 68 54
48 67 54
52 68 36
46 59 31
68 80 0
76 87 0
65 76 0
60 73 0
59 71 0
70 83 0
86 100 0
98 112 0
81 95 0
91 105 0
89 104 0
87 102 0
99 115 0
92 107 0
93 109 0
105 122 0
104 121 0
121 138 0
116 133 0
122 139 0
110 128 0
120 138 0
119 137 0
123 142 0
127 146 0
118 137 0
126 146 0
128 148 0
136 156 0
135 155 0
140 160 0
127 147 0
137 156 0
146 166 0
133 154 0
140 161 0
148 169 0
148 169 0
141 162 0
143 164 0
151 173 0
149 170 0
142 164 0
151 173 0
145 167 0
144 166 0
142 165 0
146 168 0
149 171 0
153 175 0
150 172 0
151 173 0
158 181 0
155 178 0
156 179 0
158 181 0
158 181 0
152 175 0
162 185 0
158 182 0
158 182 0
151 175 0
156 179 0
160 184 0
159 183 0
157 180 0
159 184 0
165 190 0
158 183 0
164 190 0
158 183 0
161 188 0
160 186 0
162 188 0
158 184 0
163 189 0
160 185 0
159 186 0
160 188 62
174 204 169
186 216 249
189 218 255
190 219 255
191 219 255
192 220 255
193 220 255
194 221 255
195 221 255
195 221 255
196 222 255
196 222 255
197 222 255
197 222 255
198 223 255
198 223 255
199 223 255
199 223 255
199 224 255
200 224 255
200 224 255
200 224 255
201 224 255
201 224 255
201 224 255
201 225 255
202 225 255
202 225 255
202 225 255
202 225 255
202 225 255
202 225 255
203 225 255
203 225 255
203 225 255
203 226 255
203 226 255
203 226 255
203 226 255
204 226 255
204 226 255
204 226 255
204 226 255
204 226 255
204 226 255
204 226 255
204 226 255
204 226 255
204 226 255
204 226 255
204 226 255
205 226 255
205 226 255
205 226 255
205 226 255
205 226 255
205 226 255
205 226 255
205 226 255
205 226 255
205 226 255
205 227 255
205 227 255
205 227 255
205 227 255
205 227 255
205 227 255
205 227 255
205 227 255
205 227 255
205 227 255
205 227 255
205 227 255
205 227 255
205 227 255
205 227 255
205 227 255
205 227 255
205 227 255
205 226 255
205 226 255
205 226 255
205 226 255
205 226 255
205 226 255
205 226 255
205 226 255
205 226 255
205 226 255
205 226 255
204 226 255
204 226 255
204 226 255
204 226 255
204 226 255
204 226 255
204 226 255
204 226 255
204 226 255
204 226 255
204 226 255
204 226 255
204 226 255
204 226 255
203 226 255
203 226 255
203 226 255
203 226 255
203 225 255
203 225 255
203 225 255
203 225 255
164 182 84
153 171 57
160 178 80
154 172 51
153 172 36
150 169 44
152 171 0
152 171 0
148 168 0
148 168 0
151 170 0
152 172 0
146 165 0
151 170 0
150 168 0
148 167 0
148 167 0
144 162 0
145 163 0
147 166 0
147 165 0
148 167 0
149 167 0
148 167 0
145 163 0
149 168 0
148 167 0
142 161 0
146 165 0
147 165 0
146 165 0
150 169 0
145 163 0
149 168 0
147 165 0
144 163 0
145 164 0
141 158 0
144 161 0
141 159 0
144 162 0
145 164 0
148 167 0
140 158 0
142 161 0
147 165 0
142 160 0
141 159 0
147 165 0
146 163 0
144 162 0
142 161 0
143 161 0
140 158 0
141 160 0
139 156 0
139 157 0
141 159 0
141 159 0
138 155 0
139 156 0
137 155 0
139 156 0
135 151 0
136 153 0
133 151 0
137 155 0
141 158 0
131 148 0
136 153 0
138 154 0
140 156 0
132 149 0
131 148 0
135 152 0
128 145 0
130 147 0
129 146 0
126 142 0
128 144 0
134 150 0
132 147 0
128 145 0
128 144 0
132 149 0
131 147 0
117 132 0
126 141 0
122 137 0
129 144 0
120 135 0
125 140 0
119 134 0
116 130 0
117 131 0
128 142 0
114 128 0
112 126 0
114 127 0
115 129 0
120 134 0
117 130 0
116 129 25
124 135 84
116 127 62
116 129 51
141 151 114
136 145 117
154 164 137
145 155 120
101 112 0
110 123 0
116 129 0
106 119 0
108 121 0
102 115 0
115 129 0
113 126 0
116 130 0
120 134 0
103 117 0
114 128 0
120 135 0
119 135 0
125 140 0
119 134 0
116 131 0
125 141 0
123 139 0
129 144 0
134 150 0
128 143 0
111 127 0
111 128 0
120 138 0
119 136 0
122 140 0
117 135 0
123 140 0
125 143 0
121 138 0
113 130 0
119 137 0
124 141 0
119 137 0
121 139 0
121 139 0
116 133 0
117 135 0
116 134 0
121 138 0
122 140 0
133 152 0
118 135 0
111 128 0
125 141 0
107 125 0
121 138 0
111 128 0
112 130 0
113 130 0
108 126 0
119 137 0
109 125 0
116 132 0
112 128 0
116 133 0
106 123 0
100 115 0
98 114 0
99 114 0
103 119 0
102 118 0
93 108 0
92 107 0
94 109 0
81 94 0
94 108 0
84 99 0
88 102 0
90 104 0
66 78 0
78 91 0
74 87 0
90 103 0
74 85 0
75 88 0
59 69 0
57 67 0
52 62 0
63 75 0
65 75 0
68 78 0
54 63 0
57 69 0
56 65 0
50 60 0
41 50 0
53 63 0
53 63 0
43 52 0
58 68 0
49 57 0
50 60 0
58 66 0
58 68 0
68 80 0
73 84 0
62 74 0
60 71 0
82 95 0
80 91 0
79 93 0
76 89 0
81 94 0
80 94 0
87 102 0
80 94 0
86 99 0
94 109 0
93 108 0
95 112 0
104 120 0
106 123 0
112 129 0
111 129 0
109 126 0
112 129 0
114 131 0
111 128 0
121 139 0
127 147 0
125 143 0
137 156 0
125 144 0
131 151 0
123 142 0
135 155 0
133 153 0
134 153 0
137 156 0
130 150 0
132 153 0
143 163 0
145 165 0
137 158 0
142 163 0
137 157 0
140 160 0
143 163 0
144 165 0
147 169 0
149 170 0
138 159 0
146 168 0
152 174 0
146 168 0
150 171 0
145 168 0
150 172 0
148 171 0
155 178 0
149 172 0
159 182 0
155 178 0
149 172 0
154 178 0
152 175 0
152 175 0
160 183 0
158 182 0
160 184 0
158 182 0
157 180 0
153 178 0
152 175 0
158 182 0
157 182 0
162 187 0
161 186 0
163 189 0
161 188 0
161 186 0
160 186 0
162 188 0
160 187 0
163 189 0
158 186 0
166 192 0
159 186 51
176 205 181
186 216 250
189 218 255
190 219 255
191 219 255
192 220 255
193 220 255
194 220 255
194 221 255
195 221 255
195 221 255
196 222 255
196 222 255
197 222 255
197 222 255
198 223 255
198 223 255
199 223 255
199 223 255
199 223 255
199 224 255
200 224 255
200 224 255
200 224 255
200 224 255
201 224 255
201 224 255
201 224 255
201 225 255
201 225 255
202 225 255
202 225 255
202 225 255
202 225 255
202 225 255
202 225 255
203 225 255
203 225 255
203 225 255
203 225 255
203 225 255
203 226 255
203 226 255
203 226 255
203 226 255
203 226 255
204 226 255
204 226 255
204 226 255
204 226 255
204 226 255
204 226 255
204 226 255
204 226 255
204 226 255
204 226 255
204 226 255
204 226 255
204 226 255
204 226 255
204 226 255
204 226 255
204 226 255
204 226 255
204 226 255
204 226 255
204 226 255
204 226 255
204 226 255
204 226 255
204 226 255
204 226 255
204 226 255
204 226 255
204 226 255
204 226 255
204 226 255
204 226 255
204 226 255
204 226 255
204 226 255
204 226 255
204 226 255
204 226 255
204 226 255
204 226 255
204 226 255
204 226 255
204 226 255
204 226 255
204 226 255
204 226 255
204 226 255
203 226 255
203 226 255
203 226 255
203 226 255
203 226 255
203 225 255
203 225 255
203 225 255
203 225 255
203 225 255
203 225 255
202 225 255
202 225 255
202 225 255
202 225 255
202 225 255
202 225 255
169 186 102
163 180 95
162 180 84
159 177 76
157 176 67
153 171 57
152 170 36
151 170 36
151 171 25
151 170 0
151 170 0
147 167 0
149 168 0
148 167 0
148 168 0
145 165 0
148 166 0
145 164 0
151 169 0
147 165 0
151 170 0
147 166 0
147 165 0
149 167 0
149 167 0
150 168 0
146 165 0
143 162 0
145 163 0
147 165 0
147 166 0
145 164 0
142 160 0
148 166 0
146 163 0
146 164 0
146 164 0
143 161 0
143 161 0
146 164 0
143 161 0
143 160 0
147 164 0
142 161 0
142 160 0
142 159 0
143 160 0
145 163 0
145 162 0
140 157 0
144 163 0
139 157 0
147 165 0
142 159 0
139 157 0
137 154 0
138 155 0
137 154 0
142 159 0
139 156 0
140 158 0
137 154 0
139 157 0
142 159 0
141 158 0
137 153 0
131 148 0
134 150 0
136 152 0
134 151 0
134 150 0
130 146 0
129 145 0
130 146 0
133 150 0
125 140 0
130 146 0
133 150 0
127 142 0
133 149 0
126 142 0
136 153 0
124 139 0
126 141 0
127 143 0
124 139 0
126 141 0
125 140 0
123 138 0
119 134 0
122 137 0
121 135 0
122 137 0
117 132 0
119 134 0
114 127 0
113 127 0
113 126 0
107 120 0
112 125 0
115 128 44
112 125 36
118 130 57
132 142 99
129 140 95
139 149 114
152 161 144
146 156 114
97 109 36
107 118 0
102 113 0
116 129 0
118 130 0
115 128 0
117 131 0
108 121 0
120 134 0
112 125 0
129 143 0
115 129 0
112 126 0
122 137 0
112 126 0
117 132 0
121 136 0
120 136 0
116 132 0
124 140 0
115 130 0
123 139 0
119 136 0
119 135 0
122 137 0
129 145 0
112 127 0
129 147 0
116 133 0
120 137 0
126 141 0
129 147 0
121 138 0
108 125 0
125 143 0
110 128 0
115 132 0
134 152 0
130 148 0
125 142 0
120 138 0
123 140 0
123 141 0
123 140 0
132 150 0
110 127 0
116 133 0
116 133 0
119 135 0
124 142 0
119 136 0
103 122 0
113 129 0
123 140 0
115 133 0
109 126 0
104 120 0
110 126 0
109 126 0
102 119 0
97 113 0
101 116 0
107 124 0
112 129 0
81 97 0
101 117 0
100 116 0
92 107 0
78 93 0
97 111 0
91 107 0
99 113 0
87 102 0
83 98 0
86 100 0
75 88 0
73 86 0
82 95 0
78 90 0
71 83 0
67 80 0
61 73 0
73 85 0
75 87 0
75 87 0
69 80 0
67 78 0
62 75 0
69 79 0
63 74 0
40 54 0
69 80 0
72 83 0
61 71 0
60 70 0
58 69 0
73 83 0
70 81 0
64 74 0
74 86 0
79 91 0
66 78 0
88 100 0
88 101 0
78 92 0
81 95 0
80 93 0
87 102 0
96 110 0
83 98 0
88 103 0
84 101 0
97 112 0
101 117 0
108 124 0
107 124 0
109 126 0
111 127 0
108 127 0
116 134 0
104 122 0
121 138 0
111 128 0
122 140 0
125 143 0
140 159 0
125 144 0
132 151 0
135 155 0
132 151 0
131 152 0
131 152 0
136 155 0
141 162 0
144 164 0
140 160 0
137 157 0
139 159 0
136 157 0
149 169 0
135 156 0
144 166 0
140 162 0
149 170 0
148 170 0
143 165 0
146 167 0
150 172 0
156 178 0
152 175 0
141 162 0
150 172 0
154 176 0
155 178 0
146 168 0
154 177 0
155 177 0
152 175 0
146 170 0
160 183 0
163 186 0
163 187 0
160 183 0
155 179 0
150 174 0
163 186 0
158 182 0
153 177 0
163 187 0
161 186 0
165 190 0
160 186 0
160 186 0
164 190 0
160 186 0
160 186 0
165 192 0
162 189 0
162 189 0
162 188 0
158 185 0
157 184 0
162 189 0
165 192 25
174 203 179
184 214 238
188 217 255
189 218 255
190 219 255
191 219 255
192 220 255
193 220 255
194 220 255
194 221 255
195 221 255
195 221 255
196 222 255
196 222 255
197 222 255
197 222 255
197 223 255
198 223 255
198 223 255
198 223 255
199 223 255
199 223 255
199 223 255
200 224 255
200 224 255
200 224 255
200 224 255
200 224 255
201 224 255
201 224 255
201 224 255
201 225 255
201 225 255
202 225 255
202 225 255
202 225 255
202 225 255
202 225 255
202 225 255
202 225 255
202 225 255
203 225 255
203 225 255
203 225 255
203 225 255
203 225 255
203 225 255
203 225 255
203 226 255
203 226 255
203 226 255
203 226 255
203 226 255
203 226 255
203 226 255
203 226 255
203 226 255
203 226 255
203 226 255
203 226 255
204 226 255
204 226 255
204 226 255
204 226 255
204 226 255
204 226 255
204 226 255
204 226 255
204 226 255
204 226 255
204 226 255
204 226 255
204 226 255
204 226 255
204 226 255
204 226 255
203 226 255
203 226 255
203 226 255
203 226 255
203 226 255
203 226 255
203 226 255
203 226 255
203 226 255
203 226 255
203 225 255
203 225 255
203 225 255
203 225 255
203 225 255
203 225 255
203 225 255
203 225 255
202 225 255
202 225 255
202 225 255
202 225 255
202 225 255
202 225 255
202 225 255
202 225 255
202 225 255
201 225 255
201 225 255
201 224 255
201 224 255
201 224 255
167 184 114
166 183 102
161 179 80
159 176 88
165 182 99
161 178 80
156 175 67
160 178 76
157 176 57
149 167 44
151 170 25
148 167 25
148 166 0
149 167 0
148 166 0
150 167 0
148 168 0
147 165 0
150 169 0
145 164 0
147 166 0
149 168 0
147 166 0
149 167 0
145 163 0
150 168 0
147 166 0
148 166 0
145 163 0
144 163 0
147 165 0
147 165 0
142 160 0
145 163 0
148 166 0
147 165 0
148 166 0
143 161 0
143 160 0
142 160 0
144 161 0
145 163 0
143 160 0
141 159 0
137 154 0
143 161 0
142 160 0
138 155 0
145 163 0
139 156 0
142 160 0
142 160 0
142 159 0
141 158 0
136 153 0
139 156 0
144 161 0
141 159 0
138 155 0
139 156 0
138 155 0
141 157 0
134 151 0
134 151 0
131 148 0
136 152 0
137 154 0
134 151 0
139 156 0
134 150 0
130 146 0
130 146 0
133 149 0
130 146 0
135 151 0
136 153 0
129 145 0
122 136 0
126 142 0
126 141 0
131 146 0
124 139 0
128 144 0
121 136 0
130 145 0
124 139 0
120 134 0
125 140 0
124 139 0
121 135 0
115 130 0
124 139 0
106 119 0
120 134 0
115 128 0
119 133 0
115 128 0
109 122 0
129 142 57
114 127 44
126 137 84
144 156 102
140 151 117
149 159 128
130 139 105
126 136 92
98 109 0
104 114 0
106 117 0
116 127 0
113 125 0
107 119 0
102 114 0
105 117 0
120 133 0
104 118 0
118 133 0
96 110 0
121 135 0
122 136 0
117 132 0
117 132 0
132 147 0
120 135 0
117 131 0
132 148 0
117 133 0
129 145 0
120 135 0
120 136 0
116 132 0
118 134 0
122 139 0
127 143 0
119 136 0
125 142 0
130 147 0
132 150 0
135 153 0
123 140 0
120 137 0
125 143 0
113 130 0
118 136 0
130 147 0
128 146 0
131 149 0
122 139 0
119 136 0
128 146 0
116 133 0
115 133 0
123 140 0
130 148 0
127 144 0
108 125 0
103 121 0
107 125 0
108 126 0
113 130 0
105 123 0
106 123 0
104 122 0
107 124 0
111 129 0
113 130 0
106 123 0
98 114 0
112 129 0
98 114 0
101 118 0
104 121 0
85 102 0
96 111 0
93 107 0
96 112 0
86 101 0
101 116 0
98 113 0
84 99 0
94 109 0
90 104 0
84 98 0
81 95 0
89 102 0
78 92 0
87 100 0
69 81 0
74 88 0
71 83 0
80 92 0
73 84 0
75 88 0
54 66 0
84 97 0
64 76 0
73 86 0
69 81 0
70 83 0
87 99 0
59 70 0
67 79 0
69 80 0
66 79 0
74 88 0
54 67 0
73 85 0
77 90 0
66 78 0
70 84 0
98 112 0
82 95 0
78 92 0
91 107 0
90 104 0
72 88 0
79 93 0
93 109 0
84 100 0
99 116 0
101 117 0
103 120 0
93 109 0
102 119 0
96 114 0
101 118 0
117 135 0
118 136 0
101 118 0
125 144 0
118 136 0
128 147 0
125 143 0
124 143 0
126 146 0
120 139 0
122 141 0
137 157 0
134 153 0
130 150 0
140 160 0
134 153 0
137 158 0
139 160 0
143 164 0
147 168 0
148 169 0
146 167 0
140 161 0
144 163 0
147 168 0
149 170 0
152 174 0
150 172 0
146 168 0
154 176 0
146 168 0
149 170 0
153 175 0
146 168 0
150 172 0
160 183 0
149 172 0
149 172 0
150 173 0
152 175 0
156 179 0
155 178 0
159 182 0
155 179 0
161 184 0
156 179 0
158 182 0
156 180 0
158 182 0
157 181 0
156 180 0
160 185 0
158 183 0
160 185 0
161 187 0
152 177 0
162 189 0
159 185 0
159 185 0
156 182 0
162 189 0
159 186 0
161 188 0
162 189 0
159 186 0
165 193 0
162 190 0
164 192 0
170 199 135
182 212 230
187 217 255
189 218 255
190 218 255
191 219 255
191 219 255
192 220 255
193 220 255
193 220 255
194 221 255
195 221 255
195 221 255
196 221 255
196 222 255
196 222 255
197 222 255
197 222 255
197 223 255
198 223 255
198 223 255
198 223 255
199 223 255
199 223 255
199 223 255
199 224 255
200 224 255
200 224 255
200 224 255
200 224 255
200 224 255
200 224 255
201 224 255
201 224 255
201 224 255
201 224 255
201 225 255
201 225 255
202 225 255
202 225 255
202 225 255
202 225 255
202 225 255
202 225 255
202 225 255
202 225 255
202 225 255
202 225 255
202 225 255
202 225 255
202 225 255
203 225 255
203 225 255
203 225 255
203 225 255
203 225 255
203 225 255
203 225 255
203 225 255
203 225 255
203 225 255
203 225 255
203 225 255
203 225 255
203 225 255
203 225 255
203 225 255
203 225 255
203 225 255
203 225 255
203 225 255
203 225 255
203 225 255
203 225 255
203 225 255
203 225 255
203 225 255
203 225 255
203 225 255
203 225 255
202 225 255
202 225 255
202 225 255
202 225 255
202 225 255
202 225 255
202 225 255
202 225 255
202 225 255
202 225 255
202 225 255
202 225 255
202 225 255
202 225 255
201 225 255
201 225 255
201 224 255
201 224 255
201 224 255
201 224 255
201 224 255
200 224 255
200 224 255
200 224 255
200 224 255
200 224 255
175 191 135
174 190 125
168 185 111
163 180 102
166 183 108
161 178 92
158 176 80
163 180 88
156 175 57
158 175 67
153 172 44
152 171 44
151 169 25
148 166 0
149 169 25
148 167 0
148 167 0
146 165 0
149 167 0
145 164 0
146 164 0
149 168 0
151 169 0
148 166 0
143 163 0
148 167 0
144 161 0
144 162 0
148 167 0
146 164 0
146 164 0
146 164 0
147 165 0
146 164 0
145 162 0
145 163 0
145 163 0
145 162 0
145 162 0
142 160 0
139 157 0
145 164 0
144 162 0
139 157 0
142 160 0
139 157 0
144 161 0
138 156 0
141 158 0
142 159 0
134 151 0
138 155 0
139 157 0
141 158 0
138 154 0
134 151 0
136 152 0
141 158 0
142 159 0
139 155 0
139 156 0
141 158 0
136 152 0
136 153 0
137 154 0
138 154 0
132 148 0
136 152 0
132 148 0
141 158 0
132 148 0
135 150 0
127 142 0
131 147 0
133 149 0
131 146 0
134 150 0
131 146 0
132 147 0
128 143 0
127 142 0
131 147 0
123 137 0
118 133 0
130 145 0
120 134 0
127 142 0
120 135 0
122 137 0
121 134 0
117 131 0
114 128 0
112 126 0
121 135 0
117 131 44
120 132 51
126 138 80
123 134 76
129 141 84
139 149 108
143 153 122
156 166 135
122 131 92
119 129 80
103 114 0
89 99 0
102 114 0
102 114 0
105 117 0
112 124 0
115 127 0
124 138 0
116 130 0
106 120 0
112 125 0
117 131 0
118 132 0
119 134 0
119 133 0
110 124 0
116 130 0
117 133 0
125 141 0
114 130 0
122 137 0
120 136 0
112 128 0
119 134 0
117 133 0
119 136 0
122 139 0
116 134 0
120 138 0
125 142 0
123 140 0
109 127 0
125 141 0
121 139 0
106 123 0
128 145 0
132 150 0
131 149 0
126 143 0
124 141 0
122 139 0
124 140 0
124 141 0
133 151 0
124 142 0
124 143 0
116 133 0
124 142 0
115 133 0
118 136 0
125 143 0
118 136 0
124 141 0
112 130 0
118 136 0
107 124 0
105 122 0
123 141 0
110 128 0
106 123 0
108 124 0
112 129 0
99 116 0
115 131 0
98 114 0
112 128 0
100 116 0
111 127 0
107 125 0
112 128 0
97 113 0
90 107 0
103 119 0
113 127 0
94 109 0
100 115 0
95 109 0
96 111 0
98 113 0
80 96 0
74 88 0
94 109 0
82 96 0
70 85 0
75 88 0
92 105 0
87 101 0
73 85 0
80 95 0
71 84 0
61 75 0
75 88 0
78 91 0
56 69 0
65 77 0
66 80 0
75 88 0
75 89 0
70 83 0
90 104 0
68 82 0
87 101 0
81 95 0
80 92 0
80 94 0
79 92 0
94 108 0
82 97 0
88 104 0
105 120 0
93 108 0
99 114 0
80 95 0
94 110 0
101 116 0
112 129 0
97 114 0
103 121 0
111 128 0
106 122 0
102 120 0
104 121 0
112 130 0
113 130 0
129 148 0
118 137 0
117 136 0
132 151 0
122 140 0
117 136 0
128 146 0
142 162 0
132 151 0
133 153 0
131 150 0
132 152 0
144 165 0
124 144 0
132 152 0
140 161 0
142 162 0
138 158 0
148 167 0
143 164 0
143 164 0
142 163 0
148 169 0
145 166 0
149 171 0
149 171 0
149 170 0
152 173 0
150 172 0
151 173 0
146 168 0
144 166 0
143 166 0
154 177 0
150 173 0
156 179 0
154 176 0
154 177 0
154 177 0
155 178 0
158 182 0
149 172 0
155 179 0
153 176 0
159 182 0
157 181 0
159 183 0
161 184 0
157 181 0
154 178 0
149 174 0
160 185 0
162 187 0
166 191 0
159 184 0
163 189 0
160 185 0
159 185 0
161 187 0
162 189 0
161 188 0
162 188 0
162 189 0
160 187 0
160 188 0
158 184 0
162 190 0
160 188 0
165 193 105
178 208 217
186 216 252
188 217 255
189 218 255
190 218 255
191 219 255
191 219 255
192 220 255
193 220 255
193 220 255
194 221 255
194 221 255
195 221 255
195 221 255
196 222 255
196 222 255
196 222 255
197 222 255
197 222 255
197 222 255
198 223 255
198 223 255
198 223 255
198 223 255
199 223 255
199 223 255
199 223 255
199 223 255
199 224 255
200 224 255
200 224 255
200 224 255
200 224 255
200 224 255
200 224 255
200 224 255
201 224 255
201 224 255
201 224 255
201 224 255
201 224 255
201 224 255
201 225 255
201 225 255
201 225 255
201 225 255
202 225 255
202 225 255
202 225 255
202 225 255
202 225 255
202 225 255
202 225 255
202 225 255
202 225 255
202 225 255
202 225 255
202 225 255
202 225 255
202 225 255
202 225 255
202 225 255
202 225 255
202 225 255
202 225 255
202 225 255
202 225 255
202 225 255
202 225 255
202 225 255
202 225 255
202 225 255
202 225 255
202 225 255
202 225 255
202 225 255
202 225 255
202 225 255
202 225 255
202 225 255
202 225 255
201 225 255
201 225 255
201 225 255
201 224 255
201 224 255
201 224 255
201 224 255
201 224 255
201 224 255
201 224 255
201 224 255
200 224 255
200 224 255
200 224 255
200 224 255
200 224 255
200 224 255
199 224 255
199 223 255
199 223 255
199 223 255
198 223 255
187 203 151
181 196 150
176 192 133
175 190 133
171 189 120
170 187 117
162 179 95
166 182 108
160 178 84
160 178 88
157 174 62
161 178 80
158 175 76
149 168 51
151 169 44
151 168 44
152 171 36
149 169 25
146 164 0
148 166 0
143 160 0
149 168 0
146 164 0
145 163 0
143 160 0
145 163 0
147 165 0
146 164 0
146 163 0
144 162 0
145 163 0
143 161 0
144 162 0
143 160 0
143 160 0
146 164 0
146 164 0
141 159 0
143 160 0
140 156 0
146 163 0
145 163 0
141 158 0
142 159 0
143 160 0
143 161 0
142 158 0
142 159 0
143 160 0
140 156 0
141 158 0
139 155 0
137 154 0
139 157 0
137 154 0
138 154 0
137 153 0
138 153 0
138 154 0
140 157 0
139 155 0
133 148 0
137 153 0
135 151 0
138 155 0
131 147 0
136 152 0
128 144 0
132 148 0
135 151 0
134 150 0
128 143 0
129 144 0
129 145 0
134 148 0
123 137 0
128 143 0
135 150 0
124 138 0
124 139 0
131 146 0
128 142 0
120 135 0
124 138 0
127 141 0
115 129 0
120 134 0
117 130 0
118 131 0
114 126 0
118 131 25
118 130 25
116 128 57
125 137 72
129 141 76
129 140 80
143 154 105
134 144 105
146 155 122
154 163 144
130 139 108
102 112 36
102 113 0
91 101 0
108 119 0
103 114 0
109 121 0
115 129 0
105 118 0
106 119 0
121 135 0
118 131 0
119 133 0
110 125 0
119 134 0
113 127 0
117 132 0
123 138 0
108 124 0
112 127 0
130 146 0
123 137 0
124 140 0
117 133 0
125 140 0
125 141 0
123 139 0
118 133 0
125 141 0
120 136 0
122 139 0
120 137 0
116 133 0
124 141 0
117 133 0
132 148 0
117 134 0
126 144 0
130 147 0
116 134 0
125 142 0
127 145 0
128 146 0
124 141 0
120 138 0
126 145 0
123 141 0
130 148 0
120 137 0
128 146 0
118 136 0
105 122 0
124 142 0
108 126 0
124 142 0
121 140 0
112 130 0
114 132 0
123 141 0
105 122 0
109 127 0
114 132 0
110 127 0
117 134 0
110 127 0
108 125 0
110 128 0
99 115 0
94 111 0
103 120 0
111 127 0
98 114 0
103 121 0
106 121 0
103 120 0
102 118 0
88 104 0
101 116 0
90 105 0
93 108 0
99 115 0
98 114 0
98 113 0
80 95 0
91 106 0
90 104 0
88 101 0
82 96 0
95 110 0
90 105 0
98 113 0
82 97 0
88 102 0
85 99 0
76 89 0
80 94 0
88 102 0
89 103 0
75 87 0
80 95 0
72 85 0
89 102 0
76 90 0
95 109 0
88 101 0
87 101 0
76 91 0
82 97 0
67 80 0
83 97 0
95 110 0
101 115 0
84 100 0
87 103 0
108 123 0
113 128 0
96 112 0
94 111 0
100 115 0
108 124 0
97 113 0
108 125 0
110 128 0
122 140 0
111 129 0
124 142 0
121 140 0
114 132 0
114 131 0
116 134 0
128 146 0
128 147 0
133 152 0
143 162 0
130 149 0
130 149 0
137 156 0
131 151 0
134 154 0
139 159 0
138 157 0
130 150 0
139 159 0
137 156 0
140 161 0
137 158 0
131 151 0
147 168 0
149 170 0
140 160 0
142 163 0
152 174 0
149 170 0
154 176 0
143 165 0
143 164 0
154 176 0
148 170 0
156 177 0
151 173 0
156 177 0
145 167 0
154 177 0
156 179 0
154 176 0
153 176 0
146 169 0
155 178 0
158 181 0
151 173 0
158 181 0
156 179 0
157 181 0
157 180 0
160 183 0
153 178 0
158 182 0
160 185 0
159 183 0
159 183 0
158 183 0
165 189 0
155 180 0
154 179 0
160 185 0
159 184 0
159 186 0
156 182 0
163 189 0
162 189 0
158 184 0
162 189 0
158 185 0
161 188 0
163 191 0
160 187 0
158 186 0
158 185 0
164 192 76
170 200 157
180 211 224
186 217 255
187 217 255
189 218 255
190 218 255
190 219 255
191 219 255
192 220 255
192 220 255
193 220 255
193 220 255
194 221 255
194 221 255
195 221 255
195 221 255
196 222 255
196 222 255
196 222 255
197 222 255
197 222 255
197 222 255
197 222 255
198 223 255
198 223 255
198 223 255
198 223 255
199 223 255
199 223 255
199 223 255
199 223 255
199 223 255
199 223 255
199 224 255
200 224 255
200 224 255
200 224 255
200 224 255
200 224 255
200 224 255
200 224 255
200 224 255
200 224 255
201 224 255
201 224 255
201 224 255
201 224 255
201 224 255
201 224 255
201 224 255
201 224 255
201 224 255
201 224 255
201 224 255
201 224 255
201 224 255
201 224 255
201 224 255
201 224 255
201 224 255
201 224 255
201 224 255
201 224 255
201 224 255
201 224 255
201 224 255
201 224 255
201 224 255
201 224 255
201 224 255
201 224 255
201 224 255
201 224 255
201 224 255
201 224 255
201 224 255
201 224 255
201 224 255
200 224 255
200 224 255
200 224 255
200 224 255
200 224 255
200 224 255
200 224 255
200 224 255
200 224 255
200 224 255
200 224 255
200 224 255
199 223 255
199 223 255
199 223 255
199 223 255
199 223 255
198 223 255
198 223 255
198 223 255
198 223 255
197 222 255
192 217 220
172 195 0
177 197 84
181 198 116
174 190 120
182 197 149
178 193 140
179 194 137
172 188 122
171 187 122
165 182 105
163 180 95
163 179 95
167 183 108
156 173 76
158 175 80
158 175 72
157 174 72
153 171 51
151 168 44
152 169 36
145 163 0
146 164 0
145 163 0
145 163 0
147 165 0
146 164 0
142 159 0
146 164 0
144 162 0
147 164 0
143 161 0
142 159 0
139 156 0
142 160 0
143 161 0
147 164 0
140 158 0
143 161 0
137 154 0
142 158 0
143 160 0
144 161 0
141 159 0
143 160 0
144 161 0
142 158 0
140 157 0
140 157 0
136 152 0
140 156 0
138 154 0
139 156 0
137 153 0
135 151 0
140 156 0
132 149 0
136 152 0
136 153 0
141 157 0
136 152 0
131 147 0
132 149 0
135 151 0
135 150 0
134 150 0
134 150 0
136 151 0
134 149 0
133 149 0
133 148 0
136 152 0
135 150 0
130 145 0
133 149 0
126 140 0
128 142 0
136 152 0
119 133 0
123 138 0
125 140 0
121 136 0
128 143 0
119 133 0
127 141 0
125 139 0
123 137 0
119 132 0
117 131 0
126 139 44
117 129 44
117 129 62
138 149 92
130 140 92
141 152 105
148 158 114
150 160 128
153 163 135
134 142 117
117 127 72
87 97 0
89 98 0
99 110 0
102 113 0
112 123 0
113 124 0
103 115 0
114 126 0
113 125 0
110 122 0
107 121 0
114 128 0
114 128 0
121 134 0
122 137 0
115 128 0
121 136 0
122 136 0
112 127 0
118 133 0
115 130 0
125 142 0
123 139 0
119 135 0
109 125 0
129 145 0
119 134 0
124 140 0
130 148 0
123 140 0
123 140 0
129 146 0
129 147 0
115 132 0
125 142 0
135 152 0
123 141 0
126 144 0
120 137 0
128 146 0
127 145 0
119 137 0
129 148 0
129 147 0
123 141 0
128 146 0
126 144 0
124 141 0
119 136 0
129 147 0
130 149 0
121 139 0
115 133 0
116 134 0
115 132 0
128 145 0
123 141 0
130 148 0
115 133 0
112 129 0
104 122 0
110 127 0
108 125 0
117 135 0
119 137 0
103 120 0
120 138 0
109 126 0
104 122 0
116 133 0
107 124 0
95 112 0
103 119 0
109 124 0
96 112 0
111 128 0
86 102 0
110 126 0
98 115 0
85 100 0
98 114 0
92 108 0
104 119 0
112 129 0
108 124 0
93 109 0
95 111 0
90 105 0
87 101 0
96 111 0
90 105 0
66 82 0
81 97 0
92 106 0
95 110 0
84 98 0
97 110 0
90 105 0
84 100 0
80 95 0
86 101 0
101 116 0
75 90 0
94 108 0
90 105 0
99 113 0
96 111 0
100 115 0
95 110 0
97 113 0
103 119 0
100 116 0
98 113 0
89 105 0
94 108 0
99 117 0
98 114 0
105 122 0
114 131 0
107 124 0
111 128 0
110 126 0
107 124 0
108 125 0
111 128 0
118 136 0
112 131 0
115 131 0
114 133 0
120 138 0
127 145 0
129 148 0
117 136 0
126 145 0
124 144 0
140 159 0
129 148 0
130 150 0
127 146 0
129 149 0
137 157 0
140 161 0
141 161 0
148 169 0
131 151 0
145 164 0
136 157 0
149 170 0
144 164 0
148 168 0
150 171 0
142 163 0
146 167 0
152 172 0
142 162 0
154 175 0
150 171 0
146 167 0
150 172 0
151 173 0
152 175 0
145 167 0
151 173 0
150 172 0
154 176 0
154 177 0
152 174 0
154 177 0
151 173 0
157 180 0
153 176 0
155 178 0
154 177 0
158 182 0
148 172 0
157 181 0
154 178 0
145 169 0
151 175 0
159 182 0
154 179 0
158 182 0
160 185 0
161 186 0
162 188 0
160 186 0
161 185 0
162 188 0
157 183 0
160 186 0
163 188 0
162 188 0
156 183 0
162 188 0
159 186 0
165 192 0
163 190 0
162 189 0
161 189 0
164 190 0
163 190 0
164 192 0
167 196 114
174 204 181
183 214 244
187 217 255
188 217 255
189 218 255
190 218 255
190 219 255
191 219 255
191 219 255
192 220 255
193 220 255
193 220 255
194 220 255
194 221 255
194 221 255
195 221 255
195 221 255
195 221 255
196 222 255
196 222 255
196 222 255
197 222 255
197 222 255
197 222 255
197 222 255
197 222 255
198 223 255
198 223 255
198 223 255
198 223 255
198 223 255
198 223 255
199 223 255
199 223 255
199 223 255
199 223 255
199 223 255
199 223 255
199 223 255
199 224 255
199 224 255
200 224 255
200 224 255
200 224 255
200 224 255
200 224 255
200 224 255
200 224 255
200 224 255
200 224 255
200 224 255
200 224 255
200 224 255
200 224 255
200 224 255
200 224 255
200 224 255
200 224 255
200 224 255
200 224 255
200 224 255
200 224 255
200 224 255
200 224 255
200 224 255
200 224 255
200 224 255
200 224 255
200 224 255
200 224 255
200 224 255
200 224 255
200 224 255
200 224 255
200 224 255
200 224 255
199 224 255
199 224 255
199 223 255
199 223 255
199 223 255
199 223 255
199 223 255
199 223 255
199 223 255
198 223 255
198 223 255
198 223 255
198 223 255
198 223 255
197 222 255
197 222 255
197 222 255
197 222 255
193 218 237
188 213 194
177 200 99
172 196 0
172 195 0
172 195 0
171 194 0
171 193 0
173 194 51
178 196 114
175 192 120
179 194 144
175 191 135
176 191 137
169 185 122
170 186 117
175 190 125
166 182 108
169 184 117
160 177 99
163 180 95
157 173 76
153 170 62
159 175 76
154 171 67
150 168 44
147 164 44
144 162 0
146 164 25
142 159 25
145 163 0
143 161 0
148 165 0
148 165 0
142 158 0
145 162 0
143 161 0
141 159 0
145 163 0
140 157 0
144 160 0
144 161 0
144 161 0
141 157 0
141 158 0
143 161 0
140 157 0
141 158 0
137 153 0
142 159 0
137 153 0
140 157 0
140 156 0
136 153 0
133 150 0
139 156 0
142 159 0
133 149 0
133 149 0
136 151 0
135 150 0
136 152 0
130 145 0
134 150 0
135 150 0
133 148 0
128 144 0
132 147 0
136 150 0
137 152 0
134 150 0
133 149 0
128 143 0
134 149 0
129 144 0
130 144 0
129 144 0
120 134 0
127 142 0
126 140 0
134 149 0
128 143 0
127 142 0
125 138 0
118 131 0
112 125 0
119 132 0
119 132 25
129 142 44
130 143 67
122 134 67
125 137 67
135 147 84
133 143 99
138 148 102
159 168 144
141 150 122
151 160 144
134 143 114
105 114 51
96 106 0
92 101 0
92 102 0
108 119 0
102 112 0
108 120 0
108 120 0
114 126 0
111 123 0
116 128 0
106 119 0
107 121 0
116 130 0
119 132 0
120 134 0
110 124 0
118 133 0
120 135 0
120 135 0
124 139 0
123 138 0
120 136 0
121 136 0
132 148 0
123 139 0
129 145 0
123 139 0
126 142 0
123 140 0
127 144 0
130 147 0
131 148 0
127 145 0
129 146 0
131 148 0
129 147 0
123 141 0
119 135 0
123 140 0
127 145 0
121 138 0
131 149 0
129 147 0
126 144 0
121 138 0
124 141 0
116 134 0
123 141 0
124 141 0
128 147 0
123 141 0
119 136 0
121 139 0
119 137 0
121 140 0
117 136 0
118 135 0
132 150 0
122 140 0
120 138 0
129 148 0
123 141 0
122 140 0
115 133 0
129 148 0
111 130 0
112 130 0
119 138 0
104 121 0
108 125 0
110 128 0
115 132 0
101 118 0
103 121 0
111 129 0
105 122 0
101 118 0
106 123 0
104 120 0
108 124 0
104 122 0
91 108 0
104 121 0
109 126 0
105 122 0
98 114 0
105 122 0
104 119 0
89 104 0
95 111 0
93 108 0
100 116 0
86 102 0
104 120 0
109 125 0
97 114 0
94 112 0
97 114 0
92 107 0
92 107 0
92 108 0
86 100 0
97 114 0
84 98 0
89 105 0
92 108 0
92 108 0
95 109 0
92 109 0
96 113 0
94 110 0
102 118 0
106 122 0
102 119 0
99 116 0
104 123 0
93 110 0
92 109 0
104 122 0
108 124 0
109 126 0
105 123 0
107 125 0
103 121 0
113 131 0
123 142 0
112 131 0
102 119 0
124 143 0
107 124 0
117 135 0
123 142 0
122 142 0
120 138 0
126 145 0
128 147 0
124 143 0
115 134 0
123 142 0
141 160 0
143 162 0
144 164 0
141 160 0
134 154 0
132 152 0
141 162 0
137 157 0
142 162 0
136 157 0
150 170 0
144 165 0
139 159 0
141 162 0
139 160 0
145 167 0
144 165 0
152 173 0
142 163 0
139 160 0
153 175 0
146 168 0
148 169 0
153 175 0
151 173 0
155 177 0
157 180 0
154 177 0
150 173 0
152 175 0
155 177 0
154 177 0
149 172 0
159 181 0
158 182 0
159 182 0
158 181 0
158 182 0
152 175 0
152 176 0
161 184 0
152 176 0
159 183 0
161 185 0
160 184 0
151 175 0
159 183 0
160 185 0
158 182 0
159 183 0
160 186 0
160 185 0
159 184 0
163 189 0
161 187 0
163 190 0
163 189 0
159 186 0
161 188 0
158 184 0
161 188 0
162 189 0
161 189 0
160 188 0
163 190 0
162 190 0
163 190 0
164 192 0
164 193 25
168 196 122
174 204 188
182 212 231
187 217 255
187 217 255
188 218 255
189 218 255
190 218 255
190 219 255
191 219 255
192 219 255
192 220 255
193 220 255
193 220 255
193 220 255
194 221 255
194 221 255
195 221 255
195 221 255
195 221 255
195 221 255
196 222 255
196 222 255
196 222 255
196 222 255
196 222 255
197 222 255
197 222 255
197 222 255
197 222 255
197 222 255
198 223 255
198 223 255
198 223 255
198 223 255
198 223 255
198 223 255
198 223 255
198 223 255
198 223 255
199 223 255
199 223 255
199 223 255
199 223 255
199 223 255
199 223 255
199 223 255
199 223 255
199 223 255
199 223 255
199 223 255
199 223 255
199 223 255
199 223 255
199 223 255
199 223 255
199 223 255
199 223 255
199 223 255
199 223 255
199 223 255
199 223 255
199 223 255
199 223 255
199 223 255
199 223 255
199 223 255
199 223 255
199 223 255
199 223 255
199 223 255
199 223 255
199 223 255
198 223 255
198 223 255
198 223 255
198 223 255
198 223 255
198 223 255
198 223 255
198 223 255
198 223 255
197 222 255
197 222 255
197 222 255
197 222 255
196 222 255
196 222 255
196 222 255
192 218 234
189 214 211
176 200 102
174 197 0
172 195 0
174 197 0
172 195 0
171 194 0
171 193 0
170 193 0
170 193 0
169 191 0
168 190 0
170 192 0
174 194 76
177 195 111
175 192 125
182 196 149
174 189 137
184 198 157
171 186 122
169 184 130
169 184 114
165 181 108
166 182 108
168 183 117
157 174 80
152 168 72
160 175 102
153 170 57
153 170 72
158 174 88
157 174 76
146 163 44
145 162 44
148 165 25
147 164 36
148 165 25
145 162 0
142 159 0
143 160 0
141 157 0
138 154 0
145 161 0
138 156 0
139 155 0
140 157 0
144 161 0
144 161 0
141 158 0
140 156 0
145 162 0
135 151 0
142 158 0
136 152 0
140 156 0
138 154 0
138 154 0
141 158 0
141 158 0
136 152 0
134 150 0
138 154 0
143 159 0
134 149 0
128 144 0
134 149 0
134 149 0
136 151 0
136 152 0
133 148 0
136 152 0
132 148 0
132 147 0
125 139 0
122 138 0
122 137 0
130 145 0
124 138 0
124 139 0
129 143 0
125 138 0
127 141 0
120 134 0
126 140 36
123 136 25
128 142 36
128 141 62
127 140 57
129 142 62
118 130 62
134 145 92
134 145 92
130 140 88
143 153 108
159 169 140
149 157 135
149 158 135
131 139 108
123 132 84
94 103 0
90 99 0
104 115 0
103 113 0
107 117 0
108 119 0
106 117 0
103 114 0
109 121 0
110 123 0
121 134 0
122 135 0
119 132 0
111 124 0
122 135 0
110 124 0
120 134 0
111 126 0
114 129 0
127 142 0
120 135 0
118 132 0
121 136 0
122 138 0
117 133 0
125 142 0
120 136 0
129 144 0
122 137 0
130 147 0
125 140 0
119 134 0
127 146 0
130 148 0
127 144 0
121 138 0
122 139 0
117 134 0
126 143 0
124 142 0
122 139 0
115 132 0
123 140 0
124 142 0
128 147 0
130 149 0
132 150 0
119 137 0
128 145 0
120 139 0
129 149 0
132 150 0
130 148 0
123 141 0
128 147 0
132 151 0
126 144 0
134 153 0
119 138 0
127 145 0
120 139 0
124 143 0
129 148 0
126 145 0
124 142 0
111 129 0
117 137 0
123 140 0
123 141 0
113 132 0
117 136 0
110 127 0
114 132 0
104 122 0
119 137 0
118 136 0
112 129 0
111 129 0
119 137 0
113 130 0
110 127 0
107 124 0
96 113 0
96 113 0
103 120 0
97 115 0
101 117 0
109 125 0
94 111 0
94 110 0
105 121 0
99 115 0
101 117 0
92 109 0
109 125 0
110 127 0
99 116 0
103 119 0
97 112 0
108 124 0
99 113 0
98 113 0
88 104 0
95 111 0
90 108 0
99 115 0
112 128 0
92 109 0
97 113 0
101 116 0
105 120 0
90 107 0
106 123 0
107 124 0
91 107 0
89 106 0
103 119 0
92 109 0
104 122 0
114 131 0
111 127 0
102 118 0
114 132 0
107 125 0
107 124 0
97 115 0
115 133 0
116 135 0
125 144 0
115 132 0
107 126 0
105 123 0
115 133 0
135 153 0
126 144 0
115 133 0
122 141 0
133 152 0
132 152 0
112 131 0
134 155 0
138 157 0
132 152 0
128 147 0
133 153 0
125 146 0
128 148 0
140 160 0
133 154 0
129 149 0
137 157 0
128 148 0
132 152 0
136 157 0
151 172 0
135 155 0
139 159 0
139 160 0
150 171 0
145 167 0
144 166 0
138 159 0
144 165 0
157 179 0
148 169 0
146 168 0
150 171 0
148 170 0
155 177 0
152 175 0
155 177 0
147 170 0
151 174 0
151 173 0
153 176 0
155 177 0
152 174 0
146 169 0
150 174 0
159 182 0
153 176 0
148 171 0
159 182 0
161 184 0
155 179 0
159 183 0
161 184 0
160 184 0
160 184 0
154 178 0
160 185 0
160 184 0
163 187 0
164 189 0
161 186 0
162 187 0
164 190 0
162 187 0
157 183 0
158 184 0
162 188 0
163 190 0
165 191 0
163 190 0
158 185 0
164 191 0
162 189 0
162 190 0
162 190 0
162 189 0
164 192 0
161 189 0
163 191 0
162 190 0
164 193 88
174 204 175
180 210 223
186 216 254
187 217 255
188 217 255
188 218 255
189 218 255
190 218 255
190 219 255
191 219 255
191 219 255
192 220 255
192 220 255
193 220 255
193 220 255
193 220 255
194 221 255
194 221 255
194 221 255
194 221 255
195 221 255
195 221 255
195 221 255
195 221 255
196 222 255
196 222 255
196 222 255
196 222 255
196 222 255
196 222 255
197 222 255
197 222 255
197 222 255
197 222 255
197 222 255
197 222 255
197 222 255
197 222 255
198 223 255
198 223 255
198 223 255
198 223 255
198 223 255
198 223 255
198 223 255
198 223 255
198 223 255
198 223 255
198 223 255
198 223 255
198 223 255
198 223 255
198 223 255
198 223 255
198 223 255
198 223 255
198 223 255
198 223 255
198 223 255
198 223 255
198 223 255
198 223 255
198 223 255
198 223 255
198 223 255
198 223 255
198 223 255
197 222 255
197 222 255
197 222 255
197 222 255
197 222 255
197 222 255
197 222 255
197 222 255
196 222 255
196 222 255
196 222 255
196 222 255
196 222 255
195 221 255
195 221 255
190 216 221
185 209 175
180 203 133
175 198 25
176 198 0
176 199 0
172 195 0
175 197 0
173 196 0
172 196 0
169 192 0
171 194 0
169 193 0
170 193 0
170 192 0
171 193 0
168 190 0
171 193 0
170 192 0
170 192 0
171 192 62
174 193 92
175 191 117
183 198 149
177 192 140
176 190 137
175 189 137
165 181 108
172 187 122
165 180 114
161 177 95
169 184 125
159 176 80
155 172 72
157 173 95
156 173 67
156 171 84
149 166 62
163 178 102
143 159 44
147 164 44
147 163 62
154 170 80
149 166 36
148 164 51
142 158 25
148 164 44
144 161 0
140 157 0
141 157 0
141 158 25
139 156 0
143 159 0
139 156 0
137 154 0
137 153 0
133 148 0
137 154 0
138 154 0
137 154 0
141 157 0
139 154 0
133 149 0
132 147 0
135 151 0
130 145 0
138 154 0
137 152 0
131 147 0
133 148 0
135 150 0
128 142 0
140 155 0
130 145 0
128 144 0
131 145 0
131 146 0
128 142 0
125 138 0
127 141 0
122 135 25
130 144 44
124 137 25
120 133 25
129 142 36
121 133 44
130 142 62
128 140 67
135 146 84
137 149 88
137 149 88
137 148 99
136 147 88
154 165 122
146 156 117
153 163 130
145 155 122
154 163 142
133 141 105
104 113 44
99 109 0
98 108 0
103 114 0
101 112 0
100 110 0
96 106 0
107 119 0
107 119 0
113 126 0
107 120 0
114 126 0
113 125 0
106 120 0
105 118 0
119 133 0
122 136 0
111 124 0
116 130 0
121 136 0
120 136 0
118 134 0
128 144 0
126 142 0
117 132 0
123 138 0
121 136 0
123 139 0
125 141 0
123 140 0
119 135 0
136 152 0
130 146 0
129 145 0
134 152 0
123 140 0
130 147 0
126 143 0
124 141 0
135 152 0
131 149 0
137 155 0
130 147 0
132 149 0
129 148 0
134 153 0
137 155 0
127 144 0
115 133 0
127 145 0
134 152 0
125 143 0
124 141 0
129 146 0
137 156 0
126 145 0
118 136 0
127 145 0
129 149 0
121 139 0
130 148 0
122 140 0
116 133 0
128 146 0
130 149 0
119 138 0
123 142 0
123 141 0
119 137 0
119 136 0
117 136 0
131 149 0
110 128 0
114 131 0
120 139 0
117 136 0
111 129 0
112 131 0
115 133 0
122 141 0
117 135 0
105 122 0
112 130 0
113 133 0
113 131 0
110 127 0
121 139 0
112 130 0
101 118 0
106 122 0
95 113 0
112 130 0
93 109 0
97 114 0
93 110 0
100 117 0
107 124 0
103 120 0
116 133 0
98 115 0
106 123 0
107 124 0
109 126 0
112 128 0
93 111 0
98 115 0
95 111 0
94 110 0
93 109 0
90 107 0
107 123 0
103 121 0
91 108 0
108 126 0
105 122 0
98 114 0
112 129 0
100 117 0
113 130 0
102 118 0
103 120 0
98 114 0
114 132 0
97 114 0
120 138 0
115 132 0
110 128 0
121 139 0
105 122 0
126 144 0
104 123 0
114 132 0
117 135 0
127 146 0
126 144 0
110 128 0
115 134 0
115 133 0
129 149 0
123 141 0
136 155 0
125 145 0
129 149 0
133 153 0
128 147 0
142 163 0
133 153 0
134 154 0
135 154 0
129 149 0
130 151 0
131 152 0
142 161 0
139 159 0
145 166 0
137 158 0
138 159 0
142 163 0
135 156 0
150 170 0
152 172 0
151 172 0
149 170 0
141 163 0
136 156 0
153 175 0
148 170 0
145 166 0
150 172 0
154 176 0
136 157 0
148 170 0
149 172 0
149 171 0
157 180 0
153 175 0
158 180 0
151 174 0
154 176 0
158 181 0
157 180 0
153 176 0
159 182 0
155 178 0
160 184 0
157 180 0
157 180 0
153 176 0
161 185 0
157 181 0
158 181 0
160 184 0
156 179 0
157 182 0
160 184 0
159 184 0
161 187 0
156 181 0
158 183 0
160 185 0
168 193 0
159 184 0
160 186 0
159 186 0
163 189 0
157 182 0
161 187 0
158 184 0
160 187 0
163 190 0
163 189 0
161 188 0
159 187 0
164 191 0
164 192 0
160 188 0
162 190 0
164 192 0
164 192 0
163 192 0
162 190 0
166 194 88
169 198 137
175 205 193
183 213 241
186 216 255
187 217 255
188 217 255
188 218 255
189 218 255
189 218 255
190 219 255
191 219 255
191 219 255
191 219 255
192 219 255
192 220 255
192 220 255
193 220 255
193 220 255
193 220 255
194 221 255
194 221 255
194 221 255
194 221 255
195 221 255
195 221 255
195 221 255
195 221 255
195 221 255
195 221 255
195 221 255
196 222 255
196 222 255
196 222 255
196 222 255
196 222 255
196 222 255
196 222 255
196 222 255
196 222 255
197 222 255
197 222 255
197 222 255
197 222 255
197 222 255
197 222 255
197 222 255
197 222 255
197 222 255
197 222 255
197 222 255
197 222 255
197 222 255
197 222 255
197 222 255
197 222 255
197 222 255
197 222 255
197 222 255
197 222 255
197 222 255
196 222 255
196 222 255
196 222 255
196 222 255
196 222 255
196 222 255
196 222 255
196 222 255
196 222 255
195 221 255
195 221 255
195 221 255
195 221 255
195 221 255
194 221 255
192 218 242
187 212 209
182 207 161
177 200 84
173 197 0
176 199 0
176 199 0
177 198 0
176 199 0
173 196 0
173 196 0
174 197 0
174 197 0
175 198 0
169 191 0
169 192 0
172 194 0
171 193 0
168 191 0
174 195 0
170 192 0
170 192 0
169 191 0
167 190 0
166 188 0
169 190 0
165 187 0
170 192 0
170 190 57
172 192 88
176 192 122
183 198 144
179 194 144
181 195 149
171 185 125
166 180 125
179 193 147
172 186 133
163 177 117
164 180 105
161 176 105
154 170 84
160 176 92
161 176 102
155 170 88
155 170 95
148 164 57
146 162 57
160 175 95
148 163 67
147 163 44
145 160 62
151 167 67
144 159 51
141 156 51
145 161 51
145 161 51
142 158 44
141 157 36
144 160 25
135 150 36
138 152 25
139 154 36
135 151 0
139 155 0
137 153 0
136 150 25
136 151 36
134 148 25
133 149 25
138 152 0
133 148 0
134 148 0
130 144 44
131 146 0
128 142 25
140 154 57
136 151 51
142 157 72
125 139 25
131 144 57
135 148 72
132 146 57
137 149 72
135 149 51
139 151 76
132 145 67
130 142 76
135 146 88
140 152 88
149 160 117
136 146 99
141 151 111
148 158 117
152 162 130
158 168 140
158 167 142
139 148 120
124 132 95
113 122 67
92 101 0
103 112 0
104 114 0
96 106 0
102 112 0
108 119 0
93 103 0
102 113 0
113 125 0
100 111 0
111 122 0
106 118 0
116 128 0
120 133 0
122 134 0
116 130 0
119 133 0
121 134 0
118 133 0
128 143 0
122 137 0
126 141 0
127 142 0
120 135 0
120 134 0
127 143 0
125 140 0
126 142 0
126 142 0
123 139 0
135 152 0
136 152 0
127 143 0
127 144 0
122 138 0
135 151 0
126 143 0
127 144 0
125 141 0
125 143 0
124 140 0
122 139 0
127 145 0
133 151 0
126 145 0
131 150 0
130 148 0
126 145 0
134 153 0
133 151 0
130 148 0
124 143 0
131 151 0
129 148 0
129 146 0
130 148 0
136 155 0
128 146 0
120 137 0
138 158 0
130 149 0
130 149 0
126 143 0
121 139 0
120 139 0
119 136 0
137 155 0
117 135 0
128 147 0
124 143 0
129 149 0
118 136 0
115 134 0
132 151 0
121 140 0
112 132 0
128 147 0
112 131 0
108 126 0
105 123 0
122 140 0
133 153 0
111 129 0
111 129 0
106 123 0
112 129 0
115 132 0
108 126 0
111 129 0
112 130 0
119 137 0
105 122 0
117 134 0
103 120 0
97 114 0
102 120 0
114 132 0
90 108 0
95 113 0
103 121 0
109 127 0
106 124 0
113 130 0
112 130 0
102 120 0
103 119 0
104 122 0
118 135 0
107 124 0
113 130 0
104 121 0
108 126 0
107 124 0
99 116 0
115 132 0
86 103 0
99 117 0
114 132 0
97 115 0
109 126 0
116 132 0
118 135 0
98 116 0
108 125 0
108 126 0
114 131 0
114 132 0
119 137 0
114 132 0
106 125 0
118 137 0
118 135 0
118 137 0
112 130 0
123 141 0
105 124 0
116 134 0
114 132 0
122 141 0
121 140 0
117 135 0
126 145 0
120 139 0
140 160 0
134 153 0
128 148 0
125 144 0
129 149 0
139 158 0
131 151 0
137 158 0
136 155 0
144 164 0
139 159 0
139 159 0
140 160 0
139 160 0
135 155 0
139 159 0
135 155 0
134 154 0
144 165 0
133 153 0
151 172 0
153 174 0
146 167 0
155 176 0
152 173 0
148 169 0
153 175 0
150 171 0
148 170 0
160 182 0
149 172 0
152 174 0
150 173 0
150 172 0
155 178 0
151 173 0
149 171 0
156 178 0
151 173 0
158 181 0
154 177 0
150 173 0
149 171 0
154 176 0
154 177 0
161 183 0
150 173 0
160 183 0
164 187 0
160 183 0
157 181 0
161 184 0
154 178 0
159 184 0
152 177 0
166 189 0
161 185 0
160 184 0
160 185 0
158 183 0
163 189 0
159 184 0
157 182 0
160 186 0
160 185 0
161 186 0
160 184 0
160 187 0
159 185 0
165 191 0
165 191 0
164 191 0
161 188 0
165 193 0
163 191 0
161 188 0
163 190 0
162 190 0
162 190 0
163 190 0
164 191 0
163 191 0
164 192 0
163 192 0
164 192 25
165 194 95
173 203 161
177 207 201
183 213 240
186 216 255
187 217 255
187 217 255
188 217 255
188 218 255
189 218 255
190 218 255
190 219 255
190 219 255
191 219 255
191 219 255
191 219 255
192 219 255
192 220 255
192 220 255
193 220 255
193 220 255
193 220 255
193 220 255
194 220 255
194 220 255
194 221 255
194 221 255
194 221 255
194 221 255
194 221 255
195 221 255
195 221 255
195 221 255
195 221 255
195 221 255
195 221 255
195 221 255
195 221 255
195 221 255
195 221 255
195 221 255
195 221 255
195 221 255
195 221 255
196 221 255
195 221 255
195 221 255
195 221 255
196 221 255
196 221 255
196 221 255
195 221 255
195 221 255
195 221 255
195 221 255
195 221 255
195 221 255
195 221 255
195 221 255
195 221 255
195 221 255
195 221 255
194 221 255
194 221 255
194 221 255
194 221 255
194 220 255
193 220 255
190 216 237
187 212 206
183 208 161
178 202 108
173 196 0
175 198 0
174 197 0
174 197 0
171 194 0
173 196 0
175 198 0
175 197 0
174 197 0
175 198 0
173 196 0
173 196 0
176 199 0
171 194 0
171 193 0
169 191 0
168 190 0
167 190 0
168 190 0
168 190 0
168 190 0
170 192 0
169 191 0
170 191 0
170 192 0
167 189 0
166 186 0
167 189 0
169 190 0
168 189 0
165 187 0
166 187 0
168 188 44
174 193 102
177 193 117
184 199 149
175 190 130
180 193 147
179 193 153
172 186 144
174 188 142
175 189 142
171 186 128
172 186 130
164 179 117
158 173 99
155 171 84
162 176 102
158 172 105
153 168 95
155 169 95
149 163 72
155 169 95
152 167 84
152 166 92
154 170 76
145 160 72
141 156 51
154 168 88
143 158 72
137 151 51
143 158 62
140 154 62
146 160 72
145 159 76
140 154 62
149 163 80
145 159 80
141 155 67
142 156 57
140 154 62
146 159 76
141 153 92
140 155 44
139 152 80
148 161 92
141 154 80
136 148 88
138 151 84
131 145 57
148 160 99
145 157 102
148 159 102
149 160 114
148 159 105
145 157 105
153 163 122
155 165 128
144 155 108
137 148 99
159 168 140
161 171 140
144 153 133
134 144 95
121 129 92
119 129 72
102 112 0
106 117 0
110 121 0
107 118 0
105 115 0
104 114 0
95 105 0
109 120 0
110 121 0
108 119 0
114 127 0
115 127 0
119 132 0
113 126 0
117 130 0
123 136 0
121 135 0
121 135 0
118 132 0
121 134 0
119 133 0
120 134 0
123 137 0
111 125 0
128 143 0
128 144 0
128 144 0
115 130 0
118 133 0
127 144 0
134 150 0
133 149 0
125 141 0
133 150 0
135 152 0
127 142 0
135 153 0
132 149 0
138 155 0
130 147 0
116 133 0
136 154 0
133 150 0
130 149 0
121 138 0
136 154 0
136 154 0
131 149 0
130 146 0
128 147 0
122 139 0
133 151 0
134 152 0
134 153 0
133 151 0
131 150 0
124 142 0
127 146 0
132 151 0
120 138 0
136 154 0
137 156 0
134 154 0
136 155 0
139 157 0
136 155 0
125 144 0
127 145 0
130 148 0
134 155 0
131 150 0
132 151 0
121 139 0
122 141 0
131 150 0
121 140 0
124 142 0
118 135 0
125 143 0
123 143 0
131 149 0
123 142 0
121 139 0
118 136 0
116 136 0
125 144 0
118 136 0
121 139 0
111 129 0
113 131 0
112 131 0
114 131 0
120 138 0
114 133 0
109 128 0
116 135 0
111 129 0
117 135 0
108 126 0
115 133 0
104 122 0
111 129 0
112 130 0
115 132 0
114 133 0
107 124 0
114 131 0
103 120 0
104 122 0
111 128 0
114 133 0
111 129 0
113 131 0
107 124 0
102 119 0
115 133 0
113 131 0
102 120 0
114 132 0
115 133 0
104 122 0
103 122 0
100 118 0
111 128 0
101 120 0
102 119 0
114 133 0
113 131 0
103 121 0
104 123 0
112 130 0
120 138 0
118 137 0
114 132 0
114 132 0
122 140 0
112 131 0
127 145 0
116 135 0
116 136 0
113 132 0
120 139 0
114 134 0
124 143 0
129 149 0
121 138 0
124 143 0
118 138 0
125 146 0
119 138 0
123 142 0
132 151 0
135 154 0
131 151 0
138 158 0
142 162 0
143 164 0
138 158 0
136 157 0
144 164 0
144 165 0
138 158 0
148 169 0
146 167 0
152 173 0
139 160 0
142 162 0
150 170 0
148 169 0
146 166 0
156 177 0
153 175 0
145 167 0
144 166 0
142 164 0
149 171 0
153 175 0
156 177 0
142 164 0
149 171 0
153 175 0
150 172 0
153 176 0
157 178 0
155 177 0
149 171 0
152 175 0
159 181 0
158 181 0
154 178 0
157 180 0
160 183 0
157 180 0
157 181 0
166 189 0
158 182 0
162 186 0
155 179 0
160 184 0
157 181 0
161 184 0
154 178 0
161 184 0
159 183 0
161 186 0
160 184 0
161 185 0
156 181 0
162 186 0
163 188 0
159 183 0
162 187 0
164 190 0
160 185 0
162 188 0
163 189 0
159 185 0
163 191 0
162 188 0
163 189 0
162 188 0
164 191 0
164 191 0
164 191 0
163 190 0
162 190 0
162 189 0
166 193 0
163 190 0
162 190 0
162 190 0
162 191 0
161 189 0
164 192 0
162 190 0
164 191 0
163 192 57
170 200 144
174 204 182
178 209 214
184 214 244
186 216 255
187 217 255
187 217 255
188 217 255
188 218 255
189 218 255
189 218 255
190 218 255
190 219 255
190 219 255
191 219 255
191 219 255
191 219 255
191 219 255
192 219 255
192 220 255
192 220 255
192 220 255
192 220 255
193 220 255
193 220 255
193 220 255
193 220 255
193 220 255
193 220 255
193 220 255
193 220 255
194 220 255
194 220 255
194 220 255
194 220 255
194 221 255
194 221 255
194 221 255
194 221 255
194 221 255
194 221 255
194 221 255
194 221 255
194 221 255
194 221 255
194 221 255
194 221 255
194 221 255
194 220 255
194 220 255
194 220 255
193 220 255
193 220 255
193 220 255
193 220 255
193 220 255
193 220 255
192 220 255
191 218 244
188 214 220
183 208 171
180 204 133
178 201 84
174 197 0
175 198 0
177 199 0
173 196 0
173 196 0
174 197 0
176 198 0
175 198 0
176 199 0
172 195 0
174 197 0
173 196 0
175 198 0
174 196 0
176 199 0
177 199 0
176 199 0
173 196 0
170 193 0
166 187 0
169 190 0
168 189 0
171 192 0
167 189 0
170 192 0
167 188 0
170 192 0
169 190 0
168 189 0
167 189 0
166 188 0
168 189 0
168 190 0
165 186 0
163 183 0
171 192 0
169 189 0
168 189 0
161 182 0
166 187 0
168 188 0
170 191 44
165 183 80
173 189 117
173 189 114
177 192 137
177 191 147
181 193 155
182 195 161
177 189 151
162 177 114
163 178 114
166 180 122
170 184 133
163 177 114
170 182 133
163 177 114
159 172 108
162 175 120
161 175 108
153 166 95
152 166 92
154 168 99
159 172 108
154 167 95
154 167 95
154 166 102
150 163 92
151 164 95
153 165 108
155 168 108
144 157 88
151 164 99
148 161 102
147 160 102
155 167 111
156 169 108
152 165 99
145 157 88
146 157 95
161 172 130
156 168 114
149 161 108
149 161 102
153 165 105
153 164 125
140 151 102
154 165 128
160 170 137
157 167 133
147 156 125
144 154 120
130 140 80
136 145 102
105 115 25
104 114 0
101 111 0
109 120 0
106 117 0
105 116 0
96 104 0
114 125 0
105 116 0
115 127 0
122 134 0
116 128 0
113 125 0
115 127 0
119 130 0
120 133 0
121 134 0
123 136 0
116 129 0
119 133 0
114 128 0
124 138 0
119 132 0
126 140 0
130 144 0
124 139 0
126 140 0
124 139 0
121 137 0
124 139 0
120 135 0
129 144 0
134 149 0
136 153 0
135 152 0
121 137 0
129 144 0
127 144 0
117 133 0
130 147 0
140 155 0
125 142 0
125 142 0
128 146 0
128 145 0
126 143 0
140 158 0
130 148 0
127 145 0
127 145 0
127 144 0
131 150 0
128 146 0
132 151 0
123 140 0
125 144 0
138 157 0
136 155 0
125 143 0
133 150 0
139 158 0
134 154 0
131 150 0
142 162 0
137 155 0
139 158 0
127 146 0
142 162 0
135 155 0
121 140 0
124 143 0
130 149 0
130 148 0
123 143 0
135 154 0
127 145 0
118 136 0
126 144 0
128 148 0
123 142 0
131 150 0
118 138 0
120 138 0
126 146 0
126 145 0
122 141 0
128 147 0
122 141 0
124 143 0
122 141 0
124 144 0
122 141 0
124 143 0
119 138 0
117 136 0
111 129 0
110 128 0
116 135 0
117 136 0
116 134 0
118 138 0
109 128 0
115 132 0
125 144 0
112 131 0
116 134 0
121 140 0
102 119 0
117 134 0
113 131 0
113 132 0
117 135 0
109 127 0
108 126 0
113 132 0
106 123 0
114 132 0
117 135 0
103 120 0
104 121 0
112 130 0
121 139 0
109 126 0
114 132 0
105 123 0
122 141 0
107 124 0
110 128 0
110 129 0
119 136 0
128 147 0
113 131 0
116 135 0
121 139 0
119 139 0
119 138 0
117 135 0
118 136 0
122 140 0
105 122 0
123 141 0
114 132 0
122 140 0
122 141 0
121 139 0
122 141 0
123 143 0
117 136 0
122 141 0
130 151 0
122 142 0
127 147 0
134 154 0
129 148 0
133 152 0
133 152 0
139 159 0
147 166 0
127 147 0
134 155 0
136 156 0
146 167 0
134 155 0
144 164 0
141 162 0
133 152 0
130 151 0
139 160 0
148 169 0
146 167 0
142 163 0
142 162 0
150 171 0
140 161 0
141 163 0
145 166 0
156 178 0
142 164 0
147 169 0
145 167 0
148 170 0
153 175 0
149 171 0
158 179 0
152 173 0
147 169 0
153 175 0
151 174 0
153 175 0
143 165 0
159 182 0
151 174 0
156 177 0
154 176 0
162 185 0
159 181 0
156 179 0
161 184 0
153 175 0
153 176 0
152 175 0
157 180 0
158 181 0
162 186 0
157 180 0
158 181 0
160 183 0
161 185 0
164 187 0
155 179 0
162 185 0
160 183 0
161 186 0
159 183 0
158 182 0
162 187 0
162 187 0
162 187 0
156 181 0
165 190 0
163 188 0
161 187 0
164 189 0
162 188 0
165 191 0
161 187 0
165 192 0
162 189 0
161 187 0
166 192 0
165 192 0
159 185 0
163 190 0
162 189 0
163 189 0
164 192 0
165 193 0
166 193 0
162 190 0
165 193 0
164 192 0
162 190 0
165 193 0
163 192 0
164 192 0
164 192 0
165 193 0
165 194 57
170 199 142
173 203 163
177 207 199
181 211 224
183 214 242
186 217 255
187 217 255
187 217 255
188 217 255
188 218 255
188 218 255
189 218 255
189 218 255
189 218 255
190 218 255
190 219 255
190 219 255
190 219 255
191 219 255
191 219 255
191 219 255
191 219 255
191 219 255
191 219 255
191 219 255
192 219 255
192 219 255
192 220 255
192 220 255
192 220 255
192 220 255
192 220 255
192 220 255
192 220 255
192 220 255
192 220 255
192 220 255
192 220 255
192 220 255
192 220 255
192 220 255
192 220 255
192 219 255
192 220 255
191 219 255
191 219 255
191 219 254
190 217 242
185 212 211
184 210 193
181 206 165
178 203 130
176 200 92
174 197 0
173 196 0
173 196 0
176 198 0
172 195 0
175 197 0
175 198 0
175 198 0
175 198 0
172 195 0
176 199 0
176 199 0
173 196 0
175 197 0
175 198 0
173 196 0
177 199 0
174 197 0
176 199 0
176 199 0
176 198 0
174 197 0
174 197 0
169 190 0
167 189 0
166 187 0
170 191 0
168 189 0
169 191 0
169 191 0
170 191 0
166 188 0
166 186 0
167 189 0
167 189 0
168 189 0
166 187 0
168 190 0
164 185 0
167 188 0
163 184 0
165 185 0
165 186 0
162 182 0
163 184 0
165 185 0
164 184 0
160 180 0
166 185 0
159 178 0
163 183 0
164 184 0
164 182 51
168 186 72
168 185 99
172 187 114
176 191 117
164 179 111
190 202 169
177 189 151
169 182 128
168 181 133
174 186 151
167 179 137
180 192 153
176 189 153
165 178 122
158 170 122
168 181 133
173 185 147
174 185 147
164 177 122
165 177 135
165 177 135
166 177 133
160 171 120
165 177 130
170 181 142
172 183 151
157 169 120
152 163 128
169 179 147
158 169 128
165 175 140
174 184 161
166 177 140
169 179 151
170 180 151
154 163 130
155 165 125
140 150 108
134 145 76
137 146 102
113 124 0
111 121 0
104 114 0
109 119 0
111 122 0
109 119 0
102 113 0
110 120 0
115 126 0
116 127 0
107 117 0
111 122 0
118 130 0
124 137 0
114 126 0
112 124 0
116 129 0
114 127 0
124 137 0
123 136 0
119 132 0
125 139 0
122 136 0
120 133 0
119 133 0
126 140 0
120 133 0
128 142 0
120 135 0
122 137 0
131 146 0
136 151 0
125 140 0
124 139 0
127 141 0
128 143 0
128 144 0
116 131 0
126 142 0
130 147 0
133 148 0
138 156 0
123 139 0
129 147 0
138 155 0
130 148 0
124 141 0
139 157 0
137 154 0
129 146 0
140 157 0
139 156 0
141 157 0
126 144 0
124 142 0
137 157 0
125 143 0
132 150 0
136 154 0
136 155 0
137 155 0
130 149 0
129 147 0
121 138 0
137 156 0
135 153 0
123 141 0
139 159 0
133 153 0
135 153 0
130 149 0
123 141 0
134 153 0
137 155 0
127 146 0
124 143 0
126 146 0
133 152 0
136 155 0
127 146 0
118 137 0
119 137 0
122 142 0
141 161 0
121 142 0
118 138 0
123 141 0
131 149 0
129 149 0
128 147 0
124 144 0
124 143 0
122 140 0
118 136 0
128 148 0
131 150 0
119 139 0
129 148 0
123 142 0
109 128 0
108 127 0
126 145 0
112 131 0
119 137 0
130 150 0
121 139 0
120 139 0
119 137 0
116 135 0
107 126 0
107 125 0
113 132 0
119 137 0
113 132 0
123 142 0
113 131 0
112 131 0
127 145 0
110 129 0
114 132 0
117 136 0
121 139 0
122 141 0
108 126 0
108 126 0
128 147 0
121 139 0
110 129 0
125 144 0
110 128 0
101 119 0
115 134 0
119 138 0
102 120 0
109 127 0
112 130 0
112 131 0
117 136 0
121 139 0
120 139 0
122 140 0
121 139 0
110 129 0
112 131 0
101 120 0
122 141 0
128 148 0
109 128 0
120 138 0
125 143 0
134 153 0
128 148 0
133 151 0
131 150 0
126 145 0
122 142 0
130 151 0
133 152 0
130 149 0
137 158 0
134 154 0
139 159 0
125 144 0
130 151 0
129 150 0
132 153 0
138 157 0
140 160 0
140 160 0
137 158 0
134 154 0
144 166 0
127 148 0
148 169 0
144 165 0
143 163 0
139 159 0
133 154 0
144 165 0
150 171 0
146 168 0
142 164 0
141 163 0
152 175 0
148 169 0
148 170 0
141 163 0
147 169 0
152 173 0
153 176 0
139 161 0
156 177 0
148 170 0
160 183 0
146 168 0
159 181 0
155 178 0
161 183 0
147 169 0
151 173 0
152 175 0
150 173 0
158 180 0
154 176 0
158 180 0
159 182 0
154 176 0
153 175 0
156 179 0
161 184 0
161 185 0
161 184 0
159 183 0
157 180 0
157 180 0
157 180 0
163 187 0
158 183 0
163 187 0
164 188 0
164 188 0
162 186 0
164 189 0
159 183 0
157 182 0
158 183 0
165 190 0
163 189 0
164 189 0
162 188 0
165 191 0
159 184 0
160 186 0
163 189 0
158 185 0
163 188 0
165 192 0
165 192 0
161 189 0
164 190 0
161 189 0
163 190 0
165 191 0
163 190 0
163 191 0
163 191 0
164 191 0
163 191 0
163 190 0
163 191 0
166 193 0
164 192 0
161 189 0
164 192 0
165 193 0
162 191 0
165 192 0
166 193 0
164 192 0
166 195 72
168 196 88
171 200 135
173 202 159
177 206 193
179 208 206
181 210 217
184 214 241
185 215 245
186 217 255
187 217 255
187 217 255
188 217 255
188 217 255
188 218 255
189 218 255
189 218 255
189 218 255
189 218 255
189 218 255
189 218 255
189 218 255
190 218 255
190 218 255
190 218 255
190 218 255
190 218 255
190 218 255
190 218 255
190 218 255
190 218 255
190 218 255
190 218 255
188 217 248
186 214 230
187 215 231
183 210 201
182 209 191
179 204 151
179 204 144
176 200 95
175 199 76
172 196 0
174 198 0
173 196 0
173 196 0
173 197 0
173 196 0
174 197 0
173 196 0
173 197 0
173 197 0
173 196 0
174 197 0
176 198 0
172 195 0
172 195 0
172 196 0
175 197 0
172 196 0
174 197 0
175 197 0
175 198 0
172 195 0
174 197 0
175 198 0
174 197 0
173 196 0
175 198 0
174 196 0
174 197 0
169 191 0
168 190 0
170 191 0
168 190 0
169 191 0
167 189 0
163 184 0
168 189 0
166 189 0
166 186 0
167 188 0
169 190 0
165 185 0
167 187 0
165 185 0
165 185 0
164 183 0
166 187 0
162 182 0
166 187 0
159 179 0
166 185 0
164 184 0
162 181 0
163 183 0
163 183 0
161 179 0
163 181 0
165 185 0
158 177 0
160 179 0
162 180 0
158 175 0
158 176 0
157 174 0
160 178 0
157 175 0
158 176 0
159 177 0
158 175 25
159 174 72
157 173 67
161 176 95
156 171 80
157 172 84
164 177 108
156 169 102
163 175 114
160 174 99
163 176 102
152 164 102
158 171 105
166 179 122
156 169 111
163 174 125
148 161 72
146 158 88
146 159 88
151 164 80
137 149 51
132 144 36
124 136 0
126 138 0
125 137 0
130 143 0
127 139 0
124 136 0
118 129 0
118 129 0
114 125 0
116 127 0
119 131 0
117 128 0
113 124 0
116 127 0
119 131 0
118 130 0
116 128 0
118 129 0
124 136 0
111 123 0
115 127 0
110 121 0
121 134 0
123 136 0
125 138 0
119 132 0
128 141 0
120 133 0
127 141 0
125 139 0
131 145 0
132 147 0
136 151 0
131 146 0
129 144 0
136 151 0
131 146 0
120 133 0
130 145 0
129 145 0
121 136 0
135 151 0
124 139 0
135 150 0
120 136 0
132 148 0
144 160 0
123 140 0
127 143 0
133 149 0
128 146 0
133 151 0
141 158 0
126 142 0
130 148 0
126 143 0
127 143 0
141 158 0
133 151 0
133 151 0
130 148 0
129 148 0
125 143 0
133 151 0
136 154 0
145 163 0
135 154 0
128 146 0
146 164 0
130 148 0
122 139 0
128 146 0
125 144 0
144 164 0
132 151 0
122 141 0
141 160 0
138 158 0
129 148 0
134 154 0
139 158 0
124 142 0
137 157 0
120 139 0
132 150 0
133 153 0
135 155 0
119 138 0
132 151 0
138 158 0
127 146 0
128 148 0
136 155 0
128 148 0
139 157 0
131 151 0
125 144 0
130 149 0
119 139 0
130 148 0
135 154 0
125 143 0
127 146 0
117 136 0
126 145 0
129 148 0
124 144 0
121 141 0
126 145 0
118 137 0
120 140 0
126 145 0
107 125 0
118 137 0
122 142 0
121 140 0
121 140 0
120 139 0
129 147 0
120 140 0
109 128 0
119 139 0
121 139 0
125 145 0
122 140 0
115 133 0
106 124 0
117 135 0
117 135 0
111 129 0
119 138 0
113 130 0
120 139 0
119 138 0
115 134 0
128 146 0
117 136 0
120 140 0
124 142 0
124 143 0
121 140 0
122 141 0
110 129 0
109 128 0
120 138 0
115 134 0
117 134 0
122 141 0
124 144 0
120 138 0
113 133 0
117 136 0
122 142 0
117 138 0
133 152 0
117 137 0
122 141 0
123 143 0
124 144 0
125 145 0
130 149 0
116 135 0
129 148 0
132 151 0
128 148 0
118 138 0
130 150 0
129 149 0
124 144 0
131 151 0
130 150 0
132 152 0
130 150 0
139 159 0
128 148 0
140 161 0
124 144 0
134 154 0
146 167 0
135 155 0
147 168 0
140 160 0
135 155 0
141 161 0
148 169 0
141 161 0
142 163 0
143 164 0
141 162 0
146 167 0
145 166 0
149 170 0
140 162 0
153 174 0
153 174 0
146 168 0
151 172 0
145 166 0
149 171 0
160 181 0
149 169 0
152 173 0
157 178 0
159 181 0
152 174 0
155 178 0
155 177 0
153 176 0
159 182 0
156 179 0
150 172 0
150 173 0
160 183 0
153 175 0
159 182 0
152 175 0
154 177 0
156 179 0
158 181 0
158 182 0
159 183 0
159 182 0
158 181 0
156 179 0
164 187 0
155 178 0
161 185 0
162 186 0
165 189 0
160 184 0
161 186 0
160 184 0
156 181 0
157 182 0
164 189 0
167 191 0
160 184 0
164 189 0
164 189 0
164 189 0
163 189 0
164 189 0
164 189 0
164 189 0
160 185 0
164 190 0
165 192 0
166 192 0
162 187 0
163 190 0
162 189 0
165 192 0
165 193 0
164 191 0
165 193 0
164 191 0
167 193 0
164 191 0
164 191 0
163 191 0
164 192 0
166 193 0
164 192 0
166 193 0
166 193 0
165 193 0
165 193 0
166 193 0
165 192 0
165 193 0
165 192 0
165 192 0
164 192 0
167 194 0
167 194 0
166 193 0
166 193 0
168 195 44
169 196 76
168 196 80
169 197 102
172 200 125
174 201 142
173 201 135
175 203 157
176 203 149
177 205 173
177 205 175
176 204 165
178 205 161
178 206 175
177 204 153
177 204 157
177 204 163
177 203 140
175 202 130
173 200 122
174 200 111
174 199 102
173 198 72
172 197 36
173 197 0
172 197 0
172 196 0
172 196 0
174 197 0
171 196 0
172 196 0
174 198 0
174 197 0
174 197 0
173 197 0
172 195 0
172 195 0
175 198 0
174 198 0
174 197 0
175 198 0
173 195 0
175 198 0
171 194 0
175 198 0
176 199 0
175 197 0
174 197 0
171 193 0
173 197 0
174 197 0
173 196 0
175 198 0
173 196 0
175 198 0
177 199 0
175 198 0
173 196 0
174 195 0
170 194 0
173 196 0
176 199 0
167 189 0
167 190 0
166 187 0
167 188 0
169 191 0
169 190 0
167 189 0
166 187 0
168 188 0
164 185 0
167 187 0
166 186 0
163 183 0
165 186 0
164 185 0
162 181 0
165 185 0
165 184 0
163 183 0
164 185 0
167 186 0
163 182 0
158 177 0
164 183 0
160 179 0
162 181 0
160 180 0
161 180 0
161 179 0
164 183 0
158 176 0
158 176 0
159 177 0
160 177 0
158 176 0
150 168 0
157 175 0
154 171 0
153 171 0
150 167 0
148 164 0
150 166 0
150 167 0
154 170 0
151 167 0
152 168 0
149 165 0
153 169 0
140 154 0
145 159 0
145 160 0
139 153 0
143 158 0
146 161 0
139 152 0
138 151 0
131 145 0
124 136 0
127 140 0
130 144 0
133 146 0
135 148 0
129 142 0
131 143 0
120 132 0
118 130 0
125 138 0
131 143 0
115 126 0
127 140 0
129 142 0
119 131 0
120 132 0
122 134 0
128 140 0
122 135 0
122 134 0
124 137 0
129 142 0
133 146 0
118 131 0
125 138 0
123 136 0
121 134 0
124 137 0
132 146 0
124 139 0
128 142 0
131 145 0
130 144 0
127 142 0
127 142 0
129 143 0
138 154 0
137 152 0
137 153 0
127 141 0
135 151 0
134 150 0
130 145 0
125 141 0
129 145 0
135 151 0
135 151 0
135 151 0
135 152 0
129 146 0
126 142 0
143 161 0
129 146 0
128 145 0
137 155 0
127 145 0
135 154 0
138 157 0
138 155 0
130 147 0
129 146 0
133 151 0
127 145 0
137 156 0
137 156 0
140 159 0
132 150 0
133 152 0
122 139 0
137 155 0
131 150 0
131 150 0
130 149 0
136 155 0
130 149 0
135 153 0
138 157 0
133 152 0
127 146 0
133 152 0
134 153 0
132 150 0
134 153 0
136 155 0
131 149 0
139 158 0
128 147 0
125 144 0
132 152 0
139 159 0
134 153 0
128 148 0
134 154 0
124 143 0
124 144 0
134 154 0
125 143 0
128 149 0
125 144 0
127 147 0
132 151 0
131 151 0
125 144 0
132 151 0
122 142 0
121 141 0
117 137 0
122 142 0
127 146 0
134 154 0
118 137 0
118 137 0
132 152 0
117 136 0
114 133 0
112 132 0
130 149 0
129 149 0
123 142 0
120 139 0
113 132 0
119 138 0
124 142 0
111 131 0
128 148 0
112 131 0
122 141 0
120 139 0
128 147 0
120 139 0
115 134 0
133 153 0
122 140 0
112 131 0
117 136 0
124 142 0
134 153 0
111 130 0
109 128 0
125 143 0
118 138 0
128 147 0
126 145 0
111 130 0
119 138 0
118 137 0
130 149 0
120 138 0
121 140 0
114 132 0
131 151 0
125 144 0
122 141 0
120 139 0
124 143 0
124 144 0
128 148 0
119 140 0
123 141 0
118 137 0
125 144 0
119 140 0
123 142 0
124 146 0
135 155 0
129 150 0
124 143 0
123 143 0
121 141 0
130 150 0
122 142 0
127 148 0
135 155 0
133 154 0
134 153 0
139 160 0
138 158 0
137 158 0
135 155 0
147 168 0
143 164 0
134 155 0
146 167 0
138 159 0
144 165 0
139 160 0
144 165 0
142 163 0
142 163 0
140 160 0
150 171 0
138 159 0
143 164 0
151 172 0
140 162 0
144 165 0
146 167 0
156 178 0
145 167 0
150 172 0
151 173 0
150 172 0
153 175 0
146 167 0
149 171 0
147 169 0
155 177 0
146 168 0
156 179 0
150 171 0
153 176 0
151 173 0
161 184 0
160 182 0
151 173 0
160 184 0
153 175 0
151 174 0
156 178 0
159 182 0
157 180 0
163 185 0
154 177 0
157 180 0
162 185 0
156 179 0
160 183 0
164 188 0
159 183 0
156 179 0
166 190 0
163 186 0
161 185 0
157 182 0
168 192 0
156 180 0
163 187 0
157 182 0
164 188 0
166 189 0
163 188 0
160 185 0
165 190 0
163 187 0
166 191 0
165 190 0
163 189 0
161 187 0
166 191 0
167 192 0
161 188 0
165 190 0
169 195 0
166 192 0
164 191 0
165 192 0
162 189 0
162 188 0
165 191 0
166 193 0
167 194 0
166 193 0
166 193 0
166 193 0
166 192 0
164 190 0
165 192 0
168 195 0
164 191 0
164 192 0
166 193 0
166 194 0
166 194 0
164 192 0
166 193 0
165 193 0
167 194 0
166 193 0
165 193 0
166 194 0
167 194 0
166 193 0
168 194 0
167 194 0
167 194 0
168 195 0
169 195 0
167 194 0
166 193 0
170 195 0
168 194 0
169 195 0
168 194 0
169 195 0
170 195 0
170 195 0
169 195 0
170 196 0
171 196 0
169 195 0
170 196 0
171 196 0
171 196 0
170 196 0
169 195 0
170 195 0
173 197 0
172 196 0
173 197 0
172 196 0
172 197 0
174 197 0
173 197 0
174 197 0
171 196 0
173 197 0
173 197 0
173 197 0
175 198 0
171 195 0
173 196 0
173 197 0
174 198 0
174 197 0
174 198 0
174 197 0
172 195 0
175 198 0
174 197 0
173 196 0
176 199 0
174 197 0
175 198 0
172 196 0
175 197 0
174 197 0
174 197 0
173 196 0
174 197 0
173 196 0
173 196 0
174 197 0
176 198 0
168 189 0
163 185 0
167 189 0
168 190 0
165 185 0
168 189 0
166 187 0
166 186 0
163 183 0
164 184 0
164 185 0
162 183 0
165 185 0
164 184 0
166 185 0
164 184 0
167 187 0
164 184 0
163 183 0
160 181 0
163 182 0
160 179 0
162 180 0
163 183 0
163 183 0
158 177 0
161 180 0
162 180 0
159 177 0
162 181 0
158 175 0
160 179 0
152 169 0
158 176 0
158 176 0
155 172 0
156 173 0
155 172 0
156 173 0
155 172 0
153 169 0
151 167 0
153 169 0
152 167 0
147 162 0
145 161 0
142 156 0
148 164 0
150 165 0
140 154 0
140 154 0
146 161 0
144 158 0
143 158 0
133 146 0
132 146 0
131 145 0
134 148 0
134 147 0
128 141 0
129 142 0
130 143 0
133 146 0
138 151 0
133 146 0
122 135 0
128 140 0
126 139 0
117 129 0
118 130 0
120 132 0
131 145 0
121 134 0
124 137 0
130 142 0
122 135 0
124 136 0
122 135 0
130 144 0
128 142 0
128 141 0
128 141 0
120 134 0
121 134 0
126 140 0
129 143 0
127 143 0
127 141 0
126 142 0
133 148 0
130 145 0
137 152 0
129 144 0
129 144 0
134 149 0
129 145 0
129 144 0
134 150 0
139 154 0
127 144 0
137 153 0
142 159 0
129 146 0
132 149 0
132 149 0
131 148 0
141 158 0
130 147 0
137 155 0
133 150 0
129 147 0
135 153 0
137 155 0
133 151 0
147 166 0
127 145 0
128 147 0
132 150 0
129 147 0
125 143 0
136 154 0
134 153 0
134 153 0
138 157 0
137 156 0
132 150 0
136 155 0
139 158 0
137 157 0
126 145 0
137 156 0
137 156 0
133 152 0
140 159 0
132 152 0
137 156 0
133 152 0
133 152 0
133 152 0
136 155 0
139 157 0
138 158 0
127 147 0
138 158 0
140 159 0
123 142 0
138 159 0
132 152 0
139 159 0
134 154 0
133 153 0
125 143 0
133 152 0
138 158 0
130 150 0
140 160 0
125 146 0
126 146 0
125 146 0
137 157 0
125 144 0
135 154 0
138 158 0
134 153 0
126 146 0
128 148 0
124 144 0
126 144 0
126 145 0
128 148 0
118 137 0
131 151 0
120 139 0
137 157 0
127 147 0
131 150 0
126 145 0
123 143 0
127 146 0
119 139 0
135 154 0
122 141 0
132 151 0
121 141 0
126 145 0
137 157 0
117 137 0
122 141 0
117 136 0
110 129 0
114 134 0
116 134 0
119 139 0
111 131 0
127 146 0
121 140 0
118 137 0
121 140 0
128 148 0
118 138 0
130 149 0
120 139 0
124 145 0
114 134 0
134 154 0
129 149 0
123 141 0
120 139 0
111 131 0
129 147 0
116 136 0
134 154 0
130 150 0
128 149 0
127 145 0
125 144 0
129 150 0
127 146 0
141 161 0
138 158 0
130 149 0
138 158 0
125 145 0
138 158 0
122 142 0
131 150 0
133 153 0
127 148 0
131 150 0
134 155 0
129 149 0
136 156 0
136 156 0
136 157 0
128 148 0
132 153 0
137 158 0
135 157 0
128 149 0
132 152 0
139 160 0
137 159 0
139 161 0
142 162 0
138 158 0
142 163 0
143 165 0
145 166 0
153 175 0
146 167 0
146 168 0
147 168 0
143 164 0
147 168 0
152 173 0
150 172 0
155 176 0
146 168 0
144 166 0
155 176 0
152 174 0
155 178 0
158 180 0
154 175 0
155 177 0
161 183 0
158 180 0
151 174 0
159 181 0
156 179 0
154 177 0
164 187 0
158 181 0
159 180 0
154 177 0
161 184 0
163 186 0
158 181 0
156 178 0
160 183 0
160 184 0
163 186 0
158 181 0
158 181 0
162 185 0
162 185 0
164 187 0
163 187 0
161 185 0
152 175 0
160 184 0
159 183 0
161 185 0
159 183 0
163 187 0
166 191 0
161 184 0
162 186 0
164 189 0
163 188 0
158 182 0
162 186 0
165 190 0
164 189 0
164 189 0
162 187 0
165 191 0
165 191 0
163 189 0
165 190 0
167 194 0
162 188 0
165 191 0
164 190 0
165 190 0
165 190 0
168 194 0
167 193 0
166 193 0
164 191 0
165 192 0
166 192 0
164 192 0
167 194 0
165 191 0
166 193 0
166 192 0
166 193 0
165 193 0
167 194 0
165 193 0
167 194 0
166 194 0
167 194 0
166 193 0
166 193 0
166 193 0
167 194 0
168 194 0
167 194 0
167 194 0
167 194 0
168 194 0
168 194 0
168 195 0
167 194 0
169 195 0
168 194 0
169 195 0
169 195 0
169 195 0
169 195 0
167 194 0
169 195 0
169 195 0
172 197 0
170 195 0
171 196 0
170 195 0
170 195 0
172 197 0
173 197 0
169 195 0
172 196 0
172 197 0
171 196 0
173 197 0
173 197 0
174 198 0
174 198 0
173 197 0
172 196 0
172 196 0
173 197 0
173 197 0
174 198 0
174 198 0
172 197 0
174 198 0
173 197 0
172 196 0
176 198 0
170 194 0
175 198 0
172 195 0
175 198 0
175 197 0
174 197 0
174 197 0
174 197 0
173 197 0
174 197 0
173 196 0
174 197 0
174 197 0
175 198 0
175 198 0
173 196 0
175 197 0
172 196 0
167 188 0
162 183 0
166 188 0
167 188 0
165 186 0
166 187 0
165 186 0
167 188 0
166 186 0
164 185 0
163 183 0
167 188 0
166 187 0
163 183 0
163 182 0
161 180 0
165 185 0
163 185 0
161 181 0
164 183 0
162 183 0
160 180 0
160 178 0
162 181 0
160 178 0
160 179 0
156 174 0
160 178 0
157 176 0
159 177 0
161 179 0
156 173 0
159 177 0
155 171 0
154 171 0
157 174 0
152 169 0
153 171 0
147 163 0
152 168 0
153 170 0
148 164 0
150 166 0
148 163 0
149 165 0
139 154 0
147 162 0
143 158 0
145 160 0
139 153 0
143 157 0
140 153 0
140 155 0
127 141 0
139 152 0
141 156 0
140 153 0
129 142 0
135 148 0
137 151 0
128 141 0
130 143 0
131 144 0
131 144 0
125 137 0
129 142 0
131 144 0
131 144 0
129 142 0
132 145 0
135 149 0
116 129 0
137 151 0
124 137 0
126 139 0
125 138 0
132 146 0
124 139 0
132 146 0
131 145 0
126 139 0
137 151 0
129 143 0
124 138 0
138 153 0
135 151 0
130 145 0
129 144 0
133 149 0
130 146 0
130 146 0
131 146 0
136 152 0
140 155 0
137 153 0
134 149 0
129 144 0
131 147 0
127 144 0
135 152 0
135 151 0
135 152 0
138 156 0
131 147 0
132 149 0
137 154 0
143 161 0
139 157 0
136 153 0
130 148 0
129 148 0
145 164 0
135 152 0
129 146 0
138 156 0
138 156 0
140 158 0
143 162 0
136 154 0
136 154 0
131 151 0
139 157 0
144 163 0
125 144 0
134 153 0
140 160 0
127 146 0
137 155 0
136 155 0
136 155 0
135 154 0
144 163 0
128 148 0
132 151 0
136 158 0
139 158 0
141 161 0
139 158 0
134 154 0
138 158 0
135 155 0
137 158 0
125 145 0
139 159 0
130 150 0
135 156 0
139 159 0
142 161 0
129 149 0
129 149 0
138 158 0
137 158 0
131 151 0
135 155 0
132 152 0
130 150 0
140 159 0
142 162 0
140 159 0
139 159 0
137 157 0
122 141 0
131 151 0
129 148 0
128 147 0
134 152 0
120 140 0
132 151 0
126 146 0
133 153 0
124 143 0
127 147 0
113 133 0
125 145 0
125 146 0
126 145 0
124 144 0
123 143 0
121 142 0
126 145 0
129 149 0
119 139 0
127 147 0
124 144 0
115 133 0
122 141 0
125 144 0
119 138 0
125 144 0
122 141 0
122 141 0
120 139 0
127 148 0
129 149 0
123 142 0
112 131 0
118 139 0
117 136 0
108 127 0
119 138 0
141 161 0
120 139 0
124 144 0
125 144 0
123 143 0
133 154 0
123 143 0
123 143 0
124 143 0
117 136 0
127 147 0
135 155 0
129 149 0
131 151 0
124 144 0
125 144 0
120 140 0
126 146 0
128 148 0
117 137 0
127 146 0
132 152 0
126 147 0
127 147 0
124 144 0
142 163 0
135 155 0
139 159 0
135 156 0
137 157 0
134 154 0
136 157 0
143 164 0
142 163 0
139 159 0
129 150 0
133 153 0
151 171 0
138 158 0
137 156 0
136 158 0
145 166 0
145 166 0
147 168 0
149 170 0
144 166 0
141 162 0
144 166 0
159 181 0
142 162 0
151 172 0
147 168 0
156 178 0
144 165 0
142 164 0
154 175 0
142 163 0
146 168 0
155 177 0
160 181 0
150 172 0
153 175 0
153 175 0
151 172 0
145 167 0
149 171 0
156 177 0
155 177 0
157 178 0
154 176 0
159 182 0
158 180 0
153 176 0
155 177 0
148 170 0
157 180 0
156 178 0
154 178 0
157 179 0
157 180 0
156 179 0
156 180 0
154 176 0
158 181 0
160 182 0
160 183 0
161 184 0
157 180 0
156 179 0
162 185 0
163 186 0
159 182 0
161 185 0
162 186 0
161 184 0
162 185 0
163 187 0
162 187 0
158 182 0
165 190 0
162 186 0
162 186 0
166 191 0
163 187 0
166 191 0
161 186 0
166 192 0
166 190 0
166 192 0
167 192 0
165 191 0
168 194 0
167 193 0
164 190 0
161 186 0
162 188 0
163 189 0
165 191 0
162 188 0
166 193 0
165 191 0
166 192 0
165 192 0
165 192 0
167 194 0
165 192 0
168 195 0
168 195 0
167 194 0
163 190 0
166 192 0
166 192 0
168 194 0
167 194 0
167 194 0
168 194 0
167 194 0
167 194 0
166 193 0
169 195 0
166 194 0
168 194 0
167 194 0
170 195 0
166 193 0
168 194 0
168 195 0
168 195 0
167 194 0
169 195 0
168 194 0
168 194 0
168 194 0
169 195 0
170 195 0
170 196 0
170 196 0
171 196 0
169 195 0
170 195 0
171 196 0
170 195 0
170 195 0
172 197 0
171 196 0
172 197 0
173 197 0
172 196 0
173 197 0
173 197 0
172 196 0
173 197 0
172 196 0
173 197 0
173 197 0
173 196 0
173 197 0
174 197 0
172 196 0
174 198 0
176 198 0
175 198 0
175 198 0
173 197 0
176 198 0
173 196 0
173 197 0
172 196 0
175 198 0
175 198 0
173 195 0
172 195 0
175 198 0
176 199 0
174 197 0
173 197 0
174 198 0
174 197 0
173 197 0
173 196 0
169 191 0
166 186 0
169 189 0
166 186 0
167 187 0
166 187 0
170 190 0
163 183 0
165 185 0
168 188 0
166 185 0
162 182 0
166 186 0
167 187 0
164 184 0
162 182 0
164 184 0
164 184 0
161 180 0
161 181 0
159 178 0
161 180 0
158 176 0
162 181 0
157 175 0
163 181 0
158 176 0
161 178 0
157 175 0
156 174 0
162 181 0
154 171 0
151 168 0
148 164 0
151 169 0
153 170 0
156 173 0
150 166 0
145 161 0
153 170 0
156 172 0
156 172 0
149 165 0
151 167 0
146 161 0
146 161 0
146 161 0
141 156 0
146 161 0
137 152 0
146 161 0
142 156 0
146 161 0
141 155 0
138 152 0
138 153 0
136 150 0
137 151 0
131 145 0
139 152 0
134 148 0
139 153 0
127 140 0
135 148 0
122 135 0
123 136 0
135 148 0
133 146 0
127 141 0
130 143 0
137 152 0
129 142 0
126 140 0
134 148 0
136 151 0
132 147 0
125 138 0
135 150 0
130 143 0
147 162 0
139 154 0
129 144 0
133 147 0
136 152 0
125 140 0
141 156 0
128 144 0
140 157 0
135 150 0
138 153 0
127 143 0
139 156 0
139 156 0
131 148 0
140 157 0
131 147 0
138 155 0
133 150 0
139 157 0
139 156 0
137 155 0
126 143 0
140 157 0
144 162 0
139 157 0
130 147 0
141 159 0
137 154 0
135 153 0
133 151 0
142 161 0
142 160 0
136 153 0
134 153 0
139 158 0
136 154 0
132 150 0
134 151 0
133 151 0
135 154 0
130 149 0
138 157 0
131 149 0
131 149 0
137 156 0
142 162 0
141 160 0
137 156 0
142 161 0
136 154 0
131 151 0
132 151 0
127 147 0
136 154 0
141 160 0
124 143 0
135 156 0
129 148 0
140 160 0
132 152 0
134 154 0
137 157 0
134 154 0
142 163 0
139 160 0
135 155 0
141 161 0
137 157 0
126 145 0
137 157 0
128 149 0
135 155 0
131 150 0
131 151 0
132 152 0
138 159 0
122 141 0
117 136 0
120 138 0
126 147 0
139 161 0
127 145 0
129 148 0
134 155 0
135 155 0
131 151 0
133 153 0
132 152 0
128 148 0
124 144 0
123 143 0
127 147 0
133 153 0
132 151 0
128 147 0
136 157 0
123 143 0
125 145 0
130 150 0
129 149 0
124 144 0
124 144 0
123 144 0
121 140 0
128 147 0
132 153 0
130 151 0
120 138 0
123 143 0
134 154 0
133 152 0
124 142 0
128 147 0
135 154 0
125 144 0
131 150 0
125 145 0
116 135 0
130 150 0
123 142 0
133 154 0
122 141 0
114 134 0
121 141 0
121 141 0
124 144 0
129 148 0
141 161 0
122 141 0
123 143 0
133 154 0
131 150 0
118 138 0
138 158 0
132 153 0
129 149 0
132 153 0
139 159 0
140 161 0
123 143 0
131 150 0
135 154 0
138 158 0
145 166 0
140 159 0
140 160 0
139 159 0
144 164 0
134 154 0
135 156 0
149 169 0
139 159 0
127 147 0
145 166 0
146 166 0
140 160 0
129 149 0
137 158 0
144 165 0
135 156 0
129 151 0
146 168 0
152 174 0
148 170 0
143 164 0
147 168 0
153 174 0
149 171 0
157 178 0
142 162 0
147 168 0
144 166 0
148 171 0
150 171 0
146 167 0
150 172 0
141 164 0
150 172 0
153 175 0
153 175 0
149 171 0
144 167 0
154 176 0
151 173 0
153 175 0
161 183 0
147 168 0
157 178 0
156 179 0
155 178 0
146 168 0
156 179 0
159 181 0
159 181 0
159 182 0
158 180 0
164 186 0
157 179 0
156 178 0
152 175 0
153 175 0
155 177 0
157 180 0
161 183 0
158 181 0
159 182 0
163 186 0
154 177 0
164 186 0
154 177 0
163 187 0
161 185 0
163 187 0
159 182 0
166 190 0
164 187 0
160 183 0
160 185 0
162 186 0
160 184 0
165 190 0
163 187 0
163 187 0
166 190 0
162 187 0
162 187 0
163 188 0
163 189 0
164 190 0
167 192 0
163 188 0
164 190 0
161 186 0
167 192 0
162 187 0
167 192 0
166 191 0
164 190 0
165 191 0
167 193 0
166 193 0
166 192 0
163 189 0
166 192 0
166 192 0
163 189 0
167 193 0
167 193 0
163 190 0
166 193 0
168 194 0
167 194 0
166 193 0
166 192 0
166 192 0
167 194 0
166 193 0
165 192 0
167 194 0
168 194 0
167 194 0
167 194 0
169 195 0
168 194 0
168 194 0
169 195 0
167 194 0
167 194 0
169 194 0
168 194 0
169 195 0
169 195 0
170 195 0
169 195 0
168 194 0
171 196 0
170 196 0
171 196 0
171 196 0
171 196 0
171 196 0
170 196 0
172 196 0
172 197 0
172 197 0
173 197 0
172 197 0
172 197 0
172 196 0
171 196 0
170 195 0
173 197 0
172 197 0
172 197 0
172 197 0
173 197 0
173 197 0
173 196 0
171 195 0
172 196 0
173 197 0
174 198 0
173 197 0
175 198 0
174 198 0
174 198 0
175 198 0
174 197 0
175 198 0
175 198 0
174 198 0
176 198 0
175 198 0
174 198 0
175 198 0
174 198 0
175 197 0
174 197 0
173 197 0
173 197 0
168 189 0
164 184 0
166 187 0
164 184 0
165 186 0
166 187 0
164 184 0
166 185 0
168 188 0
167 187 0
165 184 0
165 184 0
166 185 0
162 181 0
163 182 0
161 180 0
161 180 0
161 180 0
161 180 0
158 177 0
161 180 0
159 176 0
161 178 0
158 176 0
158 176 0
160 178 0
154 172 0
161 179 0
161 180 0
157 174 0
155 172 0
148 165 0
151 168 0
152 170 0
158 175 0
143 160 0
151 168 0
155 171 0
155 171 0
151 166 0
149 165 0
146 162 0
147 163 0
145 160 0
139 154 0
146 161 0
142 158 0
145 160 0
142 157 0
143 157 0
140 154 0
140 154 0
141 155 0
132 147 0
139 153 0
144 158 0
142 156 0
138 152 0
137 151 0
129 142 0
133 147 0
136 149 0
142 156 0
124 138 0
134 149 0
127 140 0
139 154 0
140 154 0
145 159 0
135 150 0
136 151 0
131 145 0
140 154 0
137 152 0
131 146 0
135 151 0
139 154 0
143 158 0
134 149 0
143 160 0
138 153 0
137 153 0
135 151 0
129 144 0
142 158 0
137 153 0
131 146 0
136 153 0
135 152 0
139 155 0
142 158 0
134 151 0
142 159 0
138 153 0
140 158 0
129 146 0
138 155 0
134 150 0
134 151 0
138 155 0
142 159 0
133 150 0
135 153 0
138 155 0
144 161 0
143 162 0
141 159 0
136 154 0
134 151 0
141 160 0
129 148 0
136 154 0
142 161 0
144 163 0
136 155 0
138 156 0
140 159 0
137 157 0
143 163 0
144 163 0
128 147 0
141 159 0
144 163 0
142 162 0
144 165 0
140 159 0
141 161 0
129 150 0
140 159 0
131 150 0
145 163 0
138 158 0
142 163 0
134 154 0
134 153 0
138 159 0
133 153 0
135 155 0
131 151 0
137 157 0
137 157 0
137 157 0
137 158 0
135 155 0
137 156 0
140 161 0
140 160 0
140 160 0
142 162 0
128 148 0
130 150 0
136 156 0
138 159 0
142 163 0
127 147 0
134 155 0
145 165 0
138 158 0
128 147 0
128 147 0
131 151 0
119 139 0
128 148 0
131 151 0
131 150 0
134 154 0
119 140 0
133 153 0
129 149 0
136 156 0
137 157 0
131 151 0
130 148 0
126 147 0
134 155 0
133 153 0
135 156 0
127 147 0
124 144 0
128 148 0
135 154 0
132 152 0
120 139 0
131 151 0
126 147 0
126 145 0
138 158 0
125 145 0
125 145 0
119 138 0
119 139 0
130 150 0
139 158 0
133 153 0
127 147 0
127 148 0
135 154 0
128 147 0
132 152 0
130 150 0
132 153 0
125 144 0
126 145 0
120 141 0
121 141 0
130 150 0
124 144 0
127 147 0
124 144 0
124 144 0
127 147 0
135 155 0
127 147 0
131 152 0
134 155 0
128 147 0
131 152 0
136 157 0
132 152 0
130 151 0
131 151 0
131 152 0
134 155 0
132 152 0
138 159 0
133 154 0
139 159 0
132 152 0
134 154 0
131 151 0
139 159 0
140 161 0
138 158 0
144 165 0
147 167 0
144 165 0
128 148 0
141 161 0
149 170 0
143 164 0
143 164 0
153 175 0
147 167 0
147 167 0
147 167 0
140 160 0
148 170 0
149 170 0
145 166 0
133 155 0
146 168 0
142 164 0
148 170 0
145 167 0
147 170 0
146 167 0
150 172 0
147 168 0
160 182 0
151 172 0
158 180 0
152 174 0
155 176 0
152 175 0
156 178 0
151 172 0
152 174 0
150 172 0
158 181 0
159 181 0
156 178 0
154 176 0
157 180 0
157 179 0
156 179 0
166 188 0
161 183 0
157 179 0
158 180 0
159 181 0
161 184 0
159 181 0
159 182 0
163 186 0
161 184 0
154 177 0
162 186 0
163 186 0
161 184 0
165 188 0
159 183 0
161 184 0
155 178 0
160 183 0
159 182 0
159 183 0
160 184 0
163 186 0
161 185 0
161 186 0
160 185 0
166 190 0
165 189 0
159 182 0
161 185 0
160 185 0
167 191 0
164 188 0
167 192 0
165 190 0
164 188 0
164 188 0
164 190 0
167 192 0
168 193 0
165 190 0
163 187 0
159 184 0
166 191 0
166 192 0
164 191 0
163 189 0
168 194 0
164 188 0
161 187 0
168 193 0
167 193 0
164 191 0
167 193 0
165 191 0
167 193 0
166 192 0
168 195 0
167 194 0
167 193 0
167 193 0
167 193 0
166 193 0
168 194 0
169 195 0
167 193 0
167 194 0
168 194 0
166 192 0
166 193 0
168 194 0
168 194 0
168 194 0
169 195 0
169 195 0
168 195 0
170 195 0
169 195 0
169 195 0
171 196 0
171 196 0
171 196 0
170 195 0
169 195 0
171 196 0
172 197 0
170 196 0
170 195 0
172 197 0
172 196 0
172 197 0
172 196 0
170 196 0
174 198 0
173 197 0
171 196 0
171 195 0
173 197 0
174 198 0
172 197 0
172 196 0
175 198 0
174 197 0
170 194 0
172 197 0
173 197 0
173 197 0
171 195 0
175 198 0
173 197 0
174 197 0
174 198 0
174 198 0
173 196 0
174 197 0
173 196 0
173 197 0
175 198 0
175 198 0
173 196 0
174 197 0
174 198 0
173 196 0
175 198 0
175 198 0
164 184 0
165 186 0
163 184 0
167 188 0
166 185 0
168 187 0
166 185 0
163 184 0
164 183 0
165 185 0
162 182 0
158 177 0
164 184 0
163 181 0
159 178 0
161 180 0
165 184 0
157 176 0
166 184 0
162 180 0
156 174 0
161 179 0
158 176 0
157 175 0
160 179 0
160 178 0
156 174 0
158 176 0
160 178 0
159 177 0
157 174 0
157 174 0
149 165 0
158 175 0
152 169 0
154 171 0
150 166 0
152 167 0
145 162 0
156 172 0
151 166 0
140 156 0
147 163 0
141 156 0
147 163 0
152 168 0
145 161 0
140 155 0
137 151 0
138 152 0
140 154 0
142 156 0
141 155 0
145 159 0
134 148 0
137 151 0
142 157 0
136 150 0
131 145 0
138 153 0
130 144 0
139 154 0
141 156 0
135 149 0
135 150 0
130 144 0
134 149 0
140 155 0
136 151 0
135 151 0
138 153 0
136 151 0
135 149 0
141 156 0
148 163 0
141 157 0
137 152 0
139 155 0
133 149 0
135 151 0
138 154 0
139 154 0
145 161 0
137 154 0
135 151 0
137 153 0
132 147 0
139 155 0
140 156 0
146 163 0
135 152 0
138 155 0
147 165 0
131 148 0
141 158 0
137 154 0
143 161 0
132 149 0
140 157 0
139 156 0
144 162 0
140 158 0
137 155 0
143 161 0
141 159 0
141 160 0
140 159 0
142 159 0
135 154 0
142 160 0
143 162 0
145 163 0
139 159 0
139 156 0
138 157 0
139 158 0
140 160 0
141 160 0
135 153 0
147 168 0
143 162 0
145 165 0
146 165 0
138 158 0
137 157 0
145 165 0
143 162 0
139 158 0
142 162 0
143 163 0
130 148 0
147 167 0
144 164 0
150 171 0
137 157 0
141 162 0
134 153 0
144 164 0
121 140 0
130 150 0
139 159 0
137 158 0
135 154 0
138 158 0
129 150 0
141 162 0
135 155 0
141 162 0
146 167 0
129 149 0
135 156 0
137 157 0
136 157 0
141 162 0
134 155 0
141 161 0
124 144 0
131 151 0
136 156 0
141 162 0
122 142 0
122 142 0
134 155 0
140 161 0
136 157 0
135 155 0
131 151 0
129 149 0
128 148 0
126 146 0
129 149 0
124 143 0
135 154 0
135 156 0
127 147 0
126 146 0
131 151 0
132 152 0
134 154 0
133 153 0
127 148 0
121 141 0
124 144 0
137 158 0
133 153 0
119 139 0
138 157 0
124 144 0
130 149 0
135 155 0
132 152 0
135 155 0
128 149 0
124 145 0
129 149 0
130 150 0
126 146 0
123 142 0
131 152 0
126 146 0
124 144 0
126 146 0
131 152 0
129 149 0
126 145 0
137 157 0
125 146 0
138 157 0
136 157 0
123 143 0
134 155 0
127 147 0
136 156 0
130 150 0
134 155 0
127 147 0
136 156 0
134 154 0
139 160 0
127 146 0
139 160 0
123 144 0
130 151 0
138 159 0
142 162 0
137 158 0
131 152 0
140 160 0
130 151 0
133 154 0
137 157 0
142 163 0
143 164 0
142 163 0
146 167 0
147 168 0
148 169 0
135 156 0
144 165 0
142 163 0
152 173 0
132 153 0
147 168 0
138 158 0
141 162 0
144 165 0
145 167 0
148 170 0
145 166 0
149 169 0
143 165 0
149 170 0
151 172 0
147 168 0
146 167 0
148 170 0
154 176 0
158 180 0
152 174 0
152 174 0
152 173 0
152 174 0
155 177 0
153 174 0
155 177 0
155 178 0
150 171 0
154 176 0
159 181 0
155 177 0
158 180 0
157 180 0
155 177 0
154 176 0
162 186 0
158 181 0
166 188 0
159 181 0
150 172 0
156 179 0
157 179 0
154 177 0
156 179 0
162 185 0
157 180 0
160 183 0
151 173 0
160 184 0
158 181 0
161 184 0
159 182 0
152 175 0
159 182 0
156 179 0
162 184 0
157 180 0
154 178 0
165 189 0
162 186 0
162 185 0
163 187 0
161 185 0
162 185 0
162 187 0
164 188 0
165 188 0
162 185 0
163 187 0
159 183 0
166 190 0
164 189 0
160 185 0
163 187 0
158 183 0
167 192 0
164 189 0
167 192 0
164 188 0
161 187 0
166 191 0
164 189 0
164 189 0
168 192 0
169 194 0
165 191 0
165 190 0
167 193 0
164 190 0
166 193 0
167 193 0
166 193 0
166 191 0
167 193 0
167 193 0
166 192 0
166 192 0
167 193 0
168 194 0
166 192 0
169 195 0
167 193 0
167 194 0
167 194 0
168 194 0
169 195 0
166 192 0
168 195 0
168 194 0
168 194 0
168 194 0
169 195 0
169 195 0
169 194 0
168 194 0
169 195 0
170 195 0
169 195 0
168 194 0
170 195 0
170 196 0
169 195 0
170 196 0
170 195 0
169 195 0
171 196 0
172 196 0
171 196 0
172 196 0
173 197 0
172 196 0
172 197 0
172 196 0
172 196 0
171 196 0
173 197 0
174 197 0
173 197 0
173 197 0
173 197 0
174 197 0
170 194 0
173 197 0
173 197 0
174 197 0
172 196 0
175 198 0
174 198 0
172 196 0
172 196 0
174 197 0
173 196 0
176 199 0
172 196 0
174 197 0
174 197 0
172 195 0
174 197 0
174 197 0
176 199 0
176 198 0
163 183 0
163 183 0
166 187 0
166 186 0
168 189 0
160 180 0
164 184 0
161 181 0
165 185 0
162 180 0
163 183 0
160 181 0
162 182 0
166 185 0
161 181 0
160 179 0
164 183 0
162 180 0
163 183 0
159 178 0
160 178 0
158 176 0
157 175 0
158 177 0
161 179 0
159 177 0
160 178 0
160 177 0
157 175 0
150 167 0
154 171 0
153 171 0
156 174 0
152 168 0
155 172 0
152 168 0
150 166 0
145 161 0
153 170 0
151 167 0
144 161 0
145 160 0
150 166 0
145 161 0
152 168 0
143 159 0
146 161 0
141 156 0
140 155 0
142 157 0
147 162 0
145 160 0
141 155 0
138 153 0
142 157 0
140 155 0
141 156 0
146 162 0
139 153 0
144 159 0
138 152 0
138 153 0
136 151 0
145 160 0
132 146 0
138 153 0
137 153 0
141 157 0
138 154 0
143 159 0
135 149 0
141 156 0
134 149 0
136 150 0
139 155 0
133 147 0
137 152 0
146 161 0
146 163 0
137 154 0
143 160 0
143 160 0
140 156 0
141 157 0
143 159 0
138 153 0
140 156 0
144 161 0
141 159 0
143 161 0
125 142 0
145 163 0
136 152 0
135 153 0
145 162 0
143 161 0
143 161 0
138 157 0
143 161 0
133 150 0
148 168 0
137 155 0
141 160 0
138 157 0
139 156 0
132 150 0
142 160 0
142 160 0
145 165 0
136 155 0
135 154 0
136 156 0
151 171 0
144 164 0
143 161 0
133 153 0
149 169 0
148 167 0
147 166 0
149 169 0
139 159 0
140 159 0
129 148 0
143 163 0
142 162 0
141 160 0
144 163 0
136 156 0
137 158 0
140 160 0
148 167 0
134 153 0
142 161 0
135 154 0
136 156 0
139 159 0
146 166 0
137 156 0
142 162 0
125 145 0
145 165 0
144 165 0
129 150 0
150 170 0
136 156 0
135 155 0
133 153 0
141 161 0
138 158 0
139 161 0
143 162 0
131 151 0
140 161 0
141 162 0
143 164 0
136 157 0
130 150 0
140 161 0
140 161 0
136 157 0
121 141 0
131 152 0
129 150 0
142 162 0
138 158 0
137 157 0
133 153 0
123 143 0
139 159 0
125 145 0
128 148 0
141 163 0
133 153 0
128 147 0
140 161 0
135 155 0
124 143 0
136 157 0
125 146 0
130 150 0
121 142 0
133 153 0
129 148 0
133 153 0
127 147 0
119 140 0
128 148 0
127 148 0
127 148 0
140 160 0
139 160 0
138 159 0
129 149 0
133 154 0
131 150 0
140 159 0
136 158 0
124 144 0
130 150 0
130 151 0
132 152 0
129 148 0
125 147 0
131 152 0
131 151 0
123 143 0
136 156 0
141 161 0
137 157 0
138 158 0
133 153 0
132 152 0
137 158 0
131 151 0
130 151 0
140 161 0
121 141 0
126 146 0
149 170 0
142 162 0
147 168 0
134 156 0
131 152 0
131 151 0
130 150 0
126 146 0
130 152 0
137 158 0
144 165 0
138 160 0
140 162 0
137 159 0
139 159 0
138 159 0
138 159 0
151 173 0
140 161 0
150 172 0
145 166 0
141 161 0
144 165 0
137 157 0
148 169 0
140 161 0
146 168 0
138 159 0
150 172 0
147 169 0
143 164 0
152 174 0
152 173 0
148 170 0
154 176 0
154 175 0
151 173 0
161 182 0
143 165 0
150 172 0
150 172 0
150 172 0
155 177 0
153 174 0
147 169 0
149 171 0
157 179 0
153 175 0
151 172 0
155 176 0
158 180 0
159 181 0
155 177 0
156 178 0
158 181 0
159 182 0
153 175 0
160 182 0
157 180 0
151 173 0
158 180 0
159 182 0
157 180 0
160 182 0
163 186 0
160 182 0
168 191 0
159 181 0
157 180 0
160 183 0
160 183 0
160 183 0
161 184 0
165 187 0
162 186 0
164 188 0
159 183 0
154 177 0
165 188 0
155 178 0
159 182 0
164 187 0
161 185 0
166 190 0
163 187 0
169 192 0
162 186 0
166 190 0
167 190 0
164 188 0
163 187 0
161 185 0
163 188 0
166 190 0
161 186 0
166 191 0
172 196 0
166 190 0
166 191 0
165 190 0
168 193 0
168 193 0
167 193 0
169 194 0
167 191 0
167 192 0
163 189 0
165 192 0
164 189 0
166 192 0
168 195 0
166 192 0
166 191 0
166 192 0
167 193 0
168 194 0
162 188 0
167 192 0
166 193 0
167 193 0
169 195 0
170 195 0
168 194 0
167 193 0
168 194 0
167 194 0
167 194 0
170 195 0
168 194 0
167 193 0
169 194 0
169 195 0
169 195 0
168 194 0
170 196 0
170 195 0
168 194 0
171 196 0
169 195 0
171 196 0
169 195 0
170 196 0
171 196 0
170 195 0
171 196 0
172 196 0
173 197 0
169 194 0
171 196 0
171 196 0
172 196 0
172 196 0
172 197 0
172 196 0
173 197 0
171 196 0
173 197 0
173 197 0
174 197 0
174 198 0
172 196 0
173 197 0
172 196 0
172 196 0
173 197 0
173 196 0
174 197 0
173 197 0
172 196 0
173 196 0
171 195 0
174 197 0
175 198 0
174 198 0
175 198 0
174 197 0
175 198 0
175 198 0
173 197 0
173 195 0
172 196 0
175 198 0
167 187 0
168 188 0
166 185 0
165 185 0
163 183 0
162 182 0
164 183 0
162 181 0
164 183 0
160 179 0
164 183 0
161 180 0
161 180 0
164 183 0
157 176 0
157 176 0
161 180 0
159 177 0
163 181 0
159 178 0
160 179 0
162 180 0
158 176 0
152 170 0
158 176 0
159 176 0
156 174 0
155 173 0
155 173 0
154 171 0
153 169 0
159 176 0
155 173 0
152 168 0
157 175 0
149 165 0
151 167 0
152 168 0
146 162 0
151 167 0
146 161 0
152 169 0
150 166 0
149 165 0
143 159 0
146 161 0
151 166 0
140 156 0
145 161 0
143 158 0
140 155 0
150 165 0
141 157 0
148 164 0
144 159 0
140 155 0
144 158 0
138 154 0
143 159 0
146 163 0
141 156 0
132 146 0
136 150 0
149 165 0
134 149 0
146 162 0
142 157 0
140 156 0
148 165 0
144 161 0
135 150 0
143 158 0
142 159 0
135 151 0
138 154 0
138 154 0
144 161 0
129 145 0
141 158 0
145 162 0
147 164 0
136 153 0
129 145 0
145 161 0
138 155 0
140 156 0
141 159 0
141 158 0
145 162 0
146 164 0
144 161 0
131 147 0
135 152 0
142 160 0
142 159 0
148 166 0
133 150 0
147 166 0
146 165 0
136 154 0
148 167 0
146 166 0
137 155 0
141 160 0
143 160 0
144 163 0
144 163 0
140 159 0
142 161 0
144 162 0
148 168 0
144 164 0
135 154 0
144 164 0
137 156 0
136 154 0
131 150 0
137 156 0
143 162 0
145 165 0
138 156 0
137 157 0
146 165 0
143 163 0
148 168 0
146 166 0
148 168 0
136 155 0
144 164 0
138 158 0
141 162 0
143 163 0
138 158 0
140 160 0
133 153 0
152 173 0
133 153 0
143 163 0
134 154 0
149 169 0
133 153 0
139 159 0
151 171 0
134 155 0
139 158 0
146 166 0
140 160 0
137 158 0
134 154 0
132 152 0
138 158 0
132 152 0
137 157 0
126 147 0
136 158 0
136 157 0
134 155 0
124 144 0
136 157 0
132 153 0
136 157 0
138 157 0
133 154 0
128 149 0
128 148 0
141 162 0
138 159 0
123 143 0
129 150 0
129 150 0
136 156 0
135 156 0
122 141 0
132 153 0
137 158 0
127 148 0
129 150 0
129 149 0
131 151 0
141 162 0
136 156 0
128 148 0
135 156 0
130 151 0
125 146 0
127 146 0
129 150 0
139 160 0
136 157 0
139 159 0
135 156 0
135 155 0
123 143 0
134 154 0
128 148 0
132 153 0
127 148 0
140 160 0
129 149 0
138 158 0
139 159 0
128 149 0
123 143 0
127 146 0
132 153 0
121 142 0
130 151 0
135 155 0
137 157 0
140 160 0
136 157 0
139 159 0
133 154 0
139 159 0
136 156 0
138 158 0
125 145 0
133 154 0
132 152 0
140 161 0
136 157 0
133 153 0
129 151 0
143 164 0
127 148 0
134 155 0
133 153 0
140 161 0
148 169 0
141 162 0
146 168 0
130 151 0
143 164 0
149 170 0
140 160 0
149 171 0
147 168 0
148 170 0
145 165 0
153 175 0
146 169 0
149 170 0
147 168 0
144 165 0
152 174 0
151 172 0
146 167 0
152 173 0
152 175 0
152 174 0
153 174 0
143 164 0
150 173 0
154 176 0
154 175 0
159 180 0
153 174 0
155 177 0
152 174 0
152 173 0
161 182 0
167 188 0
149 172 0
151 174 0
156 178 0
153 174 0
152 175 0
152 174 0
154 175 0
158 180 0
152 173 0
151 173 0
149 172 0
154 177 0
159 182 0
152 174 0
162 184 0
157 179 0
154 177 0
161 183 0
153 176 0
158 180 0
158 180 0
162 184 0
156 178 0
156 178 0
164 187 0
160 182 0
160 182 0
150 172 0
164 186 0
158 180 0
162 185 0
161 184 0
159 182 0
163 186 0
162 185 0
162 185 0
160 184 0
163 186 0
159 182 0
162 185 0
163 187 0
157 181 0
160 184 0
163 187 0
163 187 0
162 186 0
168 192 0
161 185 0
164 187 0
158 182 0
166 190 0
166 190 0
169 194 0
167 192 0
164 189 0
167 192 0
162 187 0
165 189 0
164 189 0
169 193 0
167 192 0
165 189 0
169 194 0
166 191 0
167 192 0
167 193 0
165 191 0
169 195 0
168 193 0
166 192 0
166 192 0
168 193 0
169 194 0
166 192 0
168 194 0
168 194 0
168 194 0
166 192 0
169 195 0
171 196 0
168 194 0
170 196 0
168 194 0
166 192 0
167 193 0
168 194 0
169 194 0
167 194 0
169 195 0
168 194 0
169 194 0
171 196 0
170 195 0
170 195 0
168 193 0
167 193 0
169 195 0
171 196 0
170 195 0
172 196 0
169 195 0
172 196 0
170 196 0
172 197 0
172 196 0
170 196 0
170 195 0
171 196 0
171 196 0
172 197 0
172 196 0
173 197 0
172 196 0
173 197 0
172 197 0
172 196 0
174 197 0
174 198 0
173 196 0
174 197 0
174 198 0
173 197 0
173 197 0
173 197 0
175 198 0
175 198 0
174 197 0
172 196 0
174 197 0
174 197 0
175 198 0
174 197 0
174 197 0
173 197 0
173 196 0
174 197 0
173 196 0
172 196 0
163 184 0
161 181 0
160 179 0
165 184 0
164 184 0
165 184 0
162 181 0
160 179 0
160 179 0
165 185 0
162 182 0
160 178 0
157 174 0
159 178 0
164 183 0
164 183 0
162 181 0
161 179 0
159 176 0
160 179 0
152 169 0
160 179 0
159 178 0
153 170 0
155 173 0
158 176 0
160 178 0
158 175 0
150 166 0
155 173 0
155 173 0
150 167 0
152 169 0
147 163 0
151 168 0
148 164 0
150 166 0
154 172 0
145 161 0
152 168 0
147 164 0
147 163 0
151 167 0
145 161 0
145 161 0
145 161 0
149 166 0
143 159 0
149 164 0
141 156 0
143 159 0
150 165 0
144 160 0
145 160 0
150 166 0
147 162 0
137 151 0
144 161 0
136 151 0
151 168 0
141 156 0
142 158 0
139 153 0
142 158 0
138 153 0
137 153 0
137 153 0
144 161 0
144 160 0
141 157 0
144 161 0
139 156 0
138 156 0
140 156 0
146 163 0
144 160 0
141 158 0
148 165 0
138 155 0
146 162 0
140 157 0
140 156 0
145 162 0
138 156 0
138 154 0
146 164 0
140 158 0
134 151 0
150 168 0
141 158 0
140 159 0
143 161 0
141 160 0
139 157 0
133 151 0
140 159 0
139 157 0
139 157 0
137 156 0
140 157 0
148 166 0
134 151 0
139 158 0
145 165 0
145 164 0
141 161 0
140 158 0
136 155 0
137 156 0
143 162 0
145 163 0
139 158 0
146 165 0
149 167 0
135 154 0
143 162 0
145 166 0
142 162 0
140 161 0
138 157 0
140 160 0
137 155 0
147 167 0
142 161 0
144 163 0
137 158 0
141 161 0
143 163 0
140 160 0
141 161 0
138 159 0
140 161 0
139 159 0
137 158 0
148 170 0
134 154 0
127 148 0
139 159 0
138 159 0
142 163 0
137 158 0
131 151 0
142 164 0
129 149 0
138 160 0
139 159 0
135 156 0
138 159 0
140 161 0
132 152 0
136 157 0
138 158 0
131 152 0
148 171 0
133 153 0
136 156 0
130 150 0
139 160 0
142 161 0
134 155 0
132 152 0
131 151 0
132 153 0
138 158 0
129 149 0
127 147 0
123 143 0
134 155 0
143 164 0
130 152 0
136 156 0
136 156 0
129 148 0
139 159 0
140 161 0
132 153 0
138 159 0
136 156 0
127 148 0
140 161 0
140 162 0
140 161 0
140 162 0
138 159 0
133 154 0
132 153 0
138 159 0
136 157 0
130 151 0
144 165 0
133 154 0
137 158 0
138 159 0
135 156 0
132 153 0
133 154 0
132 153 0
128 148 0
122 142 0
133 154 0
141 162 0
137 158 0
127 147 0
136 156 0
139 160 0
130 150 0
134 155 0
128 148 0
138 158 0
130 151 0
133 154 0
140 161 0
137 156 0
135 155 0
131 152 0
144 165 0
140 161 0
139 159 0
139 160 0
145 166 0
131 152 0
136 157 0
144 166 0
138 159 0
146 167 0
122 142 0
138 159 0
154 175 0
140 161 0
140 160 0
150 171 0
133 154 0
151 172 0
151 172 0
139 160 0
153 174 0
142 163 0
140 160 0
145 166 0
150 171 0
152 174 0
141 163 0
148 170 0
147 169 0
148 169 0
152 174 0
149 170 0
151 173 0
147 167 0
152 174 0
145 166 0
150 171 0
150 171 0
149 171 0
153 175 0
148 170 0
158 180 0
152 174 0
150 173 0
157 178 0
157 179 0
161 182 0
153 175 0
156 178 0
158 180 0
151 174 0
155 177 0
151 174 0
156 178 0
152 174 0
152 173 0
160 183 0
156 178 0
160 183 0
161 183 0
153 176 0
157 179 0
160 182 0
161 184 0
161 184 0
163 185 0
157 179 0
160 182 0
161 185 0
155 177 0
157 180 0
159 181 0
161 184 0
160 182 0
161 184 0
160 183 0
160 183 0
161 184 0
165 188 0
163 186 0
162 185 0
162 186 0
163 186 0
158 182 0
161 185 0
161 184 0
163 187 0
162 185 0
163 186 0
163 186 0
169 193 0
162 186 0
163 187 0
162 186 0
163 187 0
162 186 0
162 186 0
161 185 0
163 187 0
163 187 0
167 191 0
168 192 0
168 192 0
162 186 0
162 186 0
166 191 0
166 191 0
166 191 0
167 192 0
168 193 0
167 191 0
169 194 0
168 193 0
168 193 0
165 191 0
168 193 0
166 191 0
169 195 0
167 192 0
166 191 0
169 194 0
166 191 0
169 193 0
167 193 0
168 193 0
171 196 0
168 194 0
170 195 0
169 194 0
168 193 0
167 193 0
169 194 0
171 196 0
168 194 0
168 194 0
170 195 0
170 195 0
168 194 0
170 196 0
169 195 0
169 195 0
170 195 0
170 195 0
169 195 0
171 196 0
171 196 0
173 197 0
171 196 0
170 195 0
172 196 0
171 196 0
173 197 0
171 196 0
172 197 0
171 196 0
172 196 0
171 196 0
173 197 0
173 197 0
172 196 0
171 196 0
171 196 0
173 197 0
172 197 0
171 196 0
174 198 0
171 196 0
174 198 0
173 197 0
173 197 0
174 197 0
173 196 0
174 197 0
174 198 0
172 195 0
173 196 0
174 198 0
172 195 0
175 198 0
174 198 0
175 198 0
175 198 0
173 197 0
175 198 0
175 198 0
165 185 0
168 188 0
164 184 0
165 185 0
161 178 0
162 180 0
164 182 0
162 181 0
166 185 0
165 185 0
160 177 0
162 181 0
159 177 0
164 183 0
159 177 0
160 179 0
154 172 0
162 181 0
160 179 0
158 176 0
163 180 0
159 177 0
154 171 0
161 179 0
155 173 0
153 170 0
154 172 0
154 172 0
155 172 0
154 172 0
155 172 0
155 172 0
155 172 0
156 172 0
146 163 0
149 165 0
153 171 0
145 161 0
152 168 0
152 167 0
158 175 0
152 168 0
142 157 0
150 166 0
149 166 0
145 161 0
150 167 0
147 162 0
146 161 0
145 161 0
151 167 0
140 155 0
150 167 0
151 168 0
139 155 0
144 159 0
146 162 0
144 160 0
143 158 0
140 156 0
143 159 0
139 155 0
151 168 0
143 160 0
147 163 0
137 153 0
144 160 0
146 162 0
147 165 0
142 159 0
144 160 0
144 162 0
139 155 0
151 168 0
141 157 0
151 168 0
148 164 0
144 161 0
150 167 0
148 166 0
139 156 0
143 160 0
152 169 0
141 158 0
135 153 0
141 159 0
139 156 0
145 163 0
142 160 0
144 163 0
145 164 0
137 155 0
143 161 0
140 157 0
142 160 0
147 165 0
132 150 0
145 163 0
148 167 0
139 158 0
145 164 0
141 161 0
140 159 0
153 173 0
143 163 0
152 172 0
142 162 0
150 170 0
140 158 0
150 170 0
145 165 0
139 158 0
141 161 0
149 170 0
147 167 0
134 153 0
148 169 0
146 165 0
147 168 0
140 160 0
137 156 0
141 161 0
142 162 0
144 164 0
140 160 0
146 167 0
136 157 0
143 164 0
151 171 0
143 163 0
133 153 0
133 153 0
140 160 0
139 159 0
145 167 0
151 172 0
145 166 0
131 151 0
138 159 0
131 151 0
147 167 0
142 162 0
135 156 0
132 152 0
138 159 0
132 152 0
138 159 0
131 151 0
142 163 0
143 164 0
135 155 0
142 163 0
144 164 0
139 159 0
132 152 0
128 149 0
138 158 0
145 166 0
141 161 0
135 155 0
136 156 0
139 160 0
142 162 0
139 160 0
135 155 0
141 161 0
130 151 0
141 162 0
124 144 0
138 158 0
131 151 0
131 151 0
134 156 0
132 152 0
141 160 0
134 155 0
137 158 0
130 151 0
127 147 0
132 153 0
139 159 0
138 158 0
122 142 0
135 155 0
132 153 0
130 151 0
139 160 0
134 155 0
134 154 0
128 149 0
132 153 0
133 152 0
128 149 0
125 146 0
145 166 0
131 152 0
131 151 0
132 152 0
132 153 0
134 155 0
143 163 0
128 148 0
126 146 0
139 160 0
137 158 0
120 140 0
138 159 0
144 165 0
130 151 0
133 154 0
143 164 0
138 158 0
141 161 0
135 156 0
138 159 0
144 165 0
138 160 0
140 161 0
140 161 0
133 154 0
132 154 0
138 158 0
140 162 0
136 158 0
143 163 0
140 162 0
142 162 0
139 160 0
140 160 0
144 165 0
140 161 0
137 158 0
149 170 0
151 172 0
143 165 0
145 166 0
150 172 0
149 172 0
151 173 0
141 163 0
138 160 0
148 170 0
148 170 0
140 161 0
143 164 0
155 177 0
151 171 0
144 166 0
148 169 0
146 168 0
151 173 0
144 166 0
155 177 0
149 170 0
143 165 0
156 177 0
152 174 0
153 175 0
154 175 0
154 175 0
152 174 0
153 175 0
151 173 0
155 176 0
151 174 0
156 177 0
157 179 0
154 176 0
155 178 0
153 175 0
156 179 0
155 177 0
157 179 0
160 182 0
160 181 0
158 181 0
160 183 0
154 176 0
155 177 0
157 179 0
160 183 0
155 178 0
161 184 0
159 182 0
160 184 0
160 183 0
158 180 0
160 183 0
160 182 0
162 185 0
157 179 0
159 182 0
163 186 0
160 182 0
162 185 0
165 187 0
163 186 0
160 183 0
161 184 0
163 186 0
165 188 0
162 185 0
167 190 0
164 187 0
162 185 0
157 181 0
166 190 0
162 186 0
162 185 0
164 188 0
164 188 0
161 185 0
165 189 0
163 186 0
167 192 0
166 190 0
163 188 0
164 189 0
167 191 0
168 193 0
167 191 0
165 191 0
168 192 0
167 192 0
167 192 0
165 190 0
167 191 0
165 190 0
165 190 0
166 191 0
168 193 0
169 193 0
167 192 0
166 192 0
167 192 0
170 195 0
168 193 0
166 192 0
169 194 0
169 194 0
166 191 0
167 192 0
167 192 0
170 195 0
169 194 0
168 194 0
167 193 0
169 195 0
168 194 0
169 195 0
169 195 0
168 194 0
169 193 0
170 195 0
170 195 0
171 195 0
169 195 0
169 195 0
171 196 0
171 196 0
169 194 0
172 197 0
170 195 0
171 196 0
173 197 0
169 194 0
172 197 0
172 197 0
172 197 0
170 195 0
168 193 0
172 196 0
172 196 0
172 196 0
173 197 0
172 196 0
174 197 0
171 196 0
172 196 0
172 197 0
173 197 0
174 198 0
172 197 0
173 197 0
174 198 0
172 196 0
174 197 0
173 197 0
174 198 0
174 198 0
173 196 0
173 197 0
173 196 0
175 198 0
173 197 0
174 197 0
174 197 0
173 197 0
174 197 0
173 197 0
162 182 0
160 179 0
165 185 0
166 185 0
167 185 0
169 188 0
166 184 0
164 183 0
162 180 0
158 178 0
161 181 0
159 178 0
160 178 0
162 181 0
161 179 0
160 178 0
163 181 0
158 176 0
159 177 0
155 172 0
154 172 0
158 175 0
157 175 0
160 178 0
152 169 0
154 173 0
155 172 0
155 172 0
154 170 0
158 175 0
152 169 0
158 176 0
155 172 0
155 171 0
146 163 0
152 169 0
150 167 0
150 167 0
153 169 0
153 168 0
147 163 0
154 170 0
149 166 0
142 157 0
156 172 0
149 165 0
150 166 0
151 167 0
146 163 0
146 162 0
141 158 0
147 164 0
141 157 0
148 164 0
147 163 0
140 157 0
142 158 0
150 166 0
149 166 0
145 161 0
145 161 0
137 153 0
149 165 0
147 164 0
142 158 0
145 162 0
145 162 0
148 165 0
145 162 0
139 156 0
147 164 0
148 165 0
147 164 0
145 162 0
144 161 0
150 167 0
149 167 0
145 163 0
141 158 0
152 170 0
149 166 0
139 157 0
144 161 0
150 168 0
151 169 0
144 162 0
146 163 0
143 161 0
152 170 0
137 155 0
142 160 0
145 163 0
137 154 0
140 158 0
143 161 0
143 161 0
138 157 0
143 162 0
146 165 0
139 157 0
138 156 0
143 162 0
145 164 0
142 162 0
152 172 0
138 157 0
138 157 0
148 168 0
143 163 0
140 159 0
144 164 0
141 159 0
144 164 0
136 154 0
143 163 0
141 161 0
146 164 0
143 164 0
145 164 0
146 165 0
144 164 0
148 168 0
144 165 0
147 166 0
140 160 0
144 165 0
143 165 0
146 166 0
136 155 0
136 157 0
138 158 0
147 167 0
136 157 0
145 166 0
148 170 0
133 153 0
138 158 0
143 164 0
132 153 0
144 166 0
142 163 0
136 156 0
139 159 0
134 154 0
137 158 0
131 151 0
135 156 0
132 153 0
137 158 0
140 162 0
146 168 0
147 168 0
135 156 0
134 154 0
142 164 0
138 158 0
141 162 0
134 156 0
137 158 0
138 159 0
141 162 0
143 163 0
130 150 0
146 166 0
137 158 0
132 153 0
137 158 0
136 157 0
147 169 0
136 157 0
129 150 0
137 158 0
135 156 0
123 145 0
137 158 0
134 155 0
144 165 0
142 164 0
141 161 0
128 148 0
141 161 0
137 158 0
139 161 0
132 154 0
139 160 0
138 159 0
132 152 0
135 156 0
131 152 0
137 158 0
149 170 0
139 160 0
135 156 0
141 162 0
135 157 0
139 161 0
140 161 0
139 161 0
133 154 0
135 156 0
123 143 0
128 148 0
143 164 0
135 156 0
129 149 0
135 156 0
139 160 0
149 170 0
131 151 0
139 160 0
140 161 0
136 156 0
143 163 0
132 154 0
134 155 0
139 159 0
136 156 0
144 166 0
131 151 0
139 161 0
140 162 0
139 160 0
141 164 0
144 166 0
137 157 0
142 163 0
150 171 0
149 170 0
141 163 0
138 159 0
146 168 0
142 164 0
135 157 0
153 174 0
139 161 0
151 173 0
139 161 0
149 170 0
148 169 0
145 165 0
146 168 0
151 172 0
150 172 0
153 174 0
146 168 0
145 166 0
152 174 0
152 172 0
153 175 0
146 168 0
157 179 0
154 176 0
152 173 0
144 166 0
146 168 0
151 173 0
149 170 0
152 173 0
146 168 0
154 175 0
156 178 0
155 176 0
155 177 0
153 175 0
142 165 0
147 168 0
158 180 0
159 181 0
160 182 0
154 176 0
159 182 0
155 177 0
156 178 0
161 184 0
160 182 0
162 185 0
160 182 0
164 186 0
155 178 0
161 183 0
161 183 0
158 182 0
158 181 0
165 187 0
152 174 0
159 182 0
161 184 0
157 179 0
159 182 0
158 180 0
162 185 0
163 186 0
167 190 0
161 184 0
164 187 0
156 179 0
160 183 0
156 179 0
160 183 0
158 181 0
168 191 0
167 191 0
162 186 0
162 186 0
165 189 0
165 189 0
169 192 0
163 187 0
166 190 0
165 189 0
167 191 0
165 189 0
163 186 0
165 189 0
167 192 0
167 191 0
162 186 0
158 182 0
169 194 0
167 191 0
167 191 0
165 188 0
166 190 0
167 191 0
168 192 0
167 192 0
169 193 0
168 192 0
167 191 0
167 191 0
169 193 0
169 194 0
168 192 0
168 192 0
169 194 0
169 194 0
168 193 0
167 193 0
166 191 0
168 193 0
167 193 0
168 193 0
168 193 0
169 194 0
168 193 0
168 193 0
168 193 0
165 191 0
167 192 0
171 196 0
168 193 0
170 195 0
171 196 0
168 193 0
168 194 0
168 194 0
170 195 0
170 194 0
170 195 0
170 195 0
171 196 0
169 194 0
170 194 0
171 196 0
170 196 0
171 196 0
170 195 0
172 197 0
171 196 0
173 197 0
172 196 0
171 195 0
172 196 0
173 197 0
171 196 0
172 197 0
172 197 0
172 197 0
172 196 0
172 196 0
173 197 0
173 197 0
174 198 0
173 197 0
175 198 0
174 197 0
173 197 0
173 197 0
173 197 0
175 198 0
174 198 0
172 197 0
173 197 0
175 198 0
175 198 0
174 197 0
173 197 0
175 198 0
173 196 0
171 195 0
162 182 0
161 181 0
160 180 0
160 179 0
161 181 0
158 176 0
158 177 0
162 181 0
164 183 0
165 184 0
163 182 0
162 180 0
166 185 0
161 181 0
160 177 0
163 181 0
160 179 0
158 176 0
157 175 0
160 177 0
150 167 0
156 174 0
158 176 0
158 175 0
151 169 0
160 178 0
155 172 0
153 169 0
158 175 0
150 166 0
153 170 0
151 168 0
152 170 0
145 161 0
150 167 0
147 163 0
149 166 0
154 171 0
153 170 0
150 167 0
152 169 0
144 161 0
148 165 0
144 160 0
148 164 0
149 165 0
157 174 0
151 167 0
148 165 0
143 161 0
148 164 0
146 164 0
147 163 0
146 164 0
149 165 0
147 164 0
145 162 0
144 160 0
148 164 0
149 166 0
140 156 0
143 160 0
144 161 0
143 159 0
145 162 0
143 160 0
146 163 0
142 158 0
149 166 0
148 165 0
137 154 0
144 161 0
144 161 0
139 156 0
144 163 0
146 163 0
150 169 0
145 163 0
147 165 0
143 160 0
143 162 0
142 160 0
142 159 0
142 159 0
150 168 0
138 156 0
144 163 0
145 163 0
147 166 0
139 157 0
146 165 0
140 158 0
137 156 0
143 162 0
147 165 0
145 165 0
147 166 0
152 171 0
130 149 0
135 154 0
143 161 0
144 163 0
141 160 0
145 165 0
139 158 0
146 165 0
145 165 0
139 159 0
147 167 0
146 166 0
145 165 0
149 168 0
138 157 0
147 167 0
142 163 0
150 171 0
147 168 0
143 163 0
142 162 0
130 150 0
145 165 0
136 157 0
142 162 0
132 152 0
139 160 0
143 163 0
132 151 0
148 168 0
144 165 0
142 162 0
140 161 0
142 162 0
142 162 0
136 156 0
146 166 0
144 165 0
139 158 0
140 161 0
152 173 0
140 160 0
143 164 0
144 164 0
142 163 0
143 164 0
140 162 0
134 154 0
135 155 0
138 159 0
147 169 0
134 155 0
137 159 0
146 168 0
138 160 0
137 158 0
143 164 0
137 156 0
134 153 0
140 162 0
138 159 0
144 165 0
137 158 0
140 161 0
139 160 0
129 150 0
141 162 0
136 157 0
141 163 0
137 158 0
137 157 0
140 160 0
137 157 0
133 153 0
140 161 0
138 158 0
136 157 0
131 151 0
143 164 0
133 153 0
143 163 0
130 152 0
131 153 0
140 161 0
134 155 0
130 151 0
131 150 0
134 156 0
133 154 0
144 165 0
132 154 0
136 155 0
132 153 0
141 162 0
137 158 0
138 158 0
138 159 0
137 157 0
137 157 0
131 152 0
137 158 0
141 161 0
133 154 0
138 160 0
139 160 0
141 162 0
131 153 0
142 164 0
146 167 0
129 151 0
143 164 0
132 152 0
140 160 0
138 159 0
138 158 0
136 157 0
145 165 0
134 155 0
131 152 0
140 162 0
141 160 0
137 157 0
143 165 0
136 157 0
138 158 0
143 164 0
130 150 0
140 162 0
131 151 0
146 168 0
144 166 0
146 167 0
142 163 0
143 165 0
144 166 0
147 169 0
143 164 0
149 171 0
146 168 0
143 164 0
144 165 0
141 162 0
136 157 0
140 162 0
147 168 0
150 172 0
146 167 0
144 166 0
147 169 0
149 169 0
144 165 0
153 176 0
150 171 0
154 176 0
156 177 0
151 173 0
158 180 0
151 173 0
141 163 0
154 175 0
150 173 0
153 175 0
144 166 0
153 175 0
157 180 0
153 176 0
147 170 0
149 170 0
155 177 0
155 177 0
153 176 0
153 176 0
159 182 0
157 180 0
156 178 0
160 182 0
153 176 0
151 174 0
161 184 0
151 173 0
155 177 0
165 187 0
156 178 0
161 184 0
161 183 0
157 180 0
156 179 0
164 187 0
159 181 0
164 187 0
163 187 0
159 182 0
161 184 0
160 183 0
163 185 0
162 185 0
163 186 0
161 184 0
164 188 0
163 185 0
158 180 0
164 187 0
161 184 0
159 182 0
161 184 0
163 187 0
161 184 0
164 188 0
163 186 0
169 192 0
166 190 0
165 189 0
167 191 0
165 188 0
165 189 0
168 192 0
166 189 0
167 190 0
158 182 0
167 191 0
163 187 0
164 188 0
164 189 0
169 193 0
166 190 0
170 194 0
165 189 0
167 191 0
164 188 0
167 192 0
169 193 0
167 192 0
168 192 0
171 195 0
166 191 0
168 193 0
166 191 0
170 194 0
167 193 0
166 191 0
164 190 0
169 195 0
168 193 0
169 194 0
168 193 0
168 193 0
167 193 0
170 194 0
170 195 0
167 192 0
170 194 0
169 194 0
170 196 0
170 195 0
167 192 0
170 195 0
171 195 0
166 192 0
170 195 0
170 194 0
169 195 0
171 196 0
171 195 0
171 195 0
168 193 0
171 196 0
169 193 0
170 195 0
169 195 0
169 194 0
172 197 0
171 196 0
172 197 0
173 197 0
173 197 0
171 195 0
172 197 0
172 196 0
170 195 0
171 196 0
173 197 0
172 197 0
174 197 0
173 197 0
172 197 0
173 197 0
174 197 0
173 197 0
174 198 0
172 196 0
172 196 0
173 197 0
175 198 0
173 197 0
174 198 0
173 197 0
174 198 0
174 197 0
175 198 0
173 197 0
174 198 0
171 195 0
162 182 0
159 178 0
159 179 0
158 176 0
163 182 0
163 183 0
165 184 0
162 181 0
159 177 0
158 177 0
161 180 0
162 180 0
161 179 0
161 180 0
161 180 0
160 179 0
161 179 0
156 174 0
158 177 0
162 181 0
158 177 0
153 171 0
157 174 0
155 174 0
160 178 0
154 172 0
151 168 0
153 170 0
152 169 0
157 175 0
145 162 0
157 175 0
149 166 0
158 174 0
149 166 0
156 174 0
156 174 0
152 168 0
152 169 0
148 164 0
155 172 0
149 166 0
148 164 0
149 167 0
155 172 0
149 166 0
151 168 0
149 165 0
150 166 0
141 157 0
145 161 0
152 169 0
144 160 0
142 158 0
141 158 0
149 165 0
149 166 0
137 153 0
149 166 0
145 162 0
143 159 0
148 165 0
144 160 0
154 171 0
147 164 0
150 168 0
142 159 0
149 168 0
149 167 0
138 155 0
152 170 0
143 161 0
147 165 0
150 168 0
149 166 0
149 167 0
139 157 0
145 162 0
140 157 0
143 161 0
145 163 0
140 158 0
152 171 0
149 169 0
148 167 0
148 166 0
150 169 0
144 163 0
148 167 0
141 159 0
149 167 0
143 161 0
143 161 0
146 166 0
140 160 0
144 164 0
146 165 0
144 163 0
143 161 0
139 158 0
139 158 0
145 166 0
145 165 0
144 164 0
138 157 0
142 162 0
146 165 0
149 170 0
139 160 0
139 158 0
149 169 0
142 162 0
145 165 0
146 166 0
143 163 0
146 167 0
143 163 0
150 172 0
143 164 0
143 163 0
146 167 0
143 164 0
141 161 0
139 159 0
149 169 0
146 166 0
150 171 0
140 161 0
136 156 0
147 168 0
141 163 0
141 162 0
143 163 0
141 161 0
146 167 0
142 161 0
145 166 0
135 156 0
148 169 0
146 168 0
142 164 0
139 161 0
140 162 0
137 158 0
145 166 0
146 167 0
143 164 0
146 167 0
148 169 0
141 162 0
142 162 0
140 161 0
133 154 0
145 167 0
143 165 0
144 165 0
142 163 0
139 160 0
139 160 0
142 164 0
147 168 0
135 156 0
140 160 0
142 163 0
142 163 0
139 159 0
132 153 0
131 152 0
137 158 0
143 163 0
132 153 0
130 151 0
139 160 0
138 159 0
140 162 0
131 152 0
131 151 0
141 161 0
140 162 0
141 163 0
129 151 0
132 152 0
138 159 0
130 150 0
132 152 0
133 154 0
132 153 0
133 154 0
134 155 0
145 167 0
148 169 0
132 153 0
132 154 0
142 163 0
141 162 0
143 164 0
140 161 0
141 163 0
141 162 0
139 160 0
135 156 0
139 161 0
126 147 0
145 166 0
137 158 0
145 165 0
138 160 0
139 160 0
138 159 0
140 162 0
137 157 0
143 165 0
147 168 0
134 156 0
138 159 0
137 159 0
140 161 0
143 164 0
140 162 0
141 163 0
137 159 0
142 163 0
146 168 0
143 165 0
152 175 0
144 164 0
149 170 0
132 154 0
141 163 0
143 164 0
143 164 0
146 167 0
146 167 0
154 176 0
138 160 0
144 166 0
147 169 0
144 165 0
149 169 0
147 169 0
142 164 0
154 175 0
155 177 0
151 172 0
143 165 0
149 171 0
143 165 0
154 176 0
156 177 0
154 176 0
152 173 0
153 174 0
153 175 0
157 178 0
153 175 0
155 176 0
150 172 0
157 179 0
153 174 0
153 175 0
155 177 0
152 174 0
157 179 0
149 171 0
155 178 0
157 179 0
155 178 0
154 176 0
156 178 0
146 168 0
158 181 0
162 184 0
156 178 0
150 172 0
154 176 0
154 177 0
151 173 0
154 177 0
158 180 0
164 186 0
158 181 0
159 182 0
161 183 0
155 178 0
164 185 0
159 182 0
156 178 0
152 175 0
156 179 0
162 185 0
157 179 0
161 184 0
161 184 0
158 181 0
165 187 0
164 187 0
167 190 0
160 182 0
161 185 0
159 183 0
164 187 0
163 185 0
166 189 0
162 185 0
163 186 0
162 185 0
160 184 0
169 192 0
162 186 0
165 189 0
163 186 0
161 184 0
165 188 0
164 187 0
165 190 0
165 189 0
168 191 0
167 190 0
163 186 0
164 187 0
164 188 0
169 193 0
170 194 0
168 193 0
167 191 0
168 192 0
164 188 0
167 190 0
162 186 0
166 190 0
168 192 0
164 188 0
166 190 0
169 193 0
169 194 0
170 195 0
166 190 0
169 194 0
170 194 0
169 193 0
167 192 0
167 191 0
168 193 0
170 194 0
170 196 0
169 194 0
171 196 0
171 196 0
169 194 0
170 195 0
170 195 0
170 194 0
167 193 0
168 193 0
170 194 0
171 196 0
170 195 0
170 195 0
170 194 0
169 194 0
169 194 0
169 194 0
170 195 0
170 195 0
171 195 0
170 195 0
172 196 0
171 196 0
170 195 0
172 196 0
171 196 0
172 196 0
172 196 0
171 196 0
171 195 0
173 197 0
173 197 0
173 197 0
173 197 0
172 197 0
174 197 0
172 197 0
173 197 0
173 197 0
174 197 0
172 196 0
173 197 0
173 197 0
173 197 0
174 197 0
174 197 0
174 198 0
174 198 0
173 197 0
175 198 0
175 198 0
173 197 0
174 198 0
175 198 0
175 198 0
165 185 0
158 177 0
166 186 0
160 178 0
163 183 0
160 179 0
161 181 0
161 181 0
163 181 0
157 175 0
159 177 0
166 184 0
157 175 0
156 174 0
159 177 0
160 179 0
158 176 0
154 172 0
154 173 0
160 178 0
157 175 0
155 172 0
154 172 0
155 172 0
153 171 0
154 172 0
156 173 0
157 175 0
153 170 0
156 173 0
155 172 0
156 174 0
154 172 0
152 169 0
153 170 0
151 167 0
155 173 0
152 169 0
150 167 0
149 166 0
154 171 0
150 167 0
151 168 0
142 159 0
151 168 0
154 171 0
150 167 0
151 168 0
145 162 0
153 170 0
147 163 0
145 162 0
147 163 0
150 167 0
145 162 0
146 162 0
145 162 0
142 159 0
150 168 0
146 162 0
148 165 0
144 161 0
154 172 0
149 167 0
152 170 0
151 168 0
152 169 0
148 166 0
143 161 0
143 159 0
140 157 0
146 164 0
141 158 0
145 163 0
151 169 0
145 163 0
135 152 0
144 161 0
143 161 0
151 170 0
139 158 0
147 166 0
142 161 0
152 171 0
142 161 0
144 162 0
143 162 0
147 165 0
151 170 0
152 171 0
154 174 0
147 166 0
141 160 0
140 160 0
145 163 0
145 163 0
148 166 0
144 163 0
142 161 0
146 166 0
146 166 0
139 159 0
144 163 0
148 168 0
135 155 0
151 171 0
145 165 0
148 169 0
141 161 0
141 161 0
147 167 0
148 168 0
144 165 0
141 161 0
144 164 0
137 156 0
151 172 0
145 166 0
143 165 0
149 168 0
141 161 0
142 163 0
146 167 0
130 149 0
132 153 0
148 169 0
144 165 0
144 166 0
150 170 0
140 160 0
147 169 0
141 161 0
142 163 0
139 158 0
138 159 0
138 159 0
150 171 0
137 158 0
138 158 0
143 164 0
145 166 0
141 161 0
147 168 0
136 157 0
148 170 0
144 165 0
139 160 0
148 168 0
138 159 0
141 161 0
144 164 0
144 166 0
145 167 0
139 160 0
146 168 0
143 164 0
142 164 0
139 161 0
143 164 0
150 172 0
139 159 0
135 156 0
143 165 0
146 167 0
137 158 0
141 163 0
143 164 0
144 165 0
137 159 0
142 163 0
145 167 0
139 161 0
134 154 0
138 159 0
138 160 0
134 156 0
134 155 0
138 159 0
139 160 0
137 158 0
138 159 0
137 158 0
139 160 0
145 165 0
131 152 0
133 154 0
132 154 0
144 165 0
137 160 0
135 156 0
130 150 0
146 167 0
140 162 0
133 154 0
126 147 0
132 154 0
137 159 0
131 153 0
138 159 0
135 156 0
138 159 0
135 156 0
136 158 0
133 155 0
139 160 0
136 157 0
144 164 0
142 163 0
134 154 0
142 162 0
137 158 0
136 156 0
138 159 0
132 153 0
136 158 0
144 166 0
143 166 0
148 168 0
135 156 0
137 160 0
144 167 0
139 161 0
151 171 0
153 175 0
139 159 0
149 171 0
136 157 0
144 166 0
138 160 0
143 164 0
145 166 0
143 165 0
151 173 0
150 171 0
143 165 0
150 172 0
153 175 0
144 166 0
151 173 0
153 175 0
145 168 0
147 168 0
149 171 0
151 172 0
144 164 0
141 162 0
154 176 0
150 172 0
143 165 0
160 182 0
154 176 0
155 177 0
150 172 0
152 174 0
148 170 0
154 176 0
154 175 0
153 174 0
157 180 0
153 175 0
159 182 0
157 179 0
155 177 0
160 183 0
160 182 0
156 178 0
154 176 0
151 174 0
161 184 0
155 177 0
161 182 0
152 174 0
160 182 0
157 180 0
146 168 0
157 180 0
160 182 0
148 170 0
161 184 0
159 181 0
157 179 0
158 180 0
158 180 0
161 184 0
155 178 0
158 180 0
161 184 0
161 184 0
156 179 0
161 184 0
156 179 0
161 184 0
162 185 0
161 185 0
162 185 0
159 182 0
160 183 0
165 187 0
161 184 0
160 183 0
162 184 0
158 180 0
158 181 0
166 189 0
165 188 0
164 187 0
164 187 0
167 190 0
163 187 0
164 187 0
170 193 0
167 191 0
166 189 0
166 190 0
166 190 0
164 187 0
167 190 0
166 190 0
165 189 0
166 189 0
167 191 0
165 189 0
164 188 0
166 190 0
162 185 0
161 184 0
165 189 0
170 194 0
168 192 0
164 188 0
164 189 0
168 193 0
164 188 0
167 192 0
169 194 0
167 191 0
170 195 0
168 193 0
169 194 0
171 195 0
169 193 0
169 194 0
167 191 0
169 194 0
167 191 0
167 192 0
167 192 0
169 194 0
170 195 0
169 193 0
169 193 0
168 192 0
170 194 0
170 195 0
170 195 0
168 193 0
169 193 0
170 195 0
173 196 0
170 196 0
170 195 0
171 196 0
172 196 0
171 195 0
169 193 0
170 195 0
170 195 0
171 196 0
172 196 0
172 196 0
171 195 0
172 196 0
172 196 0
173 197 0
172 196 0
173 197 0
172 196 0
172 197 0
172 197 0
172 197 0
173 197 0
171 196 0
172 196 0
173 197 0
172 197 0
174 197 0
174 197 0
173 196 0
173 197 0
175 198 0
173 197 0
174 198 0
173 197 0
174 198 0
174 198 0
174 198 0
175 198 0
175 198 0
175 198 0
173 197 0
161 180 0
161 181 0
159 178 0
158 177 0
159 178 0
160 178 0
158 177 0
160 179 0
163 181 0
161 180 0
160 179 0
159 177 0
155 174 0
158 177 0
163 183 0
159 178 0
155 173 0
157 175 0
159 177 0
156 172 0
161 179 0
154 173 0
158 177 0
158 175 0
151 168 0
155 173 0
157 174 0
153 170 0
155 172 0
155 172 0
154 172 0
154 171 0
158 176 0
149 165 0
151 168 0
155 172 0
152 170 0
147 164 0
150 168 0
149 166 0
153 170 0
151 169 0
152 169 0
149 166 0
151 169 0
149 166 0
150 166 0
147 164 0
157 174 0
154 170 0
151 167 0
148 164 0
153 170 0
147 165 0
150 168 0
135 152 0
152 169 0
148 165 0
147 164 0
147 165 0
150 167 0
155 172 0
146 164 0
150 167 0
147 164 0
147 165 0
147 166 0
154 173 0
142 161 0
147 166 0
136 155 0
147 165 0
153 171 0
148 167 0
154 173 0
148 166 0
145 163 0
143 160 0
145 164 0
148 166 0
147 165 0
144 163 0
154 174 0
144 162 0
144 162 0
147 165 0
150 169 0
144 163 0
142 162 0
146 165 0
148 167 0
149 168 0
141 159 0
148 168 0
152 171 0
132 150 0
144 164 0
151 171 0
150 170 0
147 168 0
145 166 0
143 162 0
145 164 0
148 168 0
146 167 0
147 168 0
147 168 0
141 162 0
148 168 0
146 167 0
144 165 0
147 167 0
140 159 0
150 170 0
143 163 0
136 157 0
144 164 0
150 171 0
137 157 0
141 162 0
148 170 0
140 161 0
147 167 0
143 165 0
142 163 0
145 164 0
144 165 0
148 169 0
140 161 0
133 154 0
144 165 0
143 164 0
150 171 0
142 163 0
146 167 0
142 164 0
140 159 0
146 167 0
140 161 0
139 160 0
135 156 0
152 174 0
143 163 0
141 163 0
144 166 0
138 161 0
141 162 0
135 156 0
145 166 0
138 159 0
146 167 0
138 159 0
147 169 0
136 157 0
133 154 0
142 163 0
143 164 0
143 165 0
144 165 0
150 172 0
142 164 0
132 154 0
144 166 0
140 161 0
134 156 0
141 162 0
134 155 0
140 161 0
126 146 0
134 155 0
138 160 0
134 155 0
136 156 0
139 160 0
138 158 0
147 169 0
141 162 0
140 162 0
132 153 0
135 156 0
141 163 0
133 154 0
139 160 0
151 173 0
144 166 0
140 161 0
138 160 0
139 160 0
143 165 0
142 164 0
148 169 0
141 162 0
137 159 0
132 152 0
144 165 0
145 166 0
142 163 0
141 161 0
141 163 0
142 163 0
143 164 0
146 167 0
143 165 0
140 161 0
142 164 0
135 157 0
131 152 0
141 162 0
140 161 0
133 154 0
137 158 0
151 173 0
142 163 0
145 167 0
144 165 0
147 168 0
130 150 0
136 156 0
147 168 0
138 159 0
146 168 0
152 173 0
141 163 0
139 161 0
138 161 0
136 158 0
144 165 0
139 160 0
147 168 0
138 158 0
148 169 0
143 165 0
141 162 0
156 177 0
151 173 0
148 169 0
146 168 0
139 161 0
146 168 0
131 152 0
145 166 0
147 169 0
150 171 0
157 180 0
140 161 0
147 169 0
158 179 0
146 168 0
148 170 0
153 175 0
147 170 0
152 174 0
158 180 0
152 174 0
138 160 0
153 175 0
154 175 0
155 178 0
150 172 0
150 171 0
148 170 0
156 178 0
158 180 0
155 177 0
149 171 0
157 179 0
157 179 0
149 172 0
153 176 0
161 184 0
155 177 0
155 176 0
157 179 0
157 180 0
152 175 0
154 176 0
154 176 0
154 176 0
165 188 0
155 177 0
161 183 0
159 182 0
159 181 0
157 180 0
158 180 0
157 180 0
159 181 0
164 187 0
163 186 0
164 186 0
161 183 0
162 185 0
166 188 0
166 188 0
163 186 0
155 178 0
164 187 0
162 185 0
164 187 0
162 184 0
157 180 0
157 180 0
160 184 0
166 189 0
164 188 0
164 187 0
163 186 0
164 187 0
163 187 0
168 191 0
165 188 0
161 184 0
166 189 0
165 188 0
159 183 0
162 185 0
163 188 0
169 193 0
163 187 0
164 188 0
164 188 0
167 191 0
166 189 0
170 194 0
163 187 0
166 190 0
165 189 0
169 192 0
168 191 0
168 192 0
162 186 0
169 193 0
168 192 0
166 190 0
169 193 0
167 192 0
170 193 0
168 193 0
163 188 0
167 191 0
169 194 0
169 193 0
167 192 0
171 196 0
170 193 0
172 196 0
168 193 0
171 195 0
168 193 0
169 193 0
171 195 0
170 194 0
167 193 0
173 196 0
171 196 0
168 192 0
170 196 0
172 197 0
168 193 0
172 197 0
170 195 0
172 196 0
170 195 0
171 195 0
170 195 0
171 196 0
171 195 0
169 194 0
170 195 0
170 194 0
170 195 0
172 196 0
170 195 0
172 196 0
172 196 0
171 196 0
170 195 0
169 194 0
173 197 0
172 197 0
174 197 0
173 196 0
173 197 0
173 197 0
173 197 0
173 197 0
173 197 0
173 197 0
172 197 0
173 197 0
173 197 0
173 197 0
174 197 0
173 197 0
173 197 0
174 198 0
174 198 0
176 198 0
174 198 0
173 197 0
161 180 0
161 181 0
163 182 0
163 183 0
159 178 0
157 175 0
163 182 0
157 175 0
158 178 0
162 181 0
159 177 0
161 180 0
160 179 0
159 178 0
162 180 0
157 176 0
156 174 0
159 177 0
155 173 0
151 169 0
157 174 0
158 176 0
159 177 0
154 172 0
159 176 0
158 176 0
156 174 0
156 174 0
151 169 0
156 174 0
155 172 0
149 166 0
148 165 0
153 171 0
156 173 0
155 172 0
152 169 0
156 173 0
155 172 0
152 169 0
152 170 0
153 170 0
155 172 0
149 166 0
153 170 0
156 174 0
151 168 0
153 170 0
151 168 0
149 167 0
148 165 0
150 167 0
145 162 0
145 162 0
145 163 0
146 164 0
150 167 0
145 163 0
150 168 0
149 167 0
147 164 0
150 169 0
152 170 0
152 169 0
145 164 0
147 165 0
149 168 0
150 168 0
142 160 0
145 163 0
153 172 0
149 167 0
150 169 0
151 170 0
147 166 0
151 168 0
145 163 0
145 163 0
147 166 0
142 161 0
146 165 0
145 165 0
151 170 0
153 172 0
148 168 0
144 163 0
135 154 0
149 168 0
147 166 0
140 159 0
144 163 0
147 166 0
142 161 0
144 164 0
147 167 0
142 161 0
148 167 0
147 167 0
145 165 0
144 163 0
143 163 0
144 163 0
144 165 0
147 168 0
152 172 0
140 161 0
143 162 0
149 169 0
138 156 0
141 161 0
139 159 0
145 166 0
145 166 0
146 167 0
142 162 0
147 168 0
140 160 0
142 163 0
141 162 0
143 163 0
145 166 0
147 169 0
145 166 0
148 169 0
149 169 0
147 168 0
147 169 0
135 155 0
142 161 0
141 163 0
138 159 0
139 159 0
137 158 0
151 171 0
141 163 0
143 164 0
146 167 0
141 162 0
139 160 0
146 167 0
151 173 0
136 157 0
148 170 0
144 166 0
137 158 0
138 159 0
148 168 0
142 164 0
132 152 0
140 161 0
145 167 0
140 161 0
149 170 0
152 172 0
148 169 0
133 154 0
152 174 0
146 168 0
144 166 0
137 158 0
144 165 0
143 165 0
142 162 0
146 167 0
142 163 0
144 166 0
142 163 0
145 166 0
137 159 0
138 160 0
136 158 0
141 163 0
141 163 0
138 159 0
140 162 0
142 164 0
132 154 0
129 150 0
141 162 0
144 164 0
136 158 0
139 159 0
147 169 0
137 159 0
144 165 0
141 161 0
154 176 0
142 164 0
145 166 0
144 165 0
138 160 0
148 169 0
134 155 0
145 166 0
142 163 0
144 166 0
141 163 0
137 158 0
138 159 0
141 162 0
132 153 0
144 166 0
131 152 0
137 159 0
143 164 0
137 158 0
144 166 0
149 170 0
136 158 0
141 163 0
143 165 0
146 168 0
146 167 0
139 160 0
144 165 0
152 174 0
141 162 0
143 165 0
146 167 0
136 158 0
147 168 0
145 167 0
134 155 0
142 163 0
139 160 0
147 169 0
143 166 0
138 158 0
150 172 0
150 172 0
142 163 0
146 167 0
156 177 0
143 164 0
146 168 0
147 168 0
154 175 0
145 167 0
147 169 0
146 167 0
154 176 0
152 173 0
135 157 0
155 176 0
154 176 0
151 173 0
152 175 0
157 179 0
149 171 0
159 180 0
152 174 0
157 180 0
148 171 0
154 175 0
158 180 0
149 172 0
153 175 0
157 178 0
156 178 0
157 179 0
144 166 0
151 175 0
154 175 0
153 174 0
157 179 0
162 184 0
147 170 0
161 183 0
157 179 0
158 180 0
148 170 0
155 177 0
158 179 0
157 179 0
155 177 0
157 180 0
153 175 0
153 175 0
159 181 0
155 178 0
159 181 0
164 186 0
161 184 0
166 188 0
156 179 0
159 181 0
155 178 0
160 183 0
163 186 0
163 185 0
156 179 0
159 182 0
158 181 0
159 181 0
164 186 0
165 188 0
162 185 0
162 184 0
166 189 0
160 182 0
161 183 0
159 182 0
165 189 0
160 183 0
160 184 0
164 187 0
158 181 0
160 183 0
163 187 0
167 190 0
168 191 0
166 189 0
167 190 0
163 186 0
164 188 0
163 186 0
167 191 0
167 190 0
168 192 0
166 189 0
164 188 0
165 188 0
167 191 0
164 189 0
168 192 0
166 190 0
169 193 0
164 188 0
166 189 0
166 189 0
162 186 0
168 191 0
162 186 0
166 190 0
171 195 0
167 191 0
167 191 0
168 192 0
166 190 0
171 195 0
169 193 0
168 192 0
165 188 0
170 194 0
167 192 0
169 193 0
169 193 0
172 196 0
170 194 0
168 193 0
167 192 0
168 192 0
169 194 0
170 195 0
170 195 0
171 196 0
169 193 0
169 194 0
169 194 0
170 194 0
170 195 0
170 195 0
172 196 0
169 194 0
172 196 0
171 196 0
170 195 0
172 196 0
172 196 0
171 195 0
171 196 0
174 198 0
173 197 0
171 196 0
171 196 0
171 196 0
173 197 0
172 196 0
172 196 0
173 197 0
172 197 0
173 197 0
175 198 0
172 197 0
174 197 0
174 197 0
172 196 0
172 196 0
173 197 0
173 197 0
173 196 0
172 196 0
173 197 0
173 197 0
174 197 0
173 197 0
173 197 0
174 197 0
175 198 0
174 198 0
160 180 0
163 183 0
158 178 0
158 177 0
160 180 0
164 182 0
157 176 0
156 174 0
155 174 0
161 180 0
161 180 0
152 170 0
162 181 0
160 179 0
160 178 0
157 175 0
155 173 0
158 177 0
158 176 0
156 174 0
155 173 0
154 172 0
157 175 0
158 177 0
152 170 0
155 174 0
157 176 0
157 175 0
153 170 0
153 171 0
153 170 0
152 169 0
153 171 0
150 168 0
150 167 0
153 171 0
150 168 0
151 169 0
154 172 0
150 167 0
147 165 0
153 172 0
155 173 0
154 172 0
147 165 0
152 170 0
154 171 0
145 163 0
152 171 0
147 165 0
146 163 0
152 170 0
156 173 0
152 170 0
150 168 0
149 167 0
149 168 0
149 166 0
148 166 0
145 162 0
152 170 0
149 166 0
151 169 0
148 166 0
144 161 0
145 163 0
153 173 0
148 167 0
139 157 0
151 170 0
141 160 0
148 166 0
154 173 0
149 168 0
155 175 0
147 166 0
146 165 0
148 168 0
141 159 0
148 168 0
150 169 0
145 164 0
145 164 0
148 167 0
149 168 0
148 167 0
144 163 0
144 163 0
148 168 0
152 171 0
148 168 0
151 170 0
149 169 0
148 166 0
145 165 0
147 167 0
150 170 0
151 172 0
143 163 0
149 170 0
140 159 0
149 168 0
146 167 0
142 162 0
151 171 0
151 172 0
149 168 0
150 171 0
146 165 0
148 168 0
143 163 0
149 170 0
144 165 0
152 173 0
148 169 0
147 168 0
150 172 0
141 163 0
143 163 0
149 170 0
147 168 0
150 171 0
152 173 0
146 168 0
146 166 0
145 166 0
146 167 0
154 175 0
147 167 0
143 163 0
145 166 0
151 173 0
151 172 0
148 169 0
139 160 0
150 171 0
142 165 0
142 162 0
145 166 0
148 170 0
140 162 0
146 167 0
142 163 0
139 161 0
151 173 0
146 167 0
145 167 0
151 172 0
147 168 0
147 169 0
143 165 0
148 171 0
142 163 0
145 166 0
143 164 0
140 161 0
142 163 0
147 168 0
154 176 0
144 165 0
135 157 0
144 165 0
138 159 0
139 161 0
138 161 0
148 168 0
151 171 0
139 160 0
140 161 0
143 163 0
142 164 0
140 163 0
135 156 0
148 170 0
140 161 0
142 164 0
132 152 0
138 159 0
138 160 0
143 166 0
138 159 0
146 168 0
139 161 0
138 160 0
135 156 0
145 167 0
132 153 0
145 167 0
140 162 0
145 165 0
143 164 0
138 159 0
146 167 0
145 166 0
140 162 0
146 168 0
141 163 0
139 161 0
142 163 0
141 163 0
142 163 0
152 174 0
144 166 0
143 164 0
153 174 0
141 164 0
151 173 0
146 167 0
152 174 0
144 166 0
147 169 0
142 163 0
139 161 0
143 164 0
151 173 0
139 161 0
146 167 0
143 165 0
153 173 0
138 159 0
141 162 0
145 166 0
148 170 0
151 173 0
152 174 0
143 164 0
147 170 0
150 171 0
149 171 0
143 163 0
148 170 0
159 181 0
157 179 0
147 170 0
147 170 0
150 171 0
152 174 0
137 160 0
152 173 0
149 170 0
147 169 0
154 176 0
155 177 0
143 165 0
148 170 0
147 168 0
154 176 0
151 172 0
152 174 0
151 173 0
151 173 0
152 173 0
150 173 0
151 173 0
158 179 0
156 178 0
156 178 0
153 175 0
146 167 0
151 173 0
151 173 0
148 171 0
150 172 0
157 179 0
164 186 0
150 172 0
161 184 0
151 173 0
161 183 0
156 179 0
157 178 0
156 179 0
158 181 0
156 178 0
159 182 0
163 186 0
153 176 0
160 182 0
160 182 0
162 185 0
160 182 0
159 181 0
159 182 0
163 186 0
163 185 0
163 185 0
157 180 0
164 186 0
163 185 0
163 186 0
160 184 0
161 184 0
158 181 0
166 189 0
162 185 0
155 178 0
159 181 0
155 178 0
162 184 0
159 182 0
167 190 0
159 182 0
160 182 0
164 187 0
163 186 0
163 186 0
165 187 0
158 182 0
168 190 0
166 188 0
161 184 0
165 188 0
160 183 0
162 185 0
166 189 0
159 182 0
168 191 0
164 188 0
167 191 0
170 193 0
168 192 0
165 188 0
165 188 0
166 189 0
168 192 0
165 189 0
164 187 0
171 194 0
167 191 0
167 191 0
168 192 0
165 188 0
167 191 0
169 193 0
168 192 0
171 195 0
167 191 0
166 190 0
167 191 0
163 187 0
171 195 0
168 191 0
169 193 0
169 193 0
167 191 0
169 193 0
168 192 0
165 190 0
169 193 0
171 195 0
168 192 0
167 192 0
166 190 0
169 193 0
170 194 0
171 196 0
170 195 0
171 195 0
172 196 0
168 193 0
170 194 0
170 194 0
172 196 0
170 194 0
170 196 0
170 194 0
169 193 0
171 195 0
170 194 0
170 195 0
172 196 0
170 194 0
171 195 0
172 196 0
171 196 0
172 196 0
172 197 0
174 197 0
170 195 0
170 195 0
170 195 0
172 196 0
170 194 0
172 196 0
172 196 0
171 195 0
174 198 0
173 197 0
172 197 0
173 197 0
173 197 0
173 196 0
175 198 0
172 196 0
172 197 0
174 197 0
174 198 0
174 198 0
174 198 0
174 198 0
157 175 0
165 184 0
160 179 0
162 181 0
162 181 0
161 181 0
151 169 0
165 183 0
155 173 0
155 173 0
158 177 0
157 175 0
159 178 0
157 176 0
160 178 0
154 173 0
156 175 0
153 172 0
159 177 0
155 173 0
158 176 0
158 176 0
156 174 0
158 176 0
159 178 0
155 173 0
156 173 0
156 174 0
158 176 0
155 173 0
156 173 0
153 171 0
151 168 0
155 173 0
157 174 0
150 168 0
151 169 0
149 166 0
155 174 0
155 173 0
160 178 0
152 169 0
149 166 0
155 174 0
157 175 0
154 172 0
156 174 0
148 165 0
153 171 0
151 168 0
148 166 0
153 170 0
157 175 0
147 164 0
146 164 0
151 169 0
153 172 0
154 172 0
147 165 0
152 170 0
153 171 0
152 170 0
158 176 0
155 173 0
150 169 0
147 166 0
153 171 0
154 172 0
150 169 0
146 164 0
150 169 0
148 167 0
147 166 0
141 159 0
143 162 0
148 167 0
151 171 0
150 169 0
152 172 0
148 167 0
153 172 0
151 171 0
149 169 0
148 167 0
153 174 0
151 171 0
149 169 0
152 172 0
145 165 0
147 166 0
135 154 0
150 171 0
150 170 0
146 165 0
155 176 0
147 166 0
149 169 0
147 167 0
154 175 0
150 170 0
148 168 0
145 165 0
150 171 0
153 174 0
149 169 0
149 170 0
144 165 0
148 169 0
146 166 0
144 165 0
149 170 0
138 160 0
152 173 0
150 172 0
149 170 0
140 160 0
148 169 0
146 166 0
147 168 0
149 170 0
144 165 0
150 171 0
147 169 0
145 167 0
149 170 0
142 163 0
154 176 0
149 171 0
151 173 0
144 164 0
150 171 0
136 157 0
152 174 0
143 164 0
154 177 0
141 163 0
143 164 0
145 166 0
142 162 0
150 173 0
144 165 0
147 168 0
149 170 0
136 158 0
147 169 0
141 164 0
151 172 0
140 161 0
145 165 0
153 175 0
142 163 0
151 173 0
151 173 0
143 164 0
143 165 0
149 170 0
144 165 0
143 164 0
132 153 0
148 169 0
141 162 0
142 163 0
134 156 0
137 159 0
145 167 0
143 165 0
145 166 0
135 157 0
137 159 0
147 168 0
145 167 0
150 171 0
140 162 0
138 160 0
135 157 0
145 166 0
144 165 0
145 165 0
143 165 0
130 152 0
133 155 0
137 159 0
139 162 0
132 153 0
136 158 0
141 163 0
145 167 0
140 161 0
137 158 0
128 149 0
139 160 0
140 160 0
143 165 0
144 165 0
144 166 0
138 160 0
145 167 0
147 169 0
145 167 0
147 168 0
139 161 0
140 161 0
144 165 0
147 169 0
146 168 0
146 168 0
148 169 0
140 161 0
140 163 0
140 161 0
145 166 0
139 161 0
140 160 0
143 164 0
146 168 0
145 167 0
141 162 0
148 170 0
144 167 0
144 167 0
143 164 0
138 159 0
147 169 0
150 171 0
153 175 0
147 168 0
143 164 0
155 176 0
141 164 0
143 165 0
141 164 0
142 164 0
151 173 0
146 169 0
150 173 0
145 167 0
152 174 0
151 173 0
155 176 0
151 174 0
141 163 0
153 175 0
149 171 0
153 174 0
148 169 0
156 177 0
151 173 0
151 173 0
149 171 0
153 176 0
149 171 0
157 178 0
157 179 0
159 181 0
150 173 0
154 176 0
153 175 0
155 176 0
154 175 0
152 174 0
150 172 0
149 171 0
156 178 0
159 181 0
157 178 0
153 175 0
152 175 0
153 175 0
164 186 0
161 182 0
154 177 0
161 183 0
158 179 0
157 180 0
157 181 0
158 181 0
160 182 0
164 186 0
157 180 0
159 182 0
156 179 0
163 186 0
163 186 0
151 174 0
158 181 0
154 177 0
161 184 0
164 187 0
152 174 0
157 179 0
159 182 0
165 187 0
165 188 0
165 187 0
156 178 0
167 190 0
159 182 0
162 185 0
157 181 0
166 188 0
157 180 0
162 184 0
159 182 0
161 184 0
161 184 0
168 191 0
163 185 0
162 185 0
159 182 0
169 192 0
163 186 0
157 180 0
163 185 0
160 183 0
164 187 0
162 185 0
158 180 0
167 189 0
162 186 0
166 190 0
169 192 0
169 192 0
165 189 0
164 188 0
164 187 0
166 189 0
172 195 0
170 194 0
167 190 0
162 185 0
162 186 0
164 188 0
161 183 0
168 192 0
162 186 0
168 192 0
168 192 0
165 189 0
167 191 0
168 192 0
166 189 0
170 193 0
168 193 0
168 192 0
169 193 0
169 193 0
169 194 0
168 192 0
171 195 0
170 194 0
169 194 0
171 195 0
170 194 0
171 195 0
172 196 0
168 193 0
168 193 0
168 193 0
171 196 0
169 193 0
169 194 0
169 193 0
171 195 0
170 194 0
171 196 0
169 193 0
171 195 0
170 194 0
169 193 0
171 195 0
172 196 0
174 197 0
171 196 0
173 196 0
171 195 0
169 194 0
171 195 0
171 195 0
172 196 0
170 195 0
172 196 0
173 197 0
174 197 0
172 197 0
171 195 0
173 197 0
174 198 0
173 197 0
172 196 0
173 197 0
173 197 0
175 198 0
173 197 0
172 196 0
172 196 0
173 197 0
172 196 0
172 196 0
175 198 0
175 198 0
163 181 0
162 181 0
165 183 0
161 180 0
161 181 0
165 184 0
161 181 0
161 179 0
157 176 0
154 172 0
157 175 0
157 176 0
160 179 0
165 183 0
158 177 0
155 172 0
157 175 0
157 176 0
157 175 0
158 176 0
155 174 0
157 175 0
155 174 0
156 174 0
156 174 0
152 171 0
153 172 0
151 169 0
158 177 0
155 173 0
155 173 0
155 174 0
151 170 0
156 173 0
154 172 0
154 173 0
149 167 0
153 171 0
148 166 0
146 162 0
156 174 0
150 169 0
151 169 0
149 167 0
155 174 0
158 176 0
146 164 0
156 175 0
152 171 0
156 175 0
157 177 0
151 169 0
150 168 0
148 167 0
155 174 0
152 170 0
152 170 0
146 164 0
149 167 0
154 173 0
150 168 0
151 169 0
147 166 0
153 171 0
146 165 0
153 173 0
147 166 0
146 165 0
153 172 0
151 170 0
149 169 0
152 170 0
146 164 0
150 169 0
154 174 0
155 176 0
149 169 0
146 165 0
159 178 0
157 177 0
147 167 0
153 173 0
152 171 0
143 162 0
149 168 0
134 153 0
148 168 0
155 176 0
155 175 0
140 160 0
142 161 0
159 179 0
150 169 0
155 174 0
146 167 0
151 170 0
147 167 0
153 174 0
145 166 0
146 167 0
152 172 0
147 167 0
142 162 0
146 167 0
144 165 0
153 173 0
150 171 0
142 162 0
147 168 0
148 169 0
152 174 0
151 172 0
151 172 0
154 175 0
141 161 0
149 169 0
147 167 0
152 173 0
155 176 0
151 173 0
147 169 0
145 166 0
146 166 0
139 159 0
149 170 0
146 167 0
149 170 0
143 165 0
148 170 0
139 159 0
150 171 0
146 167 0
146 167 0
142 163 0
149 171 0
145 166 0
148 169 0
145 166 0
149 170 0
145 167 0
148 170 0
147 169 0
148 169 0
154 176 0
140 161 0
145 166 0
141 163 0
139 161 0
149 170 0
151 173 0
143 164 0
140 160 0
147 170 0
146 167 0
140 161 0
148 170 0
148 169 0
139 161 0
140 161 0
144 166 0
140 163 0
147 169 0
145 166 0
145 166 0
143 164 0
139 161 0
150 172 0
143 164 0
150 172 0
143 165 0
139 161 0
148 168 0
147 170 0
144 166 0
139 161 0
143 165 0
141 163 0
140 162 0
144 165 0
152 173 0
145 166 0
148 169 0
144 166 0
145 166 0
146 167 0
147 168 0
136 157 0
146 167 0
137 157 0
148 170 0
140 162 0
141 162 0
154 175 0
136 158 0
147 169 0
143 164 0
147 168 0
147 169 0
149 171 0
148 170 0
150 172 0
145 167 0
137 159 0
143 165 0
149 170 0
141 164 0
153 174 0
141 163 0
142 164 0
147 168 0
150 172 0
146 167 0
149 170 0
150 171 0
137 158 0
143 166 0
138 160 0
135 156 0
146 167 0
144 166 0
153 174 0
148 170 0
143 165 0
147 169 0
150 172 0
153 176 0
141 163 0
146 168 0
145 166 0
151 172 0
145 166 0
148 170 0
149 171 0
143 166 0
151 173 0
146 168 0
152 174 0
157 179 0
152 174 0
149 172 0
151 173 0
154 175 0
156 177 0
150 172 0
149 171 0
153 175 0
156 178 0
150 173 0
149 171 0
151 174 0
154 177 0
156 179 0
149 170 0
149 172 0
155 178 0
158 180 0
151 172 0
155 177 0
159 181 0
149 171 0
155 177 0
151 174 0
159 182 0
159 181 0
161 183 0
157 179 0
156 178 0
150 171 0
164 187 0
156 178 0
155 178 0
154 178 0
160 183 0
158 180 0
161 184 0
160 183 0
160 182 0
160 181 0
161 184 0
161 184 0
158 181 0
162 184 0
155 177 0
158 181 0
159 181 0
163 185 0
160 183 0
153 175 0
156 178 0
163 186 0
165 188 0
163 185 0
167 189 0
163 186 0
159 181 0
167 190 0
162 185 0
166 188 0
159 181 0
161 184 0
160 183 0
170 192 0
159 182 0
166 189 0
166 189 0
162 185 0
160 183 0
159 182 0
164 187 0
163 186 0
157 180 0
166 189 0
166 188 0
168 192 0
163 186 0
164 186 0
166 190 0
162 185 0
163 186 0
168 191 0
171 194 0
167 191 0
165 188 0
172 195 0
164 187 0
162 185 0
168 191 0
162 186 0
162 185 0
167 191 0
167 190 0
167 191 0
168 191 0
165 189 0
167 190 0
166 189 0
167 191 0
165 189 0
170 194 0
170 194 0
170 194 0
167 191 0
163 188 0
169 193 0
171 195 0
169 192 0
170 194 0
167 191 0
168 192 0
170 194 0
169 193 0
169 193 0
169 193 0
171 195 0
170 195 0
171 194 0
171 196 0
172 195 0
168 192 0
170 194 0
171 195 0
172 196 0
168 193 0
171 195 0
171 195 0
170 196 0
171 196 0
171 196 0
171 196 0
170 194 0
171 195 0
171 195 0
173 197 0
171 195 0
173 197 0
171 196 0
173 197 0
171 195 0
172 196 0
172 196 0
173 196 0
172 196 0
171 196 0
172 196 0
172 196 0
171 195 0
172 196 0
173 197 0
171 195 0
173 197 0
174 198 0
175 198 0
172 197 0
175 198 0
174 197 0
173 197 0
173 196 0
172 196 0
173 197 0
173 197 0
163 182 0
164 183 0
165 184 0
159 178 0
162 181 0
162 182 0
159 177 0
154 172 0
160 179 0
157 176 0
160 180 0
158 176 0
154 173 0
162 180 0
159 177 0
158 177 0
157 176 0
160 178 0
158 175 0
159 178 0
155 173 0
157 176 0
156 174 0
156 174 0
160 178 0
158 176 0
155 172 0
154 172 0
154 173 0
155 173 0
152 170 0
157 176 0
151 170 0
158 177 0
150 169 0
157 176 0
153 171 0
149 167 0
155 173 0
152 170 0
154 173 0
155 174 0
158 176 0
152 170 0
157 174 0
150 169 0
154 173 0
158 177 0
147 165 0
157 175 0
151 170 0
151 170 0
148 167 0
158 178 0
154 172 0
150 169 0
153 171 0
153 172 0
149 168 0
145 164 0
150 168 0
148 168 0
150 169 0
151 170 0
157 177 0
152 171 0
153 172 0
152 171 0
151 169 0
152 171 0
149 167 0
151 171 0
150 169 0
149 169 0
152 173 0
152 171 0
152 172 0
156 177 0
155 175 0
150 170 0
151 170 0
147 167 0
147 168 0
147 167 0
149 169 0
149 168 0
152 172 0
147 167 0
152 172 0
147 167 0
157 177 0
145 165 0
149 169 0
142 161 0
145 164 0
148 168 0
157 179 0
147 169 0
155 175 0
139 158 0
145 166 0
149 170 0
147 168 0
148 169 0
148 168 0
146 167 0
151 171 0
147 167 0
131 151 0
148 171 0
146 167 0
152 172 0
149 169 0
143 165 0
149 171 0
140 161 0
145 165 0
152 174 0
144 165 0
151 173 0
139 161 0
149 169 0
146 167 0
144 165 0
140 161 0
143 164 0
153 174 0
146 168 0
143 163 0
150 171 0
149 170 0
140 161 0
145 167 0
150 171 0
148 169 0
144 166 0
138 160 0
151 174 0
147 169 0
142 164 0
145 166 0
146 168 0
143 164 0
147 169 0
148 171 0
147 168 0
144 166 0
143 165 0
145 165 0
146 168 0
147 169 0
144 166 0
140 161 0
146 168 0
145 167 0
141 162 0
149 171 0
138 160 0
146 168 0
141 163 0
149 170 0
139 160 0
145 166 0
143 164 0
142 163 0
145 168 0
142 165 0
141 163 0
132 155 0
143 164 0
137 158 0
141 163 0
145 166 0
144 166 0
139 160 0
153 174 0
140 162 0
139 160 0
149 170 0
146 167 0
140 161 0
134 155 0
154 176 0
144 166 0
141 161 0
134 155 0
141 163 0
142 164 0
143 164 0
136 158 0
142 163 0
148 170 0
142 164 0
143 165 0
145 167 0
142 163 0
140 162 0
149 171 0
140 161 0
138 160 0
139 161 0
146 167 0
150 171 0
144 166 0
148 170 0
138 159 0
149 170 0
148 171 0
147 168 0
141 162 0
148 170 0
143 164 0
147 169 0
146 167 0
153 174 0
139 161 0
148 171 0
143 165 0
154 176 0
142 164 0
154 177 0
149 170 0
146 168 0
140 161 0
143 164 0
153 174 0
152 173 0
143 165 0
155 177 0
151 173 0
143 165 0
156 177 0
143 165 0
153 175 0
154 176 0
151 173 0
153 174 0
151 173 0
152 173 0
152 175 0
153 176 0
158 179 0
149 171 0
151 173 0
149 172 0
150 172 0
152 175 0
155 176 0
148 171 0
147 169 0
156 178 0
154 176 0
148 170 0
153 174 0
146 167 0
148 170 0
162 184 0
148 170 0
149 171 0
156 178 0
156 178 0
155 177 0
159 181 0
156 179 0
162 185 0
152 174 0
157 179 0
158 181 0
154 177 0
160 182 0
151 174 0
157 180 0
158 179 0
159 181 0
160 183 0
160 182 0
155 177 0
161 184 0
162 185 0
155 177 0
152 174 0
161 183 0
160 182 0
161 182 0
162 185 0
165 188 0
163 186 0
159 182 0
159 183 0
158 181 0
155 177 0
159 181 0
163 185 0
162 185 0
158 181 0
162 185 0
166 189 0
158 180 0
166 189 0
163 186 0
163 185 0
161 183 0
165 187 0
163 186 0
162 184 0
163 186 0
165 188 0
164 188 0
169 193 0
163 186 0
169 191 0
164 186 0
163 187 0
162 185 0
162 186 0
163 186 0
160 183 0
164 186 0
166 189 0
160 184 0
165 188 0
162 185 0
161 185 0
168 190 0
165 188 0
167 191 0
166 189 0
163 187 0
167 190 0
168 191 0
168 191 0
168 192 0
169 192 0
165 189 0
164 187 0
167 191 0
167 191 0
168 192 0
164 188 0
171 194 0
168 193 0
169 193 0
167 191 0
169 193 0
168 191 0
169 193 0
165 188 0
171 195 0
170 193 0
168 192 0
170 195 0
171 195 0
170 194 0
171 194 0
169 194 0
167 191 0
170 195 0
169 193 0
171 195 0
169 193 0
169 193 0
174 197 0
167 191 0
170 195 0
172 196 0
172 197 0
172 196 0
170 195 0
170 194 0
172 196 0
170 194 0
171 195 0
170 195 0
170 195 0
172 197 0
172 196 0
170 195 0
171 195 0
171 195 0
170 194 0
173 197 0
172 196 0
171 195 0
171 195 0
174 197 0
173 197 0
174 197 0
172 196 0
174 197 0
174 197 0
172 197 0
172 197 0
173 197 0
174 197 0
173 197 0
172 195 0
173 197 0
175 198 0
174 197 0
171 195 0
164 183 0
161 181 0
161 179 0
163 183 0
161 181 0
159 178 0
156 174 0
159 178 0
157 175 0
158 178 0
158 177 0
161 181 0
155 173 0
158 175 0
159 176 0
161 179 0
158 176 0
156 174 0
151 168 0
156 175 0
157 175 0
149 167 0
153 171 0
151 169 0
158 176 0
158 177 0
157 176 0
156 174 0
161 180 0
154 173 0
152 170 0
155 173 0
150 168 0
153 170 0
151 169 0
158 176 0
154 173 0
150 168 0
154 173 0
149 168 0
156 174 0
155 174 0
145 164 0
154 173 0
153 172 0
151 169 0
151 171 0
149 168 0
156 173 0
155 174 0
152 170 0
157 175 0
151 169 0
152 171 0
148 166 0
156 175 0
153 172 0
147 166 0
147 166 0
152 170 0
158 178 0
149 167 0
150 168 0
150 168 0
156 175 0
151 170 0
154 172 0
151 171 0
155 175 0
151 170 0
155 174 0
146 166 0
153 172 0
153 172 0
154 173 0
151 169 0
148 167 0
154 175 0
150 170 0
150 170 0
153 173 0
156 176 0
147 167 0
150 169 0
154 174 0
152 172 0
153 173 0
153 173 0
151 172 0
146 165 0
145 165 0
145 165 0
146 166 0
153 173 0
150 170 0
154 174 0
152 173 0
151 171 0
145 166 0
143 163 0
151 171 0
152 172 0
144 165 0
152 173 0
145 166 0
148 169 0
147 167 0
146 167 0
149 171 0
146 168 0
150 172 0
151 172 0
154 175 0
150 171 0
146 168 0
153 174 0
149 171 0
145 165 0
146 167 0
147 168 0
149 171 0
149 170 0
149 171 0
147 167 0
141 162 0
138 159 0
145 166 0
144 167 0
147 168 0
149 171 0
152 174 0
147 169 0
149 170 0
147 168 0
147 170 0
137 158 0
150 172 0
146 167 0
149 171 0
149 170 0
149 171 0
143 164 0
147 168 0
146 168 0
148 170 0
139 159 0
140 162 0
138 161 0
141 162 0
146 167 0
140 161 0
142 164 0
143 166 0
133 156 0
142 164 0
143 166 0
135 157 0
146 167 0
143 164 0
149 170 0
132 153 0
136 157 0
138 160 0
136 157 0
143 165 0
142 163 0
144 166 0
145 166 0
150 171 0
136 158 0
143 164 0
144 167 0
141 163 0
150 172 0
146 168 0
143 164 0
136 158 0
152 174 0
140 161 0
144 167 0
148 169 0
140 161 0
142 164 0
135 157 0
141 162 0
149 170 0
145 167 0
147 169 0
147 167 0
144 166 0
143 164 0
136 156 0
147 169 0
143 165 0
140 162 0
142 165 0
142 163 0
141 163 0
150 172 0
144 165 0
141 163 0
141 164 0
141 162 0
149 171 0
144 165 0
141 163 0
150 172 0
143 164 0
142 163 0
140 162 0
144 165 0
140 162 0
145 167 0
152 174 0
139 162 0
152 174 0
147 169 0
152 174 0
141 163 0
140 161 0
143 165 0
140 163 0
146 168 0
152 173 0
148 170 0
141 163 0
147 169 0
152 174 0
144 166 0
145 167 0
142 164 0
149 172 0
148 170 0
152 174 0
149 172 0
146 170 0
145 167 0
153 175 0
156 178 0
154 177 0
157 178 0
155 177 0
149 171 0
153 175 0
150 172 0
149 170 0
149 171 0
147 169 0
156 177 0
151 173 0
142 165 0
154 176 0
158 180 0
154 176 0
158 181 0
159 182 0
154 176 0
155 177 0
150 173 0
152 175 0
153 175 0
163 185 0
157 180 0
155 178 0
155 177 0
155 177 0
161 184 0
155 178 0
158 180 0
156 178 0
158 180 0
149 172 0
157 180 0
159 182 0
160 183 0
159 182 0
159 181 0
154 176 0
152 174 0
159 181 0
164 186 0
160 182 0
154 177 0
161 183 0
158 181 0
156 179 0
154 178 0
162 185 0
165 187 0
163 186 0
157 179 0
162 185 0
155 178 0
160 183 0
161 183 0
161 184 0
166 188 0
169 192 0
161 184 0
165 188 0
160 183 0
161 184 0
165 188 0
159 181 0
159 183 0
159 182 0
167 190 0
161 184 0
165 188 0
167 190 0
166 189 0
170 193 0
163 186 0
164 187 0
162 186 0
166 188 0
165 187 0
169 192 0
167 190 0
170 193 0
162 186 0
169 191 0
165 189 0
169 192 0
171 195 0
163 187 0
170 194 0
167 190 0
165 188 0
168 192 0
167 190 0
168 191 0
167 189 0
171 195 0
165 189 0
172 195 0
168 191 0
169 193 0
168 192 0
166 190 0
168 191 0
172 196 0
165 190 0
166 190 0
169 192 0
168 191 0
169 192 0
170 194 0
169 193 0
167 191 0
170 194 0
168 192 0
168 191 0
172 196 0
171 195 0
170 194 0
168 192 0
171 195 0
168 192 0
170 194 0
171 195 0
172 196 0
168 192 0
171 195 0
170 194 0
171 195 0
173 196 0
171 196 0
173 196 0
171 195 0
170 194 0
170 194 0
170 194 0
170 195 0
172 196 0
171 196 0
172 196 0
171 195 0
171 194 0
173 197 0
173 197 0
172 196 0
172 196 0
172 196 0
171 195 0
172 196 0
173 197 0
172 196 0
174 198 0
173 197 0
173 197 0
174 198 0
172 196 0
174 197 0
172 196 0
173 196 0
172 196 0
174 198 0
175 198 0
173 197 0
162 181 0
159 178 0
159 178 0
161 180 0
158 177 0
161 180 0
161 180 0
159 177 0
160 179 0
161 179 0
161 180 0
157 176 0
158 177 0
158 176 0
161 180 0
156 175 0
161 179 0
155 173 0
159 178 0
160 179 0
159 179 0
158 176 0
160 179 0
157 175 0
154 173 0
158 176 0
152 169 0
159 178 0
153 171 0
155 174 0
160 180 0
157 175 0
156 174 0
158 177 0
155 173 0
157 176 0
153 172 0
160 179 0
155 173 0
152 171 0
149 167 0
152 170 0
155 172 0
152 171 0
153 172 0
155 173 0
156 175 0
154 172 0
156 175 0
154 171 0
154 174 0
154 173 0
152 171 0
154 172 0
152 171 0
154 174 0
153 172 0
154 173 0
154 173 0
148 166 0
143 162 0
149 168 0
154 172 0
153 173 0
150 170 0
148 167 0
160 180 0
149 169 0
156 175 0
149 168 0
146 166 0
153 173 0
155 175 0
152 171 0
151 171 0
153 172 0
152 171 0
153 172 0
150 170 0
144 164 0
152 173 0
152 170 0
151 171 0
148 169 0
149 170 0
151 171 0
143 163 0
146 166 0
151 171 0
148 169 0
150 170 0
145 165 0
141 162 0
155 176 0
148 169 0
150 170 0
157 178 0
149 169 0
148 168 0
150 170 0
148 168 0
160 181 0
149 170 0
145 166 0
148 169 0
149 169 0
145 166 0
149 170 0
145 165 0
146 167 0
146 168 0
151 171 0
149 171 0
145 166 0
149 170 0
156 177 0
142 163 0
156 177 0
151 171 0
139 160 0
145 166 0
148 168 0
151 173 0
144 166 0
155 176 0
146 167 0
142 163 0
152 174 0
144 166 0
142 164 0
150 171 0
147 167 0
148 170 0
144 165 0
147 169 0
144 166 0
149 170 0
154 175 0
145 165 0
140 161 0
139 161 0
137 159 0
147 169 0
154 176 0
145 166 0
129 149 0
145 166 0
143 165 0
138 160 0
145 167 0
138 159 0
146 169 0
151 173 0
149 171 0
138 159 0
141 163 0
143 165 0
146 168 0
149 170 0
148 171 0
152 173 0
148 170 0
153 175 0
147 169 0
135 157 0
146 168 0
145 168 0
149 171 0
138 161 0
149 171 0
135 157 0
143 165 0
142 164 0
135 157 0
144 166 0
149 170 0
147 168 0
153 175 0
138 160 0
153 175 0
144 164 0
145 166 0
138 160 0
147 169 0
136 158 0
148 169 0
138 158 0
140 162 0
145 167 0
141 163 0
149 170 0
144 166 0
152 174 0
140 162 0
145 166 0
150 172 0
141 162 0
148 169 0
148 169 0
148 170 0
145 167 0
139 159 0
152 173 0
151 173 0
150 172 0
149 170 0
142 164 0
151 172 0
148 169 0
152 174 0
143 165 0
139 161 0
149 171 0
149 171 0
154 175 0
151 173 0
138 160 0
142 164 0
145 168 0
143 165 0
151 173 0
141 162 0
149 172 0
154 175 0
149 171 0
143 165 0
151 172 0
146 167 0
147 170 0
144 167 0
153 174 0
147 168 0
152 174 0
146 168 0
145 167 0
149 172 0
152 175 0
153 176 0
153 174 0
143 165 0
149 172 0
157 178 0
150 171 0
148 171 0
153 176 0
148 170 0
150 172 0
162 185 0
151 173 0
149 172 0
157 179 0
150 173 0
151 174 0
157 179 0
150 173 0
148 170 0
154 176 0
158 180 0
157 180 0
160 182 0
155 178 0
156 178 0
156 178 0
157 180 0
159 180 0
164 186 0
159 181 0
156 178 0
153 175 0
161 183 0
156 177 0
157 179 0
152 174 0
159 182 0
159 182 0
154 177 0
156 179 0
157 179 0
157 180 0
161 185 0
161 183 0
160 182 0
161 183 0
158 180 0
159 182 0
158 180 0
158 181 0
161 184 0
164 187 0
155 178 0
154 177 0
163 186 0
166 188 0
157 180 0
163 186 0
165 188 0
160 182 0
157 180 0
163 186 0
166 189 0
162 184 0
160 184 0
162 185 0
165 188 0
163 186 0
164 186 0
161 184 0
166 190 0
163 186 0
160 182 0
164 187 0
160 183 0
166 190 0
166 188 0
162 185 0
165 188 0
161 183 0
168 191 0
165 188 0
170 193 0
167 189 0
167 190 0
165 188 0
168 192 0
166 190 0
165 188 0
166 190 0
169 192 0
168 191 0
167 191 0
167 190 0
171 195 0
165 189 0
168 191 0
167 191 0
167 190 0
166 189 0
165 189 0
170 193 0
172 195 0
166 189 0
165 189 0
169 192 0
165 189 0
168 191 0
165 188 0
166 189 0
171 194 0
171 194 0
169 192 0
170 193 0
172 196 0
173 196 0
168 192 0
170 193 0
166 190 0
170 194 0
170 194 0
170 194 0
171 196 0
168 192 0
170 194 0
170 194 0
169 193 0
171 195 0
168 192 0
173 196 0
170 194 0
172 196 0
171 195 0
170 194 0
169 193 0
171 195 0
173 197 0
172 196 0
173 196 0
171 196 0
172 196 0
173 196 0
171 195 0
173 197 0
173 197 0
173 196 0
172 196 0
172 195 0
173 197 0
172 195 0
174 197 0
172 196 0
172 196 0
173 197 0
173 197 0
172 196 0
174 197 0
175 198 0
173 197 0
173 197 0
174 197 0
172 196 0
173 197 0
164 183 0
162 181 0
160 178 0
158 177 0
160 178 0
162 181 0
160 179 0
158 178 0
159 178 0
163 183 0
157 177 0
161 179 0
159 178 0
158 177 0
161 179 0
162 180 0
155 173 0
155 174 0
164 184 0
158 176 0
154 173 0
153 171 0
152 172 0
162 181 0
160 178 0
160 178 0
157 176 0
153 171 0
155 174 0
149 168 0
155 173 0
157 175 0
149 167 0
159 179 0
159 178 0
155 174 0
160 179 0
152 170 0
159 178 0
156 174 0
158 177 0
158 177 0
152 171 0
153 171 0
157 176 0
158 178 0
154 173 0
153 172 0
159 178 0
152 170 0
147 167 0
157 176 0
154 173 0
161 181 0
148 167 0
152 172 0
148 167 0
148 168 0
151 171 0
153 173 0
153 172 0
144 164 0
158 178 0
149 169 0
155 175 0
148 168 0
154 173 0
154 173 0
146 165 0
148 168 0
154 174 0
151 170 0
147 166 0
156 176 0
154 174 0
152 172 0
153 173 0
155 177 0
154 174 0
151 170 0
154 175 0
147 165 0
147 166 0
151 172 0
152 172 0
154 174 0
147 168 0
149 169 0
155 176 0
148 168 0
157 177 0
149 169 0
151 171 0
147 167 0
147 167 0
146 166 0
153 173 0
149 170 0
145 167 0
145 167 0
156 178 0
145 166 0
155 177 0
155 175 0
147 169 0
148 168 0
146 166 0
146 168 0
147 169 0
154 175 0
150 170 0
147 168 0
150 172 0
148 170 0
145 166 0
144 165 0
149 171 0
138 158 0
150 172 0
150 171 0
151 172 0
149 171 0
146 168 0
144 164 0
150 172 0
150 171 0
146 168 0
147 170 0
147 168 0
148 170 0
151 172 0
145 166 0
146 167 0
142 164 0
149 170 0
150 172 0
147 168 0
146 167 0
148 170 0
147 168 0
149 171 0
145 167 0
144 166 0
145 167 0
139 160 0
144 166 0
150 171 0
152 174 0
146 169 0
145 166 0
145 167 0
142 165 0
151 173 0
151 173 0
148 169 0
149 172 0
143 164 0
151 174 0
144 166 0
149 170 0
143 164 0
145 165 0
147 168 0
147 169 0
155 178 0
144 165 0
142 164 0
147 170 0
145 166 0
149 171 0
142 163 0
150 172 0
145 167 0
138 159 0
139 160 0
146 167 0
143 165 0
142 163 0
144 165 0
146 168 0
145 167 0
151 173 0
147 169 0
153 176 0
147 168 0
142 163 0
144 167 0
142 164 0
145 168 0
153 176 0
142 164 0
149 172 0
148 170 0
135 157 0
147 168 0
144 167 0
142 163 0
153 175 0
145 166 0
143 165 0
144 167 0
146 167 0
139 161 0
149 171 0
152 175 0
149 171 0
147 170 0
146 167 0
147 168 0
146 169 0
148 170 0
144 166 0
143 165 0
144 166 0
142 164 0
154 176 0
147 168 0
151 173 0
151 172 0
149 172 0
146 167 0
146 167 0
147 168 0
148 170 0
141 164 0
141 163 0
153 175 0
152 173 0
142 163 0
148 170 0
154 176 0
146 168 0
154 176 0
151 174 0
158 181 0
152 174 0
157 179 0
159 181 0
148 170 0
152 174 0
149 172 0
150 173 0
154 176 0
152 174 0
153 176 0
152 175 0
153 176 0
154 176 0
148 170 0
154 176 0
151 173 0
156 178 0
149 171 0
157 179 0
155 177 0
151 173 0
154 177 0
153 176 0
149 172 0
155 178 0
152 173 0
155 176 0
154 176 0
155 177 0
157 179 0
149 171 0
153 176 0
155 177 0
156 177 0
152 174 0
153 175 0
160 183 0
156 179 0
155 178 0
145 167 0
160 183 0
164 186 0
154 176 0
155 177 0
148 170 0
153 176 0
159 181 0
163 186 0
159 181 0
161 183 0
158 180 0
157 180 0
161 184 0
161 184 0
160 181 0
167 189 0
160 183 0
161 183 0
166 188 0
160 183 0
159 181 0
162 185 0
163 185 0
163 185 0
165 188 0
156 179 0
160 182 0
164 187 0
162 185 0
165 188 0
163 186 0
167 190 0
160 182 0
162 185 0
164 186 0
160 183 0
165 187 0
161 184 0
163 186 0
164 187 0
164 186 0
165 188 0
165 188 0
166 189 0
168 191 0
164 187 0
167 190 0
165 188 0
168 190 0
166 190 0
164 188 0
162 185 0
170 194 0
166 189 0
166 189 0
167 191 0
164 187 0
162 185 0
166 190 0
164 188 0
166 190 0
167 191 0
164 187 0
169 192 0
163 187 0
168 192 0
164 187 0
171 195 0
168 192 0
169 192 0
169 192 0
166 190 0
170 193 0
166 190 0
172 196 0
172 196 0
163 186 0
171 195 0
168 192 0
169 193 0
171 195 0
172 196 0
170 194 0
173 197 0
170 194 0
171 194 0
168 193 0
169 194 0
168 192 0
166 190 0
172 195 0
172 196 0
171 194 0
170 193 0
171 195 0
167 191 0
169 192 0
174 198 0
171 195 0
172 196 0
171 195 0
171 195 0
172 196 0
171 195 0
174 197 0
171 195 0
172 196 0
174 198 0
170 195 0
171 195 0
171 195 0
171 195 0
174 198 0
172 196 0
170 194 0
172 196 0
172 196 0
171 196 0
172 195 0
174 198 0
175 198 0
173 197 0
172 196 0
174 198 0
174 197 0
161 180 0
164 183 0
165 184 0
159 178 0
162 182 0
159 179 0
158 177 0
161 180 0
161 181 0
160 178 0
157 176 0
159 177 0
155 174 0
163 182 0
160 179 0
165 184 0
156 175 0
153 172 0
159 178 0
159 178 0
154 173 0
160 179 0
156 174 0
157 176 0
157 177 0
150 168 0
158 177 0
153 173 0
151 169 0
161 180 0
160 178 0
154 173 0
154 173 0
159 178 0
151 169 0
158 177 0
155 174 0
158 177 0
157 176 0
152 171 0
152 171 0
157 177 0
160 179 0
158 177 0
156 175 0
149 169 0
155 175 0
156 175 0
158 176 0
152 171 0
155 174 0
152 172 0
155 174 0
157 176 0
158 178 0
145 164 0
143 162 0
151 171 0
148 166 0
155 174 0
150 169 0
154 173 0
156 175 0
156 176 0
154 174 0
147 166 0
153 173 0
156 176 0
149 169 0
144 163 0
156 176 0
148 169 0
145 165 0
154 174 0
153 174 0
150 170 0
149 170 0
148 169 0
151 170 0
152 172 0
142 162 0
146 167 0
151 172 0
148 169 0
151 171 0
151 172 0
148 170 0
155 176 0
158 178 0
153 174 0
144 165 0
150 170 0
148 169 0
150 170 0
149 169 0
144 164 0
151 171 0
148 170 0
148 169 0
151 172 0
150 171 0
141 161 0
153 174 0
151 172 0
151 172 0
147 167 0
153 174 0
153 174 0
143 163 0
143 165 0
144 165 0
156 177 0
150 171 0
147 168 0
146 167 0
142 163 0
149 170 0
146 167 0
145 166 0
145 166 0
153 174 0
150 172 0
150 173 0
152 173 0
150 171 0
143 164 0
155 177 0
148 171 0
148 170 0
152 174 0
152 174 0
149 171 0
149 171 0
152 173 0
153 175 0
141 163 0
149 170 0
138 159 0
157 179 0
149 171 0
150 172 0
153 175 0
143 165 0
155 177 0
145 167 0
143 164 0
143 165 0
141 163 0
149 170 0
143 164 0
148 170 0
151 173 0
150 173 0
142 164 0
136 157 0
133 156 0
142 165 0
147 169 0
144 165 0
150 171 0
147 170 0
146 168 0
148 170 0
148 171 0
146 168 0
150 173 0
148 170 0
150 173 0
140 162 0
141 163 0
147 169 0
145 167 0
143 165 0
153 175 0
143 166 0
145 166 0
151 173 0
140 162 0
144 164 0
141 163 0
146 169 0
150 172 0
145 167 0
151 173 0
138 159 0
145 167 0
141 162 0
145 168 0
145 167 0
151 174 0
139 160 0
141 163 0
146 167 0
148 169 0
144 166 0
144 166 0
149 171 0
150 172 0
152 174 0
149 171 0
155 178 0
143 164 0
143 165 0
152 173 0
145 166 0
141 163 0
150 172 0
146 168 0
141 162 0
151 171 0
149 170 0
148 171 0
143 166 0
149 171 0
145 168 0
151 172 0
141 163 0
153 174 0
149 171 0
152 174 0
154 176 0
142 163 0
149 171 0
154 176 0
151 173 0
155 178 0
147 169 0
148 169 0
142 164 0
154 176 0
145 167 0
154 176 0
153 176 0
148 170 0
150 171 0
151 173 0
147 169 0
151 173 0
148 170 0
148 170 0
150 172 0
151 173 0
162 185 0
155 177 0
153 176 0
154 176 0
159 181 0
149 171 0
155 177 0
155 177 0
156 177 0
156 178 0
153 176 0
154 177 0
153 175 0
159 182 0
157 180 0
160 182 0
161 182 0
154 177 0
160 182 0
158 180 0
157 179 0
162 184 0
156 178 0
154 176 0
157 179 0
151 173 0
160 183 0
159 182 0
157 179 0
155 178 0
156 179 0
161 183 0
159 181 0
158 181 0
160 181 0
159 182 0
163 185 0
161 183 0
162 183 0
163 186 0
163 186 0
162 183 0
158 181 0
164 186 0
161 184 0
164 187 0
159 182 0
159 182 0
161 182 0
158 181 0
165 188 0
170 192 0
160 183 0
160 184 0
158 181 0
167 189 0
165 187 0
156 179 0
162 185 0
168 190 0
167 190 0
162 186 0
166 188 0
160 182 0
163 186 0
161 184 0
166 189 0
162 186 0
168 191 0
167 190 0
162 185 0
164 186 0
167 190 0
165 188 0
166 189 0
163 186 0
158 180 0
163 186 0
168 191 0
168 192 0
165 188 0
167 190 0
163 186 0
167 190 0
167 190 0
164 187 0
164 187 0
168 191 0
166 189 0
167 190 0
166 189 0
167 190 0
162 185 0
169 192 0
167 190 0
162 185 0
167 190 0
167 191 0
170 193 0
170 193 0
169 192 0
167 191 0
167 190 0
170 193 0
171 194 0
173 196 0
169 192 0
166 190 0
172 196 0
168 192 0
169 193 0
170 193 0
172 196 0
173 196 0
173 196 0
173 197 0
171 195 0
173 197 0
165 189 0
169 193 0
170 194 0
173 196 0
172 196 0
171 195 0
171 195 0
170 194 0
172 196 0
172 196 0
171 195 0
172 196 0
171 195 0
169 193 0
173 196 0
174 198 0
172 195 0
170 193 0
170 194 0
172 196 0
170 194 0
172 196 0
173 196 0
172 196 0
173 196 0
173 197 0
173 197 0
172 196 0
173 196 0
172 196 0
174 197 0
172 196 0
170 193 0
174 197 0
172 196 0
173 197 0
173 197 0
171 195 0
173 196 0
174 197 0
161 181 0
157 176 0
160 180 0
162 181 0
159 179 0
160 178 0
155 173 0
158 177 0
155 172 0
156 176 0
161 180 0
161 181 0
155 174 0
154 173 0
159 179 0
160 179 0
158 177 0
155 174 0
161 181 0
158 177 0
157 176 0
165 184 0
158 177 0
159 177 0
153 172 0
156 174 0
156 174 0
150 168 0
151 171 0
154 172 0
158 178 0
156 176 0
157 176 0
161 181 0
156 176 0
155 173 0
153 172 0
154 173 0
158 176 0
153 172 0
154 173 0
154 174 0
155 175 0
153 172 0
148 167 0
152 172 0
151 169 0
155 174 0
152 171 0
150 169 0
152 171 0
156 175 0
152 171 0
151 170 0
152 171 0
153 172 0
153 173 0
153 172 0
156 176 0
155 175 0
153 172 0
153 173 0
149 167 0
145 164 0
151 171 0
159 179 0
156 176 0
154 173 0
144 163 0
148 168 0
156 176 0
151 171 0
160 180 0
150 170 0
155 176 0
154 174 0
147 167 0
155 176 0
146 167 0
151 171 0
149 170 0
154 175 0
154 175 0
149 169 0
147 169 0
147 168 0
154 174 0
151 172 0
155 176 0
144 165 0
158 179 0
152 173 0
151 172 0
150 170 0
152 173 0
149 170 0
150 171 0
153 176 0
149 170 0
148 168 0
148 170 0
151 171 0
147 168 0
159 180 0
143 163 0
154 174 0
147 168 0
153 174 0
149 170 0
155 176 0
159 180 0
146 168 0
153 174 0
153 174 0
151 172 0
157 179 0
147 168 0
149 171 0
147 167 0
151 173 0
150 172 0
146 168 0
153 176 0
152 174 0
150 173 0
150 171 0
138 160 0
144 167 0
149 171 0
149 172 0
139 160 0
147 169 0
147 169 0
152 175 0
148 170 0
144 166 0
147 169 0
148 170 0
149 170 0
148 170 0
153 176 0
147 170 0
147 169 0
151 173 0
145 167 0
147 170 0
154 176 0
145 166 0
146 169 0
155 177 0
153 174 0
148 170 0
149 169 0
147 169 0
151 173 0
150 171 0
148 171 0
154 176 0
151 173 0
151 173 0
147 169 0
141 163 0
148 169 0
151 173 0
146 169 0
146 167 0
146 168 0
143 166 0
145 168 0
149 172 0
141 163 0
141 162 0
149 171 0
145 166 0
145 168 0
146 168 0
152 174 0
137 159 0
152 173 0
149 171 0
145 168 0
147 169 0
151 173 0
150 172 0
148 169 0
141 162 0
147 169 0
151 173 0
148 170 0
145 168 0
146 168 0
140 162 0
145 168 0
149 171 0
143 165 0
151 173 0
147 169 0
145 167 0
146 168 0
146 168 0
147 169 0
147 170 0
147 169 0
153 176 0
154 176 0
147 169 0
150 172 0
146 168 0
148 171 0
148 169 0
145 166 0
154 176 0
138 159 0
145 166 0
149 171 0
148 170 0
147 169 0
154 177 0
145 167 0
146 168 0
151 173 0
154 176 0
145 168 0
152 174 0
152 174 0
155 177 0
148 170 0
143 165 0
144 165 0
151 172 0
147 169 0
148 171 0
154 177 0
149 172 0
159 180 0
154 176 0
154 177 0
151 172 0
149 172 0
157 179 0
148 169 0
152 175 0
153 174 0
153 175 0
154 176 0
156 177 0
156 179 0
149 171 0
158 180 0
153 175 0
153 175 0
143 165 0
155 178 0
147 169 0
152 174 0
158 179 0
154 175 0
154 176 0
150 172 0
157 178 0
156 178 0
158 181 0
152 174 0
161 184 0
157 180 0
156 178 0
154 176 0
160 182 0
153 176 0
161 184 0
155 176 0
161 183 0
157 180 0
156 179 0
162 183 0
156 178 0
152 174 0
156 179 0
162 185 0
167 190 0
168 191 0
164 188 0
161 184 0
159 182 0
163 186 0
161 185 0
153 176 0
154 177 0
165 188 0
159 182 0
166 189 0
157 179 0
165 188 0
162 185 0
161 184 0
160 182 0
160 183 0
163 186 0
164 186 0
153 175 0
161 183 0
166 188 0
164 187 0
165 187 0
162 185 0
161 183 0
164 187 0
162 185 0
163 186 0
164 186 0
163 186 0
164 187 0
167 189 0
169 192 0
158 181 0
166 189 0
167 190 0
161 183 0
163 186 0
166 189 0
168 191 0
164 188 0
163 187 0
167 190 0
169 193 0
167 191 0
163 186 0
166 189 0
162 186 0
167 190 0
169 193 0
168 191 0
168 191 0
169 191 0
173 196 0
169 192 0
173 196 0
168 191 0
168 192 0
171 194 0
168 191 0
169 193 0
170 193 0
167 191 0
166 190 0
165 189 0
167 192 0
168 190 0
169 192 0
166 190 0
167 191 0
171 194 0
171 195 0
168 193 0
169 193 0
170 193 0
169 192 0
170 193 0
173 197 0
169 192 0
171 195 0
172 196 0
167 191 0
172 196 0
171 195 0
167 192 0
171 195 0
166 189 0
169 192 0
172 196 0
171 195 0
171 195 0
172 196 0
172 196 0
172 196 0
173 196 0
170 194 0
172 195 0
169 193 0
171 195 0
174 197 0
172 196 0
169 192 0
170 194 0
172 196 0
169 193 0
173 197 0
173 197 0
171 195 0
172 196 0
173 196 0
174 197 0
171 196 0
173 196 0
173 197 0
173 197 0
174 197 0
173 197 0
174 197 0
172 195 0
156 176 0
163 183 0
162 182 0
164 183 0
160 179 0
165 185 0
156 175 0
160 178 0
161 180 0
159 177 0
158 178 0
161 180 0
159 177 0
162 181 0
159 178 0
159 178 0
160 178 0
155 173 0
162 182 0
154 174 0
163 183 0
161 180 0
152 171 0
164 182 0
160 179 0
159 177 0
153 173 0
157 176 0
153 172 0
160 179 0
156 174 0
155 174 0
158 178 0
153 172 0
161 180 0
151 169 0
156 175 0
158 177 0
155 174 0
154 173 0
153 172 0
156 175 0
161 181 0
155 174 0
147 166 0
151 170 0
155 175 0
156 175 0
148 167 0
157 177 0
158 178 0
152 172 0
154 174 0
157 177 0
152 172 0
148 167 0
155 174 0
150 169 0
154 174 0
154 174 0
156 177 0
154 174 0
148 167 0
157 178 0
151 171 0
155 176 0
161 181 0
155 176 0
158 179 0
155 175 0
149 169 0
151 172 0
146 166 0
157 178 0
152 173 0
149 169 0
155 176 0
151 170 0
153 173 0
157 178 0
155 176 0
146 167 0
155 175 0
152 173 0
156 176 0
152 172 0
159 180 0
150 171 0
153 173 0
147 167 0
158 179 0
152 173 0
151 171 0
143 164 0
148 169 0
149 169 0
148 168 0
154 175 0
150 171 0
151 172 0
145 167 0
156 178 0
149 171 0
157 178 0
146 167 0
150 173 0
154 176 0
154 176 0
152 174 0
152 173 0
151 172 0
154 177 0
151 172 0
151 172 0
141 162 0
151 174 0
150 172 0
146 168 0
154 175 0
149 170 0
150 171 0
154 175 0
152 173 0
146 168 0
145 166 0
150 173 0
148 170 0
151 174 0
151 173 0
146 168 0
156 177 0
151 173 0
149 170 0
150 172 0
148 171 0
147 168 0
151 172 0
153 175 0
147 169 0
147 169 0
150 171 0
150 172 0
147 168 0
140 163 0
149 171 0
152 174 0
147 168 0
142 163 0
150 172 0
141 164 0
153 175 0
143 164 0
146 168 0
150 171 0
138 159 0
143 165 0
149 170 0
146 168 0
147 169 0
155 176 0
142 164 0
147 169 0
143 165 0
151 173 0
150 172 0
144 165 0
141 162 0
150 172 0
147 170 0
148 170 0
155 176 0
149 171 0
148 171 0
148 170 0
153 174 0
151 173 0
146 169 0
155 179 0
145 167 0
146 168 0
142 164 0
148 170 0
143 164 0
139 161 0
143 166 0
147 169 0
150 173 0
152 173 0
141 163 0
144 167 0
150 172 0
146 168 0
143 165 0
143 164 0
149 171 0
150 172 0
142 163 0
145 167 0
153 175 0
149 170 0
144 166 0
147 170 0
147 169 0
153 174 0
150 173 0
153 175 0
145 167 0
151 174 0
153 175 0
152 174 0
140 161 0
154 176 0
149 172 0
147 169 0
152 174 0
147 168 0
149 171 0
159 181 0
152 175 0
153 175 0
150 173 0
150 171 0
144 166 0
152 174 0
150 171 0
150 172 0
151 174 0
140 163 0
152 175 0
163 185 0
150 172 0
148 171 0
151 174 0
150 171 0
147 169 0
151 173 0
152 174 0
150 172 0
156 178 0
158 180 0
159 181 0
152 174 0
160 182 0
159 181 0
156 179 0
151 172 0
151 173 0
156 178 0
156 178 0
152 175 0
149 171 0
160 183 0
155 177 0
145 167 0
147 169 0
156 178 0
153 175 0
156 179 0
151 173 0
154 177 0
158 180 0
154 177 0
153 175 0
154 177 0
153 176 0
159 182 0
158 179 0
155 177 0
162 185 0
155 177 0
166 188 0
157 180 0
157 179 0
157 179 0
161 183 0
161 184 0
160 182 0
158 180 0
162 184 0
161 183 0
154 177 0
162 184 0
160 182 0
158 181 0
161 183 0
163 185 0
157 179 0
162 184 0
157 179 0
161 184 0
156 179 0
157 179 0
163 185 0
166 189 0
158 180 0
164 186 0
163 187 0
156 179 0
161 185 0
164 187 0
163 186 0
165 188 0
166 188 0
170 192 0
161 184 0
169 192 0
166 189 0
163 186 0
163 186 0
160 183 0
164 187 0
166 189 0
164 187 0
157 180 0
167 190 0
165 188 0
165 188 0
167 190 0
158 181 0
168 191 0
161 185 0
169 192 0
170 193 0
165 188 0
167 190 0
167 190 0
168 191 0
166 189 0
163 187 0
164 187 0
165 188 0
167 190 0
163 186 0
165 188 0
164 188 0
168 192 0
167 190 0
163 187 0
172 195 0
166 190 0
161 184 0
173 195 0
169 192 0
171 193 0
169 192 0
167 190 0
167 190 0
171 194 0
162 186 0
169 192 0
169 193 0
169 192 0
168 192 0
169 193 0
168 192 0
171 195 0
167 190 0
170 193 0
172 195 0
173 196 0
172 195 0
170 193 0
168 192 0
171 195 0
170 194 0
168 192 0
172 196 0
170 193 0
172 195 0
171 194 0
170 194 0
171 194 0
172 195 0
168 191 0
170 193 0
173 197 0
169 193 0
171 195 0
171 194 0
172 195 0
171 196 0
171 195 0
168 192 0
174 198 0
172 196 0
171 195 0
175 198 0
172 196 0
173 196 0
173 196 0
174 198 0
172 195 0
174 198 0
172 195 0
173 196 0
172 195 0
172 196 0
173 197 0
172 196 0
174 197 0
160 179 0
161 181 0
162 181 0
157 177 0
158 177 0
156 176 0
162 182 0
161 180 0
162 181 0
163 182 0
159 178 0
159 178 0
161 179 0
154 173 0
158 178 0
165 184 0
161 180 0
161 179 0
156 176 0
158 177 0
154 174 0
159 178 0
154 173 0
159 178 0
157 176 0
157 177 0
158 177 0
156 174 0
159 178 0
154 173 0
157 177 0
154 173 0
154 173 0
158 178 0
158 177 0
155 174 0
155 175 0
157 177 0
155 174 0
158 178 0
158 177 0
153 173 0
158 178 0
152 172 0
155 175 0
155 175 0
155 174 0
155 175 0
152 171 0
152 172 0
150 169 0
151 170 0
155 175 0
160 181 0
151 170 0
148 168 0
160 180 0
159 179 0
154 173 0
151 170 0
149 169 0
153 173 0
152 171 0
148 168 0
153 172 0
153 173 0
151 172 0
159 179 0
150 171 0
140 160 0
148 167 0
154 174 0
155 175 0
150 171 0
150 170 0
154 175 0
155 176 0
154 175 0
151 172 0
153 173 0
155 177 0
155 176 0
151 171 0
153 175 0
147 169 0
149 170 0
154 175 0
150 171 0
155 176 0
157 177 0
150 171 0
149 171 0
148 169 0
150 171 0
143 164 0
151 172 0
149 170 0
148 169 0
148 169 0
145 166 0
151 172 0
148 170 0
152 174 0
152 173 0
153 175 0
150 170 0
152 174 0
148 170 0
150 172 0
147 169 0
159 181 0
153 175 0
147 167 0
155 177 0
152 173 0
143 164 0
145 166 0
148 170 0
152 174 0
150 172 0
150 171 0
152 173 0
147 170 0
152 175 0
144 165 0
149 171 0
145 166 0
148 169 0
148 169 0
146 169 0
149 170 0
144 166 0
149 171 0
146 168 0
150 172 0
146 167 0
152 173 0
149 172 0
157 179 0
143 165 0
143 164 0
138 159 0
153 175 0
148 170 0
147 168 0
147 170 0
150 171 0
147 169 0
139 161 0
152 174 0
153 176 0
149 171 0
145 166 0
141 163 0
146 168 0
139 162 0
147 169 0
146 168 0
143 165 0
153 175 0
149 171 0
147 169 0
147 167 0
148 170 0
150 173 0
145 168 0
144 166 0
153 175 0
146 168 0
144 167 0
139 161 0
146 169 0
144 165 0
154 176 0
144 166 0
153 175 0
138 160 0
145 167 0
149 171 0
148 170 0
147 170 0
147 168 0
153 176 0
150 172 0
151 173 0
156 178 0
136 158 0
153 176 0
147 169 0
153 175 0
150 172 0
136 157 0
150 172 0
148 171 0
147 170 0
151 173 0
147 168 0
145 167 0
155 177 0
140 163 0
150 171 0
149 172 0
147 169 0
150 173 0
152 175 0
143 165 0
156 178 0
149 171 0
149 171 0
147 168 0
151 173 0
155 177 0
150 173 0
147 169 0
139 161 0
149 171 0
152 174 0
145 167 0
145 168 0
143 166 0
153 175 0
146 168 0
151 174 0
148 170 0
148 171 0
151 174 0
152 175 0
149 170 0
153 176 0
149 171 0
153 175 0
149 172 0
151 173 0
150 171 0
157 179 0
158 180 0
157 179 0
148 170 0
156 178 0
157 180 0
148 170 0
165 186 0
152 173 0
157 180 0
151 173 0
158 180 0
154 176 0
155 177 0
159 182 0
157 179 0
153 174 0
146 168 0
156 178 0
158 179 0
152 173 0
156 178 0
157 180 0
158 180 0
154 177 0
149 171 0
158 181 0
153 175 0
153 175 0
154 176 0
159 181 0
160 182 0
153 177 0
159 181 0
159 183 0
149 170 0
162 185 0
157 180 0
153 175 0
158 181 0
164 186 0
158 180 0
160 182 0
150 172 0
162 184 0
157 180 0
155 177 0
158 180 0
164 185 0
165 187 0
156 179 0
158 180 0
163 186 0
158 182 0
167 190 0
154 177 0
166 188 0
164 187 0
154 177 0
157 180 0
163 185 0
163 186 0
160 182 0
161 184 0
168 191 0
166 188 0
162 184 0
166 189 0
165 188 0
161 183 0
168 190 0
163 186 0
161 184 0
164 187 0
163 185 0
160 183 0
162 185 0
166 188 0
162 186 0
161 184 0
167 191 0
169 192 0
168 192 0
161 184 0
163 186 0
162 186 0
171 195 0
161 183 0
165 189 0
166 188 0
171 194 0
171 194 0
163 186 0
166 189 0
167 190 0
168 192 0
164 188 0
172 195 0
164 187 0
170 193 0
168 191 0
168 191 0
165 188 0
167 190 0
168 192 0
166 190 0
166 189 0
168 191 0
165 188 0
167 191 0
173 196 0
167 190 0
168 191 0
169 193 0
168 191 0
169 192 0
170 193 0
170 194 0
172 195 0
168 191 0
167 191 0
167 191 0
170 194 0
170 192 0
170 193 0
169 193 0
169 193 0
170 193 0
170 194 0
167 191 0
170 194 0
170 193 0
169 192 0
171 194 0
170 194 0
171 194 0
172 196 0
171 195 0
172 196 0
169 193 0
170 194 0
170 193 0
169 193 0
170 193 0
173 197 0
172 195 0
170 194 0
170 194 0
174 197 0
172 195 0
175 198 0
171 194 0
174 197 0
174 198 0
170 194 0
175 198 0
173 197 0
173 196 0
171 195 0
173 196 0
173 196 0
174 198 0
173 197 0
174 197 0
173 196 0
174 197 0
156 176 0
157 177 0
164 184 0
159 179 0
158 177 0
163 183 0
162 183 0
155 174 0
154 173 0
164 183 0
158 177 0
155 174 0
161 180 0
155 174 0
160 179 0
162 182 0
159 178 0
152 170 0
158 178 0
158 177 0
156 176 0
153 171 0
160 179 0
159 179 0
154 173 0
160 179 0
154 173 0
156 175 0
156 177 0
160 180 0
156 175 0
154 174 0
155 174 0
157 177 0
158 177 0
154 174 0
154 174 0
158 178 0
155 174 0
155 175 0
156 176 0
153 173 0
157 176 0
156 176 0
156 177 0
148 167 0
156 175 0
158 178 0
150 170 0
153 172 0
156 176 0
157 177 0
147 167 0
152 173 0
151 171 0
155 176 0
149 168 0
157 177 0
151 170 0
153 174 0
159 179 0
157 178 0
149 170 0
149 169 0
154 175 0
152 173 0
154 175 0
146 165 0
154 174 0
153 175 0
159 179 0
149 170 0
157 178 0
154 174 0
155 176 0
152 173 0
153 173 0
156 178 0
154 175 0
154 174 0
154 176 0
153 173 0
149 169 0
151 173 0
153 174 0
155 176 0
151 172 0
151 171 0
154 174 0
157 178 0
148 169 0
153 174 0
153 174 0
150 171 0
158 179 0
156 176 0
152 173 0
152 174 0
152 173 0
151 172 0
152 173 0
153 175 0
150 172 0
146 168 0
145 167 0
147 168 0
146 167 0
157 178 0
147 169 0
150 171 0
151 172 0
147 169 0
147 169 0
146 167 0
154 177 0
156 178 0
144 166 0
142 164 0
151 172 0
147 169 0
140 161 0
151 173 0
148 170 0
157 180 0
147 169 0
146 168 0
147 170 0
151 173 0
156 178 0
144 166 0
155 176 0
144 165 0
158 181 0
150 172 0
153 174 0
150 173 0
154 176 0
148 169 0
148 171 0
153 175 0
154 177 0
144 166 0
147 169 0
146 167 0
152 173 0
144 166 0
151 173 0
148 170 0
143 164 0
147 169 0
150 171 0
151 172 0
149 170 0
145 166 0
150 171 0
149 171 0
152 174 0
143 165 0
149 171 0
150 172 0
151 174 0
148 170 0
141 163 0
154 177 0
151 173 0
142 164 0
151 174 0
153 176 0
144 167 0
148 170 0
143 165 0
150 172 0
143 165 0
147 169 0
147 169 0
156 178 0
146 168 0
149 171 0
148 169 0
154 177 0
145 167 0
143 165 0
145 167 0
148 170 0
150 172 0
151 174 0
151 172 0
138 160 0
141 162 0
153 174 0
147 169 0
151 173 0
143 165 0
146 169 0
149 171 0
148 170 0
146 167 0
152 175 0
146 168 0
139 160 0
154 177 0
151 173 0
147 168 0
153 175 0
153 174 0
150 173 0
149 171 0
147 170 0
146 168 0
150 173 0
147 170 0
156 179 0
143 164 0
154 176 0
142 163 0
153 176 0
147 169 0
147 168 0
153 176 0
154 177 0
159 181 0
155 177 0
141 163 0
155 177 0
151 173 0
150 171 0
150 172 0
148 170 0
155 177 0
152 175 0
151 174 0
148 170 0
156 178 0
158 181 0
159 181 0
153 174 0
151 174 0
154 176 0
154 177 0
156 178 0
154 176 0
155 177 0
150 171 0
152 175 0
155 178 0
151 173 0
149 172 0
149 171 0
159 181 0
156 178 0
155 178 0
154 177 0
148 170 0
159 182 0
156 179 0
151 173 0
159 182 0
157 179 0
155 178 0
160 182 0
155 177 0
158 181 0
162 184 0
154 176 0
159 182 0
152 175 0
160 182 0
156 179 0
160 183 0
158 180 0
161 184 0
159 182 0
162 184 0
155 177 0
162 185 0
157 179 0
157 180 0
155 177 0
155 177 0
152 175 0
152 174 0
159 181 0
162 185 0
160 182 0
161 183 0
161 183 0
154 177 0
160 182 0
162 185 0
159 182 0
160 183 0
156 178 0
163 186 0
158 182 0
165 187 0
157 180 0
161 184 0
160 183 0
166 189 0
163 186 0
167 189 0
162 185 0
159 182 0
167 190 0
159 181 0
169 192 0
168 191 0
164 187 0
161 184 0
164 186 0
168 190 0
162 185 0
163 187 0
165 187 0
166 189 0
168 191 0
157 180 0
164 187 0
162 185 0
162 185 0
167 190 0
164 188 0
168 191 0
162 184 0
165 188 0
158 181 0
162 185 0
166 188 0
163 187 0
166 189 0
167 190 0
168 191 0
165 188 0
165 188 0
168 191 0
169 192 0
168 191 0
164 188 0
166 189 0
168 191 0
170 194 0
165 188 0
168 191 0
169 192 0
170 192 0
169 193 0
169 192 0
169 192 0
170 194 0
167 191 0
166 189 0
170 194 0
174 197 0
169 192 0
170 193 0
168 192 0
168 191 0
167 191 0
169 192 0
168 192 0
169 193 0
172 195 0
170 193 0
171 194 0
172 195 0
168 192 0
169 193 0
174 197 0
172 196 0
165 188 0
171 195 0
168 191 0
171 195 0
171 195 0
171 194 0
168 192 0
170 194 0
172 196 0
171 196 0
173 196 0
175 198 0
170 194 0
173 197 0
169 193 0
174 197 0
171 195 0
169 193 0
172 195 0
174 198 0
172 196 0
172 195 0
173 196 0
173 197 0
173 197 0
172 195 0
172 196 0
169 193 0
171 194 0
173 196 0
173 197 0
161 182 0
161 180 0
163 182 0
162 181 0
161 180 0
155 175 0
161 181 0
156 174 0
157 177 0
158 177 0
161 181 0
161 180 0
162 181 0
161 180 0
161 180 0
163 183 0
149 168 0
162 181 0
160 179 0
152 172 0
162 181 0
158 177 0
163 183 0
156 176 0
162 181 0
158 178 0
157 176 0
156 175 0
163 183 0
159 179 0
160 180 0
158 179 0
154 173 0
155 174 0
160 180 0
154 174 0
158 177 0
155 176 0
158 177 0
156 175 0
151 172 0
157 177 0
152 171 0
157 177 0
152 172 0
151 171 0
157 177 0
159 179 0
158 178 0
159 179 0
155 173 0
157 177 0
151 171 0
149 169 0
157 178 0
156 176 0
151 171 0
156 177 0
155 175 0
154 174 0
153 174 0
152 172 0
148 169 0
148 168 0
148 168 0
156 177 0
153 174 0
148 168 0
155 175 0
153 173 0
154 175 0
153 174 0
154 175 0
152 174 0
154 175 0
156 177 0
152 173 0
153 175 0
154 175 0
152 173 0
150 171 0
158 178 0
149 169 0
152 172 0
156 177 0
152 173 0
150 172 0
156 177 0
151 172 0
153 174 0
148 168 0
151 173 0
146 168 0
155 177 0
149 170 0
147 168 0
146 168 0
150 172 0
147 168 0
161 182 0
155 176 0
152 173 0
151 171 0
148 169 0
152 174 0
147 169 0
146 168 0
148 170 0
152 175 0
149 170 0
142 162 0
151 173 0
152 174 0
146 167 0
146 167 0
150 172 0
146 167 0
150 172 0
153 174 0
154 176 0
151 173 0
155 177 0
150 173 0
150 172 0
152 174 0
149 171 0
148 170 0
149 172 0
145 167 0
146 167 0
151 173 0
149 171 0
145 168 0
156 177 0
148 171 0
153 174 0
153 176 0
144 166 0
143 166 0
149 171 0
144 166 0
154 175 0
155 176 0
152 174 0
153 175 0
159 181 0
145 167 0
154 177 0
148 170 0
149 171 0
149 172 0
148 170 0
147 169 0
154 176 0
150 172 0
144 165 0
150 172 0
154 175 0
150 173 0
151 173 0
145 168 0
150 172 0
150 172 0
152 173 0
155 177 0
146 168 0
145 168 0
147 170 0
153 175 0
142 163 0
147 169 0
150 173 0
151 173 0
150 172 0
144 165 0
156 178 0
148 170 0
147 169 0
149 171 0
145 168 0
149 171 0
147 168 0
137 159 0
149 171 0
150 173 0
148 171 0
154 176 0
145 167 0
154 178 0
155 177 0
145 166 0
150 171 0
145 168 0
144 166 0
154 176 0
152 173 0
142 164 0
145 168 0
150 172 0
149 171 0
151 172 0
140 163 0
150 173 0
138 160 0
145 168 0
152 174 0
145 168 0
147 169 0
155 177 0
146 168 0
147 169 0
146 169 0
156 179 0
154 177 0
146 168 0
152 173 0
150 172 0
151 172 0
151 172 0
153 176 0
150 174 0
156 178 0
153 175 0
148 170 0
144 167 0
142 164 0
147 170 0
150 172 0
159 182 0
154 178 0
146 168 0
156 176 0
153 175 0
156 178 0
157 180 0
150 172 0
156 179 0
157 180 0
157 179 0
156 178 0
154 175 0
151 174 0
158 180 0
159 181 0
153 176 0
161 183 0
156 178 0
160 182 0
153 176 0
154 177 0
153 176 0
156 178 0
150 173 0
147 170 0
159 181 0
158 181 0
155 177 0
154 177 0
155 178 0
155 178 0
156 178 0
158 181 0
149 171 0
156 179 0
159 181 0
158 180 0
153 175 0
156 178 0
153 175 0
158 180 0
152 174 0
158 180 0
156 178 0
158 181 0
148 171 0
160 183 0
159 182 0
155 178 0
161 183 0
163 186 0
162 184 0
157 180 0
160 183 0
160 184 0
162 183 0
159 182 0
159 182 0
158 180 0
162 185 0
170 193 0
161 183 0
163 185 0
164 186 0
163 186 0
159 181 0
166 188 0
167 191 0
168 190 0
164 187 0
167 190 0
166 188 0
162 185 0
162 185 0
164 187 0
165 188 0
162 185 0
164 187 0
163 185 0
162 185 0
164 187 0
162 184 0
163 186 0
167 189 0
167 190 0
169 192 0
166 190 0
170 193 0
165 187 0
168 191 0
162 185 0
164 187 0
164 187 0
166 189 0
165 188 0
162 185 0
164 186 0
169 192 0
161 184 0
168 191 0
167 190 0
165 188 0
166 189 0
168 191 0
167 190 0
165 188 0
168 191 0
167 190 0
168 191 0
166 189 0
169 193 0
166 189 0
170 193 0
166 189 0
167 190 0
165 189 0
167 190 0
170 193 0
168 191 0
169 191 0
167 189 0
164 187 0
168 191 0
168 192 0
170 193 0
171 194 0
169 192 0
171 194 0
166 190 0
168 191 0
169 192 0
170 194 0
171 194 0
170 193 0
168 192 0
170 194 0
167 191 0
168 192 0
169 193 0
171 194 0
169 193 0
172 196 0
172 195 0
170 194 0
169 192 0
170 194 0
169 193 0
168 192 0
171 195 0
167 191 0
171 194 0
170 193 0
171 194 0
168 192 0
172 195 0
172 195 0
172 196 0
172 195 0
171 195 0
171 195 0
172 195 0
173 196 0
173 197 0
170 194 0
174 196 0
172 196 0
173 196 0
171 195 0
171 195 0
173 196 0
173 197 0
161 181 0
159 177 0
163 183 0
164 184 0
163 182 0
160 179 0
162 181 0
159 179 0
161 180 0
160 178 0
156 174 0
159 178 0
160 179 0
158 177 0
161 180 0
161 180 0
154 174 0
158 177 0
160 180 0
158 177 0
158 178 0
155 175 0
162 182 0
163 182 0
156 175 0
158 178 0
156 176 0
158 178 0
160 180 0
160 179 0
156 176 0
157 177 0
155 173 0
158 177 0
156 176 0
159 179 0
155 175 0
151 171 0
153 174 0
154 174 0
151 170 0
155 174 0
154 174 0
153 173 0
155 174 0
159 179 0
148 169 0
156 175 0
150 169 0
159 179 0
162 183 0
157 177 0
151 171 0
154 174 0
156 176 0
154 174 0
160 180 0
148 169 0
149 169 0
152 173 0
155 176 0
150 169 0
150 172 0
154 174 0
154 174 0
160 181 0
147 169 0
154 174 0
154 175 0
152 173 0
152 174 0
155 175 0
149 170 0
153 174 0
151 172 0
152 172 0
155 176 0
147 167 0
156 177 0
156 178 0
153 175 0
157 178 0
143 164 0
153 174 0
158 179 0
154 174 0
153 174 0
153 174 0
155 176 0
149 170 0
152 173 0
150 171 0
156 178 0
155 177 0
151 173 0
153 173 0
150 170 0
152 174 0
144 165 0
151 171 0
154 176 0
153 174 0
154 176 0
152 173 0
153 174 0
155 177 0
149 170 0
149 171 0
146 168 0
152 174 0
151 174 0
154 175 0
152 174 0
152 174 0
153 174 0
148 171 0
148 170 0
150 171 0
150 172 0
150 172 0
156 178 0
151 173 0
151 173 0
147 169 0
147 170 0
153 174 0
153 176 0
149 171 0
159 181 0
159 181 0
156 178 0
147 169 0
154 176 0
151 172 0
152 174 0
160 182 0
149 171 0
152 174 0
153 175 0
149 171 0
146 168 0
148 170 0
159 181 0
147 169 0
149 171 0
151 172 0
145 167 0
151 173 0
149 171 0
154 176 0
151 173 0
152 175 0
143 165 0
153 175 0
148 171 0
150 173 0
151 173 0
150 173 0
152 174 0
146 168 0
154 177 0
147 170 0
146 168 0
153 175 0
149 170 0
141 163 0
150 173 0
145 167 0
146 168 0
148 171 0
151 173 0
148 170 0
150 172 0
146 167 0
147 170 0
145 167 0
146 169 0
146 166 0
147 170 0
146 168 0
154 177 0
151 173 0
150 172 0
147 170 0
146 168 0
154 176 0
146 169 0
152 175 0
150 172 0
147 168 0
147 169 0
152 175 0
150 173 0
145 167 0
146 167 0
149 170 0
143 165 0
150 173 0
146 167 0
150 172 0
140 162 0
148 170 0
153 176 0
151 174 0
149 171 0
148 170 0
156 177 0
154 176 0
149 170 0
142 164 0
150 173 0
147 169 0
151 172 0
149 171 0
146 167 0
156 177 0
149 171 0
148 170 0
147 170 0
156 178 0
149 172 0
150 172 0
155 178 0
144 165 0
157 179 0
156 178 0
145 167 0
158 180 0
158 180 0
147 169 0
149 173 0
144 166 0
155 178 0
157 179 0
155 178 0
153 175 0
159 182 0
145 167 0
154 175 0
149 172 0
153 176 0
162 184 0
158 179 0
150 172 0
156 179 0
154 177 0
158 180 0
150 172 0
156 179 0
150 173 0
157 179 0
150 172 0
149 171 0
160 183 0
158 181 0
157 180 0
155 177 0
159 182 0
160 182 0
153 175 0
163 185 0
152 174 0
159 181 0
156 178 0
159 182 0
158 179 0
164 187 0
162 184 0
161 183 0
166 188 0
161 183 0
162 184 0
157 179 0
159 182 0
159 182 0
157 180 0
160 183 0
157 179 0
150 173 0
159 180 0
160 182 0
160 182 0
159 182 0
158 181 0
158 180 0
164 187 0
164 186 0
159 182 0
160 183 0
154 176 0
159 182 0
160 182 0
162 184 0
164 187 0
160 183 0
165 187 0
159 182 0
166 189 0
163 187 0
163 186 0
166 188 0
171 194 0
170 193 0
165 188 0
166 188 0
163 185 0
162 184 0
161 184 0
169 191 0
166 188 0
169 192 0
163 186 0
164 188 0
165 188 0
167 189 0
170 192 0
161 183 0
160 183 0
156 178 0
170 193 0
163 185 0
168 191 0
169 192 0
164 188 0
166 189 0
169 192 0
164 187 0
174 197 0
166 189 0
161 184 0
166 189 0
167 190 0
162 186 0
164 187 0
168 191 0
165 188 0
171 194 0
168 191 0
168 191 0
165 188 0
173 196 0
166 190 0
175 198 0
165 188 0
172 195 0
167 191 0
167 191 0
167 190 0
167 190 0
169 193 0
170 194 0
171 195 0
171 194 0
170 193 0
170 193 0
170 194 0
166 190 0
167 191 0
173 196 0
172 195 0
171 194 0
172 196 0
164 187 0
170 194 0
171 195 0
169 192 0
167 191 0
171 195 0
171 195 0
170 193 0
169 192 0
172 195 0
168 192 0
171 194 0
171 194 0
170 193 0
170 194 0
171 195 0
170 193 0
169 191 0
170 194 0
171 194 0
170 193 0
170 193 0
172 195 0
173 197 0
174 197 0
172 196 0
172 196 0
175 198 0
171 195 0
172 196 0
172 196 0
174 197 0
173 196 0
172 197 0
172 196 0
171 195 0
175 198 0
170 194 0
162 181 0
165 185 0
162 181 0
154 174 0
162 181 0
157 176 0
162 183 0
160 179 0
159 179 0
159 178 0
158 177 0
158 178 0
154 174 0
160 180 0
158 177 0
157 176 0
166 186 0
157 177 0
157 176 0
155 175 0
161 180 0
154 174 0
162 182 0
157 176 0
158 177 0
154 173 0
158 178 0
157 177 0
162 182 0
155 175 0
159 180 0
156 176 0
154 173 0
158 178 0
161 180 0
161 182 0
151 170 0
157 177 0
156 176 0
155 176 0
154 175 0
158 177 0
158 178 0
150 170 0
158 179 0
158 178 0
155 175 0
155 175 0
153 172 0
152 172 0
151 172 0
155 175 0
152 171 0
148 167 0
157 177 0
161 182 0
153 174 0
155 175 0
151 171 0
158 179 0
157 178 0
149 170 0
153 174 0
151 172 0
154 176 0
152 173 0
154 175 0
155 175 0
153 175 0
148 169 0
158 179 0
154 175 0
152 172 0
152 173 0
151 172 0
156 178 0
154 175 0
147 167 0
154 175 0
155 177 0
153 174 0
157 178 0
156 177 0
146 167 0
150 171 0
156 177 0
153 174 0
151 172 0
145 165 0
157 178 0
154 175 0
153 175 0
158 179 0
151 172 0
156 178 0
159 180 0
144 165 0
152 174 0
160 181 0
153 174 0
152 173 0
156 178 0
152 173 0
156 178 0
156 178 0
153 175 0
148 170 0
150 171 0
148 171 0
152 174 0
152 174 0
147 170 0
152 173 0
146 168 0
150 171 0
143 164 0
150 171 0
152 174 0
147 169 0
153 175 0
154 176 0
153 174 0
150 173 0
158 180 0
158 180 0
152 175 0
151 173 0
154 175 0
152 173 0
149 172 0
156 179 0
149 172 0
156 179 0
142 163 0
155 177 0
151 173 0
151 174 0
152 173 0
149 171 0
156 178 0
148 170 0
154 175 0
153 174 0
146 168 0
144 166 0
146 168 0
154 175 0
153 174 0
152 174 0
152 174 0
154 177 0
145 166 0
151 173 0
149 171 0
158 180 0
148 171 0
156 177 0
143 166 0
140 162 0
143 165 0
156 179 0
142 166 0
156 178 0
138 160 0
154 176 0
156 179 0
152 174 0
145 167 0
149 172 0
149 172 0
149 171 0
153 176 0
142 163 0
154 176 0
152 175 0
150 172 0
150 173 0
152 175 0
146 169 0
144 165 0
145 167 0
151 173 0
147 169 0
152 173 0
148 170 0
150 172 0
153 175 0
152 175 0
152 174 0
150 171 0
149 171 0
152 174 0
153 176 0
143 165 0
151 173 0
147 170 0
153 176 0
141 164 0
148 171 0
155 177 0
156 177 0
142 164 0
152 174 0
154 176 0
151 173 0
143 166 0
147 169 0
152 174 0
146 168 0
155 177 0
151 174 0
143 165 0
160 182 0
154 177 0
156 179 0
151 174 0
146 167 0
140 162 0
145 167 0
144 166 0
152 174 0
151 173 0
157 179 0
159 182 0
157 179 0
155 178 0
151 174 0
147 171 0
150 172 0
151 173 0
153 175 0
147 169 0
152 175 0
156 178 0
157 179 0
150 172 0
156 178 0
145 167 0
153 175 0
154 176 0
158 181 0
153 175 0
146 169 0
156 179 0
153 175 0
152 175 0
156 178 0
158 180 0
148 170 0
162 184 0
147 167 0
154 175 0
160 182 0
160 182 0
153 175 0
158 181 0
159 182 0
154 176 0
159 182 0
162 186 0
158 181 0
153 175 0
158 180 0
162 184 0
158 181 0
151 175 0
160 182 0
157 180 0
159 181 0
157 180 0
155 178 0
159 182 0
154 177 0
158 181 0
158 180 0
152 175 0
160 183 0
158 180 0
158 181 0
159 181 0
164 187 0
160 183 0
156 179 0
153 176 0
159 181 0
165 187 0
166 188 0
159 183 0
159 181 0
165 188 0
164 186 0
160 183 0
163 186 0
161 183 0
163 186 0
161 183 0
160 182 0
164 186 0
163 186 0
161 184 0
167 190 0
159 182 0
165 188 0
160 183 0
159 182 0
161 184 0
164 187 0
161 184 0
167 191 0
162 185 0
162 185 0
163 186 0
162 185 0
161 184 0
166 188 0
167 189 0
172 195 0
167 191 0
163 186 0
159 182 0
166 188 0
165 186 0
166 189 0
161 184 0
168 191 0
165 187 0
163 186 0
164 187 0
169 192 0
166 189 0
168 190 0
165 187 0
164 187 0
168 191 0
168 192 0
170 193 0
169 192 0
162 186 0
169 193 0
166 189 0
163 185 0
163 186 0
168 191 0
165 188 0
166 189 0
167 190 0
168 191 0
165 188 0
169 191 0
172 196 0
165 188 0
169 192 0
170 193 0
170 193 0
165 187 0
171 194 0
170 193 0
167 190 0
171 194 0
168 192 0
168 191 0
170 194 0
173 196 0
169 192 0
169 192 0
168 193 0
169 192 0
175 198 0
171 194 0
170 194 0
171 195 0
171 194 0
171 195 0
173 196 0
170 194 0
170 193 0
170 194 0
170 193 0
169 193 0
172 196 0
169 191 0
172 196 0
172 196 0
171 194 0
168 192 0
172 196 0
173 196 0
171 194 0
171 195 0
170 193 0
170 194 0
173 197 0
170 194 0
173 196 0
171 195 0
171 195 0
174 197 0
173 196 0
173 196 0
175 197 0
161 181 0
166 186 0
160 179 0
159 179 0
162 181 0
162 182 0
162 182 0
160 179 0
161 182 0
160 179 0
160 179 0
157 177 0
158 179 0
158 177 0
160 180 0
159 178 0
161 182 0
160 178 0
158 179 0
155 174 0
159 179 0
154 174 0
155 175 0
160 178 0
162 182 0
154 174 0
158 178 0
158 178 0
156 176 0
159 179 0
159 179 0
156 176 0
152 172 0
160 179 0
158 177 0
155 176 0
158 178 0
160 180 0
155 175 0
159 178 0
155 175 0
160 179 0
150 170 0
158 179 0
147 168 0
150 171 0
155 174 0
163 184 0
154 174 0
153 174 0
158 179 0
152 173 0
152 172 0
160 180 0
157 179 0
155 175 0
152 172 0
156 176 0
152 174 0
158 178 0
156 177 0
155 175 0
146 167 0
157 176 0
148 169 0
152 173 0
158 178 0
150 171 0
155 175 0
153 174 0
158 180 0
152 173 0
155 176 0
155 176 0
153 173 0
149 170 0
156 177 0
154 175 0
152 172 0
158 179 0
153 174 0
155 176 0
150 172 0
156 177 0
152 173 0
157 179 0
156 177 0
153 174 0
155 176 0
155 175 0
154 175 0
153 174 0
155 176 0
151 173 0
152 174 0
149 171 0
145 166 0
155 177 0
148 169 0
156 178 0
155 177 0
159 181 0
150 171 0
155 177 0
157 179 0
151 173 0
147 168 0
153 175 0
157 178 0
149 171 0
147 168 0
154 176 0
153 175 0
156 177 0
155 177 0
152 173 0
151 173 0
156 179 0
155 177 0
153 175 0
153 175 0
145 167 0
156 178 0
156 178 0
152 174 0
150 172 0
148 170 0
149 170 0
151 172 0
153 175 0
151 173 0
148 169 0
149 170 0
146 167 0
149 170 0
148 170 0
149 170 0
147 168 0
145 167 0
145 168 0
151 172 0
153 174 0
149 170 0
142 164 0
151 174 0
144 166 0
155 177 0
155 176 0
153 175 0
149 171 0
154 177 0
151 174 0
152 173 0
144 165 0
147 170 0
152 174 0
144 166 0
152 174 0
148 170 0
152 175 0
147 169 0
154 176 0
159 182 0
152 175 0
152 175 0
148 170 0
153 175 0
152 173 0
148 170 0
152 175 0
151 173 0
153 175 0
150 173 0
147 169 0
146 169 0
153 175 0
152 174 0
151 172 0
148 171 0
148 169 0
152 174 0
150 172 0
145 167 0
142 164 0
146 168 0
151 173 0
150 172 0
148 170 0
154 176 0
148 170 0
148 169 0
148 170 0
154 176 0
147 169 0
150 172 0
149 172 0
150 172 0
147 169 0
152 175 0
149 171 0
148 171 0
152 173 0
155 177 0
151 173 0
157 179 0
147 169 0
151 173 0
153 176 0
149 171 0
151 173 0
151 174 0
149 172 0
157 180 0
154 177 0
154 175 0
153 174 0
143 164 0
153 175 0
146 169 0
145 167 0
148 171 0
150 173 0
157 179 0
154 177 0
156 179 0
157 179 0
157 179 0
153 175 0
149 172 0
151 173 0
151 174 0
152 174 0
157 179 0
154 176 0
156 178 0
157 180 0
153 175 0
156 179 0
155 177 0
148 171 0
153 176 0
156 178 0
161 183 0
162 186 0
146 167 0
158 180 0
151 173 0
154 176 0
159 182 0
152 174 0
155 178 0
156 177 0
158 181 0
158 180 0
151 174 0
157 179 0
152 174 0
159 181 0
157 179 0
153 175 0
158 180 0
160 182 0
151 174 0
158 180 0
161 183 0
162 184 0
161 184 0
152 175 0
160 182 0
151 174 0
160 182 0
159 182 0
163 186 0
165 187 0
157 179 0
161 183 0
157 180 0
161 184 0
158 180 0
164 186 0
167 190 0
164 186 0
155 177 0
159 181 0
163 186 0
158 179 0
163 186 0
160 182 0
163 185 0
166 188 0
166 188 0
164 186 0
155 178 0
163 185 0
159 181 0
163 186 0
167 190 0
167 190 0
163 186 0
157 180 0
159 182 0
166 188 0
165 187 0
162 184 0
163 187 0
165 187 0
159 182 0
165 187 0
164 187 0
169 191 0
167 189 0
165 187 0
160 183 0
164 186 0
166 189 0
164 187 0
161 184 0
166 188 0
161 184 0
165 188 0
160 183 0
168 191 0
167 190 0
164 188 0
165 188 0
166 189 0
166 189 0
166 189 0
170 192 0
166 188 0
166 190 0
166 189 0
163 187 0
163 186 0
166 190 0
168 190 0
168 191 0
169 192 0
169 192 0
165 189 0
164 187 0
171 193 0
168 192 0
164 187 0
167 191 0
171 194 0
167 190 0
173 196 0
170 193 0
170 192 0
166 189 0
166 189 0
168 191 0
170 193 0
168 191 0
170 193 0
168 191 0
168 192 0
170 193 0
169 192 0
171 194 0
173 196 0
170 194 0
169 192 0
166 190 0
167 191 0
169 192 0
172 196 0
171 194 0
171 194 0
170 193 0
170 194 0
173 197 0
170 194 0
173 196 0
169 192 0
170 193 0
172 195 0
173 196 0
173 196 0
172 195 0
169 192 0
171 195 0
173 197 0
173 196 0
173 197 0
171 195 0
172 195 0
172 195 0
171 195 0
170 194 0
172 196 0
171 195 0
170 193 0
175 198 0
172 196 0
174 196 0
172 196 0
174 197 0
173 197 0
165 184 0
163 182 0
160 180 0
159 179 0
159 179 0
153 173 0
158 178 0
156 176 0
160 180 0
162 182 0
160 179 0
159 179 0
160 179 0
163 183 0
159 178 0
157 177 0
158 178 0
161 180 0
164 184 0
154 173 0
161 181 0
154 175 0
162 183 0
154 173 0
165 184 0
156 176 0
159 178 0
161 181 0
156 176 0
160 180 0
157 177 0
155 175 0
156 176 0
154 175 0
152 172 0
164 184 0
161 182 0
154 173 0
155 175 0
152 173 0
160 182 0
163 183 0
158 178 0
158 178 0
158 178 0
147 167 0
160 181 0
151 171 0
149 169 0
150 170 0
154 175 0
153 172 0
155 176 0
156 177 0
148 168 0
147 167 0
153 173 0
159 179 0
150 170 0
156 176 0
154 175 0
150 171 0
157 178 0
154 173 0
152 172 0
150 172 0
153 175 0
148 170 0
146 167 0
150 171 0
150 172 0
148 168 0
153 174 0
156 177 0
153 174 0
149 170 0
153 175 0
159 181 0
150 170 0
156 178 0
151 171 0
154 175 0
150 170 0
156 177 0
151 173 0
153 174 0
147 169 0
152 174 0
151 172 0
150 171 0
147 167 0
155 177 0
152 174 0
156 178 0
156 178 0
152 173 0
155 177 0
150 171 0
144 165 0
159 182 0
151 171 0
155 177 0
148 170 0
148 169 0
155 177 0
151 173 0
152 174 0
149 170 0
148 169 0
157 178 0
146 167 0
158 181 0
149 170 0
147 168 0
149 171 0
154 176 0
152 174 0
152 173 0
153 175 0
152 175 0
153 176 0
154 176 0
146 168 0
146 167 0
156 178 0
153 175 0
147 170 0
149 172 0
151 173 0
155 178 0
149 172 0
152 174 0
153 175 0
156 178 0
147 169 0
150 173 0
145 167 0
157 178 0
158 179 0
150 172 0
140 162 0
151 174 0
151 174 0
143 165 0
155 176 0
153 176 0
156 178 0
148 171 0
144 166 0
153 175 0
153 177 0
153 175 0
152 174 0
153 176 0
146 169 0
156 179 0
147 169 0
142 164 0
151 173 0
143 166 0
154 176 0
148 170 0
146 169 0
151 173 0
145 167 0
150 172 0
150 172 0
150 172 0
150 172 0
146 169 0
151 173 0
161 183 0
148 171 0
156 179 0
145 167 0
151 172 0
141 163 0
149 172 0
150 173 0
152 174 0
142 165 0
150 172 0
152 175 0
152 175 0
147 168 0
159 182 0
149 171 0
149 172 0
153 174 0
156 178 0
152 173 0
146 168 0
148 169 0
157 179 0
145 168 0
148 170 0
153 176 0
151 174 0
150 171 0
154 177 0
152 174 0
145 166 0
145 167 0
147 169 0
149 170 0
160 182 0
153 175 0
149 170 0
146 167 0
156 179 0
149 171 0
148 172 0
151 173 0
150 171 0
143 164 0
151 174 0
146 169 0
153 175 0
152 175 0
155 178 0
149 172 0
146 168 0
145 167 0
150 172 0
151 173 0
156 177 0
151 173 0
155 178 0
151 174 0
149 171 0
151 173 0
158 181 0
155 178 0
153 175 0
160 184 0
158 180 0
156 178 0
155 177 0
147 170 0
160 182 0
151 174 0
152 175 0
158 180 0
155 178 0
157 179 0
159 182 0
157 180 0
157 180 0
158 181 0
161 183 0
163 185 0
154 176 0
160 183 0
148 171 0
160 183 0
156 177 0
161 183 0
160 184 0
160 182 0
158 181 0
155 178 0
156 177 0
158 180 0
159 181 0
151 174 0
159 182 0
159 182 0
156 179 0
158 181 0
152 175 0
156 178 0
159 180 0
156 179 0
164 186 0
162 184 0
161 184 0
155 178 0
158 181 0
159 182 0
159 182 0
163 185 0
163 185 0
159 182 0
153 176 0
156 179 0
165 187 0
163 184 0
163 186 0
160 182 0
162 185 0
157 180 0
161 184 0
162 184 0
159 182 0
162 185 0
165 188 0
164 187 0
161 184 0
162 184 0
162 184 0
157 180 0
161 185 0
168 191 0
164 186 0
164 186 0
164 187 0
163 186 0
162 184 0
165 188 0
164 186 0
166 188 0
161 184 0
166 188 0
160 184 0
168 190 0
167 190 0
163 185 0
164 187 0
167 190 0
165 188 0
162 184 0
162 185 0
167 190 0
166 189 0
167 190 0
170 192 0
167 190 0
170 193 0
164 186 0
170 192 0
169 192 0
169 192 0
164 187 0
166 189 0
163 186 0
167 190 0
167 190 0
169 192 0
169 192 0
170 193 0
167 190 0
166 188 0
160 183 0
169 191 0
166 189 0
168 191 0
169 192 0
166 189 0
169 192 0
173 196 0
170 193 0
165 188 0
168 191 0
169 192 0
167 190 0
170 194 0
172 195 0
167 189 0
170 194 0
171 194 0
167 191 0
173 196 0
169 192 0
170 194 0
167 190 0
169 192 0
166 189 0
168 191 0
170 193 0
171 194 0
168 191 0
172 196 0
170 193 0
173 197 0
170 194 0
168 191 0
172 195 0
167 191 0
172 195 0
170 194 0
172 195 0
172 196 0
171 194 0
172 195 0
172 196 0
173 197 0
173 197 0
172 196 0
171 195 0
173 196 0
174 197 0
172 196 0
172 195 0
173 196 0
171 194 0
173 196 0
175 198 0
172 195 0
170 193 0
172 195 0
162 182 0
160 181 0
159 179 0
164 184 0
160 180 0
165 185 0
163 183 0
159 179 0
163 183 0
163 181 0
156 176 0
159 179 0
157 177 0
160 181 0
157 177 0
157 177 0
161 182 0
158 178 0
162 183 0
154 174 0
156 176 0
159 179 0
159 178 0
162 183 0
157 177 0
161 182 0
156 176 0
162 183 0
158 179 0
160 180 0
153 174 0
153 173 0
158 177 0
160 181 0
157 177 0
162 182 0
155 175 0
156 177 0
155 175 0
153 173 0
155 175 0
157 177 0
158 178 0
155 176 0
157 178 0
159 179 0
159 180 0
154 175 0
157 178 0
150 170 0
148 169 0
155 175 0
152 172 0
161 182 0
154 174 0
156 177 0
156 177 0
159 180 0
158 179 0
156 177 0
158 178 0
155 176 0
157 178 0
154 175 0
145 166 0
157 179 0
161 182 0
152 174 0
156 177 0
152 173 0
156 178 0
156 178 0
157 178 0
153 174 0
159 180 0
156 177 0
152 172 0
159 180 0
155 176 0
153 174 0
154 176 0
157 178 0
151 173 0
155 176 0
156 178 0
150 171 0
155 175 0
153 174 0
149 170 0
153 174 0
149 172 0
152 174 0
153 174 0
157 178 0
148 168 0
155 176 0
159 180 0
151 173 0
156 179 0
152 175 0
158 180 0
147 169 0
152 173 0
152 174 0
151 172 0
149 169 0
158 180 0
153 175 0
152 173 0
152 173 0
151 173 0
152 172 0
155 177 0
152 175 0
151 172 0
154 176 0
150 172 0
157 179 0
149 170 0
150 172 0
156 178 0
152 175 0
151 173 0
141 163 0
151 174 0
143 165 0
152 173 0
152 174 0
148 170 0
150 173 0
151 173 0
153 174 0
154 176 0
146 168 0
150 172 0
157 179 0
147 170 0
148 171 0
151 173 0
154 176 0
151 173 0
153 175 0
153 174 0
152 173 0
158 181 0
156 178 0
143 166 0
146 169 0
146 167 0
147 169 0
151 173 0
151 173 0
154 177 0
144 167 0
152 174 0
151 174 0
148 170 0
149 172 0
155 178 0
154 177 0
150 173 0
151 173 0
151 173 0
155 178 0
146 169 0
150 172 0
154 176 0
146 168 0
150 172 0
151 173 0
150 173 0
152 174 0
152 175 0
155 177 0
155 179 0
149 171 0
154 177 0
149 172 0
146 168 0
149 171 0
156 178 0
143 166 0
149 172 0
151 173 0
154 175 0
143 166 0
152 175 0
146 168 0
150 173 0
149 171 0
151 174 0
152 176 0
153 176 0
149 171 0
150 172 0
147 170 0
150 173 0
149 171 0
155 177 0
150 172 0
154 176 0
158 180 0
152 174 0
158 181 0
145 167 0
153 175 0
148 171 0
154 177 0
150 173 0
155 177 0
154 175 0
147 170 0
153 175 0
152 174 0
150 172 0
160 182 0
151 173 0
154 176 0
147 170 0
152 174 0
156 178 0
145 167 0
160 183 0
148 171 0
156 178 0
152 174 0
156 178 0
154 177 0
154 176 0
150 171 0
151 174 0
153 175 0
153 176 0
151 173 0
156 179 0
158 180 0
155 177 0
158 180 0
154 177 0
151 174 0
158 180 0
154 177 0
153 176 0
153 175 0
159 181 0
151 174 0
151 173 0
155 177 0
160 182 0
159 181 0
161 184 0
157 178 0
151 172 0
156 179 0
159 182 0
156 179 0
161 183 0
160 183 0
155 177 0
151 175 0
160 182 0
156 179 0
151 173 0
160 183 0
157 180 0
158 181 0
157 180 0
157 179 0
154 177 0
159 182 0
161 184 0
166 188 0
159 182 0
160 182 0
163 186 0
158 181 0
159 183 0
163 186 0
168 190 0
159 182 0
158 180 0
158 181 0
158 181 0
158 180 0
164 186 0
163 185 0
153 175 0
157 180 0
164 186 0
164 187 0
158 181 0
165 188 0
161 185 0
163 186 0
160 183 0
167 190 0
167 189 0
163 186 0
169 192 0
161 184 0
168 190 0
160 182 0
166 189 0
160 182 0
158 181 0
164 188 0
161 184 0
170 192 0
164 186 0
164 187 0
164 187 0
164 187 0
163 186 0
160 182 0
165 188 0
164 187 0
164 186 0
166 189 0
165 187 0
166 189 0
165 188 0
159 183 0
164 187 0
165 187 0
167 190 0
167 190 0
170 193 0
165 187 0
160 183 0
167 190 0
160 183 0
165 188 0
168 191 0
165 188 0
170 193 0
161 184 0
164 186 0
175 197 0
170 194 0
164 187 0
166 188 0
164 186 0
165 187 0
164 188 0
168 191 0
167 190 0
172 196 0
172 195 0
167 191 0
169 192 0
168 192 0
168 192 0
170 193 0
166 188 0
166 189 0
171 194 0
171 194 0
167 190 0
168 191 0
169 193 0
171 194 0
171 195 0
173 196 0
169 192 0
169 193 0
165 189 0
168 191 0
170 194 0
168 191 0
172 195 0
170 195 0
167 191 0
170 193 0
171 194 0
168 192 0
171 194 0
171 194 0
172 195 0
171 194 0
169 193 0
173 196 0
172 195 0
172 195 0
173 196 0
168 191 0
171 194 0
173 197 0
171 194 0
172 195 0
170 194 0
171 195 0
171 195 0
172 195 0
170 193 0
173 197 0
171 195 0
172 195 0
170 193 0
172 195 0
168 191 0
157 176 0
159 179 0
159 179 0
159 179 0
163 182 0
159 179 0
159 178 0
158 178 0
161 181 0
159 179 0
163 182 0
155 174 0
159 178 0
157 178 0
159 179 0
161 182 0
160 181 0
153 173 0
156 177 0
160 179 0
154 173 0
162 182 0
156 176 0
157 179 0
159 179 0
161 180 0
160 180 0
157 178 0
157 177 0
151 171 0
165 185 0
144 164 0
160 180 0
161 181 0
158 178 0
157 177 0
160 181 0
155 176 0
158 179 0
158 178 0
158 178 0
151 171 0
158 178 0
147 168 0
158 179 0
153 174 0
152 171 0
155 176 0
151 172 0
156 176 0
156 178 0
161 182 0
160 182 0
161 181 0
149 170 0
161 181 0
154 175 0
153 173 0
160 181 0
154 175 0
149 170 0
153 175 0
151 172 0
152 172 0
153 176 0
154 175 0
152 173 0
156 177 0
155 176 0
155 177 0
154 175 0
151 173 0
151 171 0
153 174 0
152 174 0
152 173 0
159 180 0
149 170 0
152 173 0
151 172 0
148 169 0
154 175 0
154 176 0
155 176 0
148 170 0
152 174 0
150 171 0
151 173 0
156 177 0
159 181 0
160 182 0
153 175 0
154 176 0
146 167 0
154 176 0
153 175 0
149 171 0
153 175 0
153 174 0
154 176 0
155 177 0
160 182 0
147 169 0
149 170 0
156 180 0
158 180 0
153 175 0
156 178 0
152 174 0
148 170 0
155 176 0
153 175 0
151 173 0
150 171 0
156 178 0
150 172 0
154 177 0
151 173 0
153 175 0
153 176 0
152 174 0
155 177 0
153 175 0
146 168 0
142 163 0
150 172 0
142 164 0
144 166 0
153 176 0
156 178 0
152 174 0
146 169 0
147 169 0
147 168 0
154 177 0
156 178 0
153 175 0
150 171 0
147 169 0
152 174 0
153 176 0
145 168 0
149 173 0
140 161 0
145 168 0
150 172 0
137 159 0
156 179 0
149 172 0
148 170 0
148 171 0
147 169 0
153 176 0
154 176 0
153 176 0
147 170 0
151 174 0
149 171 0
156 178 0
158 180 0
153 175 0
152 174 0
150 172 0
146 169 0
150 172 0
148 171 0
156 178 0
146 168 0
147 169 0
151 174 0
145 168 0
146 168 0
146 168 0
151 174 0
153 175 0
149 172 0
154 176 0
153 175 0
150 172 0
155 177 0
153 177 0
152 174 0
150 171 0
151 173 0
154 177 0
150 172 0
154 176 0
151 173 0
147 169 0
149 171 0
154 177 0
155 176 0
151 174 0
146 169 0
157 179 0
151 173 0
151 174 0
144 166 0
143 164 0
156 178 0
154 176 0
152 175 0
151 172 0
154 176 0
154 177 0
149 171 0
152 175 0
150 173 0
154 176 0
153 175 0
150 172 0
158 180 0
145 168 0
160 183 0
153 175 0
151 174 0
153 175 0
156 178 0
146 169 0
153 175 0
147 170 0
144 166 0
152 174 0
156 178 0
154 176 0
161 184 0
147 170 0
143 165 0
148 170 0
154 177 0
151 174 0
151 174 0
161 182 0
141 163 0
141 164 0
154 176 0
154 176 0
155 178 0
149 170 0
156 178 0
157 178 0
160 183 0
153 175 0
153 176 0
161 183 0
159 181 0
158 180 0
153 175 0
156 178 0
153 176 0
156 179 0
156 179 0
157 179 0
154 176 0
155 177 0
158 181 0
160 182 0
157 180 0
158 181 0
159 181 0
163 185 0
157 179 0
159 182 0
158 180 0
160 183 0
164 186 0
163 185 0
152 174 0
159 181 0
157 179 0
157 179 0
153 175 0
154 176 0
156 178 0
161 184 0
156 179 0
160 183 0
165 187 0
161 184 0
164 187 0
163 186 0
159 182 0
159 182 0
165 188 0
164 187 0
168 190 0
160 183 0
161 184 0
154 176 0
166 188 0
159 182 0
165 187 0
163 186 0
164 187 0
161 184 0
166 189 0
161 183 0
161 183 0
162 184 0
164 187 0
165 188 0
164 187 0
161 185 0
165 188 0
162 185 0
166 188 0
164 187 0
165 187 0
167 190 0
159 183 0
166 188 0
166 188 0
159 182 0
169 192 0
165 187 0
172 194 0
167 190 0
168 191 0
167 190 0
168 190 0
170 193 0
161 185 0
165 188 0
165 188 0
161 184 0
166 188 0
168 192 0
167 189 0
166 189 0
167 189 0
168 191 0
164 187 0
162 185 0
167 190 0
169 192 0
167 190 0
168 191 0
168 191 0
166 189 0
162 184 0
165 189 0
165 188 0
161 184 0
167 190 0
164 187 0
168 192 0
169 193 0
168 191 0
166 189 0
170 193 0
172 194 0
169 192 0
169 193 0
169 192 0
165 188 0
169 192 0
167 190 0
169 192 0
170 193 0
172 195 0
168 192 0
167 190 0
168 191 0
167 191 0
170 194 0
172 195 0
171 194 0
171 194 0
166 190 0
171 194 0
172 196 0
168 191 0
174 197 0
170 193 0
172 195 0
170 193 0
170 193 0
173 196 0
171 194 0
170 193 0
168 191 0
170 193 0
169 192 0
173 196 0
171 194 0
173 196 0
172 195 0
174 197 0
171 195 0
174 197 0
169 192 0
172 195 0
171 194 0
175 198 0
171 195 0
173 197 0
173 196 0
174 197 0
172 196 0
172 195 0
159 180 0
162 183 0
162 182 0
159 179 0
158 178 0
161 182 0
157 178 0
160 180 0
159 179 0
163 184 0
157 177 0
162 182 0
162 183 0
160 180 0
161 182 0
159 179 0
158 178 0
160 181 0
159 179 0
156 176 0
152 173 0
160 181 0
157 178 0
156 175 0
159 180 0
159 179 0
159 179 0
150 170 0
158 178 0
158 179 0
158 178 0
153 173 0
161 181 0
156 177 0
156 177 0
155 175 0
161 182 0
158 178 0
157 177 0
156 176 0
161 181 0
156 177 0
156 177 0
159 181 0
159 179 0
157 177 0
156 177 0
160 181 0
160 181 0
162 183 0
152 174 0
154 174 0
156 176 0
153 173 0
160 181 0
155 176 0
160 181 0
153 174 0
152 173 0
156 176 0
155 177 0
153 174 0
153 175 0
154 175 0
156 177 0
155 176 0
151 171 0
153 174 0
153 174 0
157 177 0
150 171 0
156 178 0
157 177 0
153 174 0
155 176 0
159 180 0
158 180 0
161 182 0
155 176 0
152 174 0
157 178 0
158 179 0
150 171 0
158 181 0
159 181 0
155 177 0
154 176 0
156 177 0
156 177 0
156 177 0
154 175 0
148 170 0
154 176 0
155 176 0
146 169 0
151 173 0
161 182 0
157 178 0
147 169 0
149 170 0
156 176 0
150 173 0
155 177 0
157 181 0
157 179 0
157 179 0
151 172 0
145 166 0
156 177 0
150 172 0
145 167 0
154 176 0
154 177 0
152 174 0
147 168 0
149 171 0
164 186 0
153 174 0
148 171 0
141 163 0
143 165 0
153 174 0
155 178 0
152 174 0
156 179 0
155 177 0
156 178 0
152 175 0
158 180 0
141 163 0
155 178 0
156 178 0
151 174 0
152 175 0
149 171 0
158 180 0
157 179 0
152 174 0
149 171 0
149 171 0
153 176 0
145 167 0
152 174 0
152 174 0
152 175 0
145 167 0
149 172 0
144 167 0
150 172 0
152 174 0
151 173 0
151 174 0
149 172 0
159 181 0
144 166 0
151 173 0
147 170 0
157 179 0
149 171 0
148 171 0
154 176 0
149 172 0
153 175 0
144 167 0
153 175 0
148 170 0
145 166 0
160 183 0
150 173 0
151 173 0
148 170 0
145 166 0
158 181 0
149 171 0
153 174 0
151 172 0
147 169 0
150 174 0
155 176 0
159 181 0
148 169 0
156 178 0
155 178 0
142 165 0
145 168 0
149 172 0
150 172 0
148 171 0
150 172 0
152 174 0
153 175 0
154 177 0
149 171 0
144 167 0
154 176 0
157 179 0
151 174 0
148 170 0
155 177 0
147 170 0
149 171 0
150 172 0
155 176 0
152 175 0
149 170 0
152 174 0
153 175 0
155 177 0
151 173 0
152 174 0
150 172 0
151 173 0
147 170 0
150 172 0
150 172 0
150 172 0
148 171 0
152 174 0
154 176 0
148 171 0
156 178 0
146 169 0
151 173 0
159 182 0
153 174 0
157 180 0
151 174 0
162 186 0
155 177 0
163 185 0
153 175 0
160 182 0
151 173 0
152 174 0
155 178 0
156 178 0
160 183 0
162 185 0
153 174 0
152 174 0
158 181 0
158 180 0
150 171 0
157 180 0
155 178 0
158 181 0
160 184 0
152 174 0
154 177 0
155 178 0
156 179 0
155 178 0
158 181 0
161 183 0
159 183 0
155 176 0
160 182 0
157 179 0
156 178 0
158 181 0
151 174 0
157 179 0
156 179 0
164 187 0
159 181 0
160 183 0
164 187 0
158 180 0
162 184 0
155 178 0
163 185 0
155 178 0
162 185 0
156 179 0
159 182 0
159 182 0
157 180 0
163 185 0
161 183 0
160 183 0
161 184 0
156 179 0
162 184 0
162 185 0
161 185 0
161 184 0
159 181 0
159 183 0
163 185 0
156 179 0
158 181 0
164 186 0
159 182 0
161 183 0
164 187 0
163 186 0
167 190 0
165 188 0
163 185 0
160 183 0
161 184 0
161 183 0
162 185 0
170 193 0
166 188 0
164 188 0
161 183 0
165 187 0
161 184 0
162 185 0
166 189 0
160 183 0
161 183 0
169 191 0
163 186 0
169 191 0
167 190 0
167 190 0
163 186 0
170 192 0
164 187 0
166 189 0
162 185 0
167 190 0
163 185 0
163 185 0
165 188 0
159 182 0
162 186 0
167 189 0
167 190 0
166 190 0
165 188 0
171 194 0
165 189 0
166 189 0
168 191 0
163 186 0
168 191 0
169 192 0
169 193 0
169 193 0
165 188 0
169 192 0
166 190 0
168 190 0
171 194 0
167 191 0
163 186 0
165 188 0
168 191 0
168 191 0
169 193 0
165 188 0
168 191 0
166 189 0
168 191 0
167 190 0
171 193 0
168 191 0
168 192 0
170 193 0
169 192 0
168 192 0
170 193 0
168 191 0
171 194 0
170 194 0
166 189 0
170 193 0
171 194 0
173 196 0
167 190 0
171 194 0
168 192 0
172 196 0
171 194 0
168 192 0
171 193 0
169 193 0
170 193 0
170 194 0
172 196 0
169 192 0
174 197 0
170 193 0
170 193 0
171 194 0
167 190 0
170 194 0
170 193 0
172 194 0
170 193 0
171 195 0
170 194 0
173 196 0
171 195 0
171 194 0
172 195 0
173 196 0
160 180 0
167 189 0
158 178 0
161 182 0
163 183 0
159 180 0
163 183 0
165 185 0
162 184 0
158 178 0
158 178 0
157 178 0
157 177 0
157 177 0
159 179 0
156 177 0
160 180 0
160 181 0
164 184 0
158 179 0
157 177 0
155 175 0
160 180 0
156 176 0
160 181 0
156 176 0
159 180 0
161 180 0
156 176 0
159 180 0
158 178 0
156 176 0
155 175 0
160 180 0
163 185 0
158 177 0
155 174 0
154 174 0
161 182 0
159 180 0
155 176 0
161 181 0
159 179 0
160 180 0
156 177 0
159 180 0
160 180 0
151 172 0
153 173 0
155 176 0
154 175 0
154 175 0
158 179 0
153 174 0
152 172 0
157 178 0
155 175 0
153 174 0
161 181 0
161 182 0
154 175 0
160 181 0
152 173 0
157 178 0
162 184 0
161 182 0
159 180 0
157 178 0
155 176 0
157 178 0
158 178 0
161 182 0
155 178 0
153 174 0
156 176 0
161 182 0
157 178 0
152 173 0
157 179 0
158 179 0
147 169 0
158 181 0
155 177 0
155 178 0
152 173 0
158 180 0
154 176 0
156 178 0
149 170 0
146 169 0
153 175 0
153 174 0
154 176 0
155 176 0
153 175 0
160 182 0
153 175 0
143 165 0
149 171 0
156 178 0
153 174 0
154 176 0
154 176 0
148 170 0
155 176 0
154 177 0
154 177 0
151 174 0
152 175 0
148 170 0
158 180 0
157 179 0
149 171 0
159 182 0
151 173 0
157 179 0
155 177 0
150 172 0
156 179 0
155 177 0
152 174 0
149 172 0
153 174 0
156 178 0
155 176 0
156 178 0
153 175 0
158 180 0
146 168 0
150 172 0
153 176 0
158 181 0
155 178 0
152 175 0
150 172 0
155 177 0
158 180 0
155 176 0
148 170 0
157 181 0
152 175 0
154 176 0
154 177 0
153 176 0
147 169 0
149 171 0
153 176 0
147 169 0
147 169 0
155 179 0
149 172 0
147 168 0
149 171 0
153 175 0
151 173 0
158 180 0
150 172 0
140 163 0
155 178 0
155 177 0
151 173 0
156 179 0
149 171 0
157 179 0
156 178 0
156 179 0
148 171 0
151 173 0
151 174 0
151 173 0
152 175 0
147 170 0
156 178 0
149 172 0
148 170 0
144 167 0
156 179 0
153 175 0
150 172 0
143 164 0
151 173 0
156 178 0
154 175 0
155 178 0
148 171 0
151 174 0
152 175 0
150 173 0
143 165 0
156 179 0
146 169 0
156 178 0
150 173 0
145 168 0
154 177 0
157 179 0
149 172 0
149 171 0
157 180 0
146 169 0
157 180 0
156 178 0
154 176 0
153 176 0
155 177 0
150 172 0
142 164 0
147 169 0
157 180 0
149 174 0
157 179 0
150 173 0
152 175 0
147 170 0
153 174 0
155 178 0
157 180 0
155 177 0
149 171 0
153 176 0
147 168 0
151 174 0
161 184 0
153 175 0
147 169 0
155 177 0
154 175 0
155 178 0
159 181 0
158 181 0
157 180 0
153 174 0
152 175 0
153 175 0
155 178 0
152 174 0
151 173 0
154 176 0
155 178 0
160 183 0
153 176 0
154 176 0
159 182 0
152 175 0
151 173 0
151 173 0
156 178 0
161 183 0
157 180 0
155 178 0
155 177 0
155 178 0
156 179 0
159 182 0
157 179 0
157 179 0
152 174 0
153 176 0
155 178 0
157 178 0
165 187 0
154 177 0
151 173 0
160 182 0
164 187 0
157 179 0
162 183 0
155 177 0
161 184 0
159 182 0
154 176 0
158 180 0
166 188 0
155 178 0
164 187 0
158 180 0
164 186 0
160 182 0
156 179 0
161 184 0
159 182 0
162 184 0
161 183 0
163 186 0
162 185 0
161 185 0
163 185 0
159 182 0
157 180 0
160 183 0
154 176 0
168 191 0
153 176 0
162 185 0
156 180 0
158 180 0
167 189 0
157 178 0
164 187 0
164 186 0
167 190 0
164 186 0
165 188 0
163 185 0
163 186 0
159 182 0
167 189 0
165 189 0
167 189 0
163 185 0
163 186 0
163 186 0
165 188 0
166 189 0
160 182 0
165 187 0
168 191 0
168 191 0
162 184 0
164 187 0
168 190 0
168 191 0
161 184 0
164 187 0
163 185 0
164 187 0
167 190 0
166 189 0
158 181 0
170 193 0
166 188 0
170 193 0
166 188 0
165 188 0
160 183 0
165 188 0
168 191 0
163 186 0
167 191 0
165 188 0
169 192 0
162 185 0
168 191 0
171 193 0
169 192 0
165 188 0
169 192 0
170 192 0
169 193 0
171 194 0
168 191 0
170 192 0
171 194 0
167 190 0
168 191 0
169 192 0
171 194 0
172 194 0
166 189 0
164 187 0
169 192 0
170 193 0
171 193 0
171 195 0
169 193 0
169 192 0
167 191 0
169 192 0
172 195 0
171 194 0
166 189 0
169 192 0
172 195 0
166 190 0
170 193 0
171 193 0
165 187 0
169 192 0
170 194 0
169 192 0
169 193 0
172 195 0
172 196 0
168 192 0
168 191 0
172 195 0
170 193 0
173 196 0
173 196 0
169 194 0
172 195 0
171 195 0
169 192 0
175 198 0
169 192 0
171 195 0
169 192 0
171 195 0
172 195 0
168 192 0
164 184 0
161 182 0
160 181 0
165 185 0
160 180 0
166 186 0
162 182 0
164 184 0
160 181 0
161 181 0
157 177 0
162 183 0
156 175 0
165 185 0
159 181 0
160 181 0
158 179 0
159 178 0
160 181 0
163 183 0
152 172 0
159 180 0
160 181 0
157 176 0
157 177 0
161 181 0
157 178 0
154 175 0
163 183 0
153 174 0
161 182 0
159 181 0
162 182 0
156 176 0
156 176 0
155 175 0
157 178 0
157 178 0
163 183 0
151 171 0
153 174 0
152 173 0
157 178 0
156 176 0
153 173 0
158 179 0
161 183 0
153 174 0
162 184 0
157 179 0
153 172 0
153 174 0
158 178 0
156 176 0
155 176 0
155 176 0
153 174 0
161 182 0
155 177 0
160 180 0
148 169 0
155 176 0
156 177 0
156 177 0
154 175 0
154 174 0
153 174 0
152 173 0
157 179 0
157 178 0
157 179 0
148 169 0
159 181 0
152 174 0
156 178 0
151 173 0
158 179 0
158 180 0
163 185 0
158 178 0
160 181 0
159 180 0
158 179 0
158 180 0
153 176 0
156 178 0
158 180 0
155 176 0
157 179 0
152 173 0
153 176 0
151 173 0
151 172 0
151 173 0
155 177 0
147 169 0
155 176 0
153 175 0
151 173 0
158 180 0
147 169 0
159 182 0
148 170 0
152 175 0
154 175 0
153 176 0
151 174 0
160 182 0
148 170 0
155 177 0
155 177 0
160 181 0
152 174 0
148 170 0
155 177 0
154 177 0
160 182 0
158 181 0
151 175 0
155 179 0
154 175 0
151 174 0
154 176 0
154 176 0
157 179 0
152 174 0
155 177 0
154 176 0
150 172 0
149 172 0
150 172 0
148 170 0
150 173 0
149 171 0
155 177 0
151 173 0
150 173 0
150 172 0
156 179 0
150 172 0
157 180 0
161 183 0
153 176 0
156 178 0
159 181 0
153 175 0
151 173 0
144 166 0
149 172 0
154 177 0
151 175 0
156 178 0
148 170 0
151 173 0
150 171 0
147 170 0
153 176 0
154 177 0
154 175 0
149 172 0
151 173 0
144 166 0
152 175 0
155 176 0
152 174 0
146 168 0
148 171 0
148 170 0
152 175 0
153 174 0
149 172 0
149 172 0
157 180 0
148 170 0
152 174 0
149 171 0
154 176 0
157 179 0
155 178 0
156 179 0
161 183 0
155 178 0
151 174 0
153 176 0
149 171 0
157 180 0
155 177 0
152 174 0
153 175 0
160 182 0
152 176 0
147 171 0
150 172 0
148 169 0
151 173 0
153 175 0
153 176 0
144 166 0
154 177 0
153 176 0
150 172 0
153 176 0
157 180 0
149 172 0
150 173 0
147 170 0
153 175 0
157 179 0
155 178 0
153 174 0
153 175 0
149 171 0
156 178 0
151 174 0
156 179 0
154 176 0
155 179 0
155 178 0
156 178 0
151 174 0
156 178 0
158 180 0
150 172 0
151 173 0
151 174 0
158 180 0
153 176 0
155 177 0
153 176 0
159 182 0
150 174 0
156 178 0
157 179 0
159 181 0
146 167 0
153 175 0
158 181 0
153 175 0
157 179 0
160 183 0
163 186 0
155 178 0
159 181 0
154 177 0
147 169 0
162 184 0
159 180 0
161 184 0
147 170 0
160 183 0
160 183 0
164 187 0
162 183 0
156 178 0
154 176 0
154 177 0
151 173 0
162 185 0
157 179 0
154 176 0
158 180 0
155 178 0
157 179 0
162 185 0
159 182 0
163 185 0
161 184 0
161 183 0
159 182 0
156 179 0
161 184 0
154 176 0
156 179 0
162 184 0
156 179 0
164 187 0
162 185 0
165 187 0
163 185 0
155 178 0
161 184 0
159 182 0
159 181 0
164 186 0
165 187 0
162 184 0
165 188 0
161 183 0
165 188 0
163 186 0
161 184 0
164 188 0
162 186 0
166 189 0
158 180 0
163 186 0
159 181 0
162 185 0
165 187 0
167 190 0
165 187 0
161 184 0
163 185 0
160 183 0
162 185 0
166 189 0
160 184 0
161 184 0
166 189 0
163 186 0
164 187 0
168 190 0
166 189 0
163 186 0
168 191 0
167 190 0
163 185 0
167 190 0
165 188 0
167 189 0
164 186 0
167 189 0
165 187 0
164 187 0
167 190 0
164 186 0
169 192 0
164 187 0
166 189 0
161 184 0
169 192 0
167 191 0
165 188 0
171 194 0
170 193 0
165 189 0
165 188 0
162 185 0
169 192 0
170 193 0
165 189 0
167 190 0
168 190 0
170 194 0
169 191 0
171 194 0
167 190 0
167 190 0
168 190 0
168 191 0
165 189 0
166 189 0
166 188 0
166 189 0
167 191 0
170 193 0
171 194 0
171 195 0
172 195 0
169 192 0
168 191 0
167 190 0
167 190 0
168 191 0
170 193 0
171 195 0
171 194 0
167 190 0
171 194 0
172 195 0
167 190 0
170 193 0
168 190 0
172 195 0
171 194 0
171 194 0
170 193 0
172 195 0
175 197 0
171 195 0
171 195 0
170 193 0
167 190 0
172 195 0
171 194 0
170 194 0
169 192 0
174 197 0
173 196 0
170 193 0
173 196 0
172 195 0
170 193 0
173 196 0
173 195 0
172 195 0
171 194 0
171 194 0
169 193 0
172 195 0
161 181 0
158 179 0
163 184 0
160 180 0
157 177 0
164 185 0
161 180 0
163 184 0
157 178 0
157 177 0
165 185 0
163 183 0
160 180 0
158 179 0
156 177 0
159 180 0
162 183 0
163 184 0
159 179 0
162 182 0
158 179 0
154 175 0
156 176 0
154 173 0
157 177 0
158 178 0
151 172 0
162 182 0
160 181 0
155 177 0
161 182 0
154 174 0
159 179 0
150 171 0
159 179 0
154 174 0
161 182 0
164 183 0
161 182 0
154 175 0
160 181 0
155 176 0
160 181 0
155 176 0
157 178 0
158 180 0
159 180 0
156 176 0
158 179 0
159 179 0
154 175 0
155 176 0
159 181 0
161 182 0
155 177 0
153 175 0
161 182 0
153 173 0
160 181 0
150 171 0
156 178 0
152 173 0
158 180 0
158 179 0
154 175 0
154 175 0
160 182 0
157 178 0
157 177 0
152 173 0
162 184 0
155 176 0
158 178 0
160 181 0
160 182 0
147 169 0
159 181 0
155 176 0
155 177 0
155 177 0
154 175 0
161 183 0
155 177 0
155 178 0
157 179 0
151 173 0
154 176 0
157 178 0
152 173 0
151 173 0
155 176 0
154 177 0
148 170 0
159 181 0
151 173 0
160 181 0
154 176 0
156 178 0
156 177 0
148 169 0
151 174 0
151 172 0
153 175 0
147 169 0
154 176 0
147 169 0
154 177 0
152 173 0
146 168 0
149 171 0
153 175 0
154 177 0
152 174 0
156 178 0
147 169 0
150 171 0
152 173 0
155 178 0
157 178 0
148 171 0
154 176 0
158 182 0
157 179 0
152 174 0
157 179 0
150 173 0
150 173 0
159 181 0
146 167 0
160 181 0
159 182 0
141 163 0
155 176 0
152 174 0
153 174 0
151 172 0
147 170 0
158 180 0
155 178 0
148 171 0
153 176 0
151 174 0
154 176 0
159 181 0
154 176 0
159 181 0
156 178 0
155 178 0
152 175 0
158 181 0
153 175 0
150 172 0
156 179 0
154 177 0
151 173 0
157 180 0
154 177 0
151 173 0
156 179 0
146 168 0
155 177 0
150 173 0
159 182 0
150 172 0
150 173 0
157 180 0
154 177 0
148 171 0
146 167 0
154 176 0
156 179 0
151 175 0
143 164 0
156 178 0
145 167 0
157 180 0
153 175 0
154 178 0
152 174 0
149 170 0
153 174 0
154 176 0
157 180 0
156 179 0
157 180 0
154 176 0
147 169 0
154 176 0
151 173 0
146 168 0
155 178 0
152 174 0
154 177 0
150 171 0
157 180 0
158 180 0
153 176 0
150 172 0
145 167 0
150 173 0
156 179 0
152 173 0
154 178 0
156 178 0
146 169 0
150 172 0
147 169 0
151 173 0
156 179 0
154 177 0
154 177 0
154 176 0
156 179 0
154 177 0
146 169 0
153 176 0
149 171 0
150 173 0
157 179 0
156 179 0
151 174 0
153 175 0
154 177 0
148 170 0
158 181 0
152 175 0
149 171 0
157 179 0
148 170 0
160 183 0
157 180 0
146 169 0
162 184 0
158 180 0
159 181 0
156 179 0
153 176 0
153 176 0
150 172 0
154 177 0
158 182 0
155 177 0
151 173 0
158 181 0
152 174 0
158 180 0
152 175 0
158 180 0
157 179 0
152 174 0
160 183 0
165 189 0
157 180 0
159 181 0
162 184 0
155 178 0
158 180 0
159 181 0
157 180 0
162 185 0
154 176 0
156 178 0
167 189 0
154 176 0
160 183 0
162 184 0
162 185 0
163 187 0
157 180 0
159 182 0
162 184 0
163 186 0
163 185 0
164 187 0
163 185 0
156 178 0
160 183 0
159 181 0
162 185 0
162 185 0
164 186 0
159 183 0
165 188 0
164 186 0
159 181 0
157 179 0
164 188 0
172 194 0
165 188 0
159 181 0
164 187 0
159 182 0
161 185 0
161 184 0
163 186 0
161 184 0
164 186 0
164 186 0
164 186 0
166 190 0
161 184 0
162 185 0
169 192 0
162 185 0
163 187 0
163 185 0
164 187 0
166 189 0
161 183 0
163 186 0
160 182 0
165 187 0
166 189 0
167 189 0
163 186 0
164 187 0
162 185 0
167 191 0
164 187 0
166 188 0
166 189 0
169 191 0
167 190 0
164 187 0
163 186 0
165 188 0
164 187 0
164 186 0
164 187 0
164 187 0
168 192 0
163 186 0
163 185 0
167 190 0
166 189 0
168 190 0
162 185 0
165 188 0
169 192 0
168 191 0
170 193 0
165 189 0
163 187 0
167 191 0
167 190 0
162 185 0
164 188 0
164 186 0
166 190 0
168 191 0
169 193 0
165 188 0
169 193 0
168 191 0
167 192 0
169 192 0
174 197 0
169 192 0
168 191 0
170 193 0
164 187 0
171 194 0
171 193 0
170 192 0
166 190 0
168 191 0
169 191 0
171 195 0
169 193 0
170 193 0
171 194 0
167 190 0
168 190 0
174 196 0
170 192 0
166 189 0
168 191 0
171 194 0
172 194 0
166 190 0
169 193 0
173 196 0
169 193 0
170 194 0
170 194 0
169 192 0
170 193 0
171 195 0
174 198 0
169 193 0
172 195 0
168 191 0
172 195 0
171 194 0
170 193 0
172 195 0
171 194 0
172 195 0
168 191 0
172 195 0
160 180 0
163 183 0
159 180 0
157 177 0
158 178 0
162 183 0
158 179 0
159 179 0
162 183 0
160 181 0
155 176 0
159 179 0
162 184 0
160 180 0
159 180 0
158 177 0
160 181 0
157 178 0
156 177 0
159 179 0
159 180 0
154 175 0
156 176 0
158 177 0
156 178 0
160 180 0
158 179 0
156 177 0
157 177 0
159 179 0
157 178 0
159 180 0
155 176 0
158 179 0
159 179 0
156 176 0
158 179 0
163 184 0
157 178 0
156 177 0
160 182 0
160 181 0
159 180 0
156 177 0
158 179 0
154 176 0
160 180 0
153 174 0
160 181 0
156 177 0
155 175 0
158 178 0
159 179 0
157 179 0
164 185 0
161 183 0
149 169 0
157 179 0
156 177 0
152 173 0
159 181 0
147 167 0
161 181 0
164 185 0
152 174 0
158 180 0
159 180 0
154 176 0
158 179 0
157 178 0
155 177 0
155 176 0
161 182 0
156 178 0
155 176 0
152 174 0
147 169 0
157 179 0
160 181 0
160 181 0
156 179 0
157 180 0
156 177 0
161 183 0
159 180 0
156 176 0
157 179 0
149 170 0
159 181 0
154 177 0
156 178 0
150 171 0
153 175 0
162 184 0
154 176 0
152 174 0
155 177 0
150 172 0
156 178 0
151 173 0
151 173 0
158 180 0
150 171 0
145 167 0
146 167 0
157 179 0
158 180 0
152 174 0
156 178 0
156 178 0
154 176 0
154 177 0
148 170 0
162 184 0
157 179 0
156 178 0
153 176 0
153 176 0
157 179 0
144 166 0
161 184 0
153 175 0
148 170 0
156 179 0
152 175 0
158 181 0
157 180 0
153 174 0
144 165 0
154 176 0
149 172 0
155 178 0
158 179 0
152 173 0
156 178 0
147 169 0
147 169 0
154 177 0
150 172 0
152 175 0
147 169 0
153 174 0
147 169 0
154 176 0
157 179 0
154 176 0
147 169 0
150 171 0
151 175 0
153 175 0
150 172 0
152 175 0
156 178 0
150 172 0
153 176 0
159 182 0
143 165 0
150 172 0
150 173 0
148 170 0
152 175 0
157 180 0
157 179 0
155 177 0
157 180 0
154 176 0
150 172 0
148 171 0
146 168 0
154 178 0
148 171 0
155 176 0
155 177 0
159 181 0
149 171 0
158 179 0
153 175 0
152 174 0
149 172 0
161 183 0
153 175 0
156 178 0
155 177 0
155 177 0
151 172 0
155 178 0
148 171 0
160 182 0
150 173 0
146 168 0
156 179 0
156 178 0
150 173 0
151 174 0
149 171 0
152 175 0
162 185 0
148 171 0
152 174 0
150 171 0
154 176 0
150 172 0
157 180 0
154 177 0
156 179 0
157 179 0
149 172 0
151 172 0
148 171 0
149 171 0
144 167 0
152 173 0
159 182 0
152 174 0
152 174 0
155 178 0
156 178 0
158 180 0
160 182 0
152 176 0
155 176 0
151 173 0
149 172 0
156 179 0
154 178 0
149 172 0
148 171 0
152 173 0
149 170 0
154 177 0
158 181 0
153 175 0
147 169 0
153 175 0
156 178 0
161 184 0
158 180 0
156 180 0
159 181 0
149 171 0
153 176 0
157 180 0
158 180 0
153 175 0
154 177 0
161 184 0
154 177 0
163 184 0
158 180 0
160 182 0
159 182 0
154 177 0
159 182 0
157 180 0
156 179 0
156 179 0
151 173 0
155 177 0
152 173 0
163 186 0
157 179 0
161 184 0
157 180 0
158 181 0
167 189 0
159 182 0
153 175 0
163 185 0
161 183 0
159 183 0
160 182 0
163 185 0
165 187 0
154 177 0
157 180 0
161 183 0
158 181 0
162 185 0
158 180 0
156 180 0
162 185 0
159 182 0
162 184 0
157 180 0
160 184 0
159 182 0
161 183 0
161 184 0
162 185 0
161 184 0
160 183 0
164 185 0
164 186 0
162 184 0
162 185 0
165 188 0
162 184 0
165 187 0
165 188 0
160 182 0
163 186 0
164 187 0
167 190 0
169 192 0
168 191 0
167 189 0
160 182 0
165 186 0
166 189 0
159 182 0
160 183 0
165 187 0
163 185 0
168 191 0
166 188 0
158 180 0
166 188 0
166 188 0
167 190 0
167 190 0
164 188 0
164 187 0
162 185 0
170 192 0
165 188 0
165 188 0
167 190 0
170 193 0
165 188 0
165 188 0
163 186 0
167 190 0
163 185 0
169 191 0
164 187 0
168 192 0
170 192 0
163 185 0
173 195 0
165 187 0
168 191 0
165 188 0
169 192 0
171 194 0
165 189 0
169 192 0
172 194 0
170 193 0
167 189 0
168 191 0
162 185 0
164 186 0
168 190 0
168 191 0
165 188 0
168 190 0
166 189 0
168 191 0
170 193 0
167 191 0
170 193 0
167 189 0
168 191 0
172 195 0
168 191 0
170 194 0
170 194 0
171 194 0
171 194 0
173 195 0
170 193 0
173 197 0
169 192 0
168 191 0
171 194 0
169 192 0
169 191 0
169 191 0
170 193 0
167 190 0
161 185 0
171 195 0
171 193 0
172 195 0
168 191 0
171 194 0
171 195 0
169 193 0
170 193 0
168 192 0
172 196 0
171 193 0
169 192 0
174 197 0
171 194 0
172 195 0
173 196 0
173 196 0
173 196 0
170 193 0
161 181 0
156 175 0
152 173 0
163 184 0
155 175 0
162 182 0
157 178 0
164 184 0
155 176 0
158 179 0
160 181 0
158 178 0
160 181 0
160 181 0
154 175 0
160 180 0
160 181 0
161 182 0
160 181 0
159 180 0
159 180 0
154 175 0
159 179 0
156 176 0
158 179 0
163 184 0
155 175 0
149 170 0
156 177 0
161 183 0
154 174 0
161 182 0
162 184 0
158 178 0
155 176 0
165 185 0
158 179 0
161 183 0
155 175 0
157 178 0
158 180 0
155 176 0
156 177 0
157 177 0
155 176 0
160 181 0
153 174 0
160 182 0
160 183 0
154 177 0
155 176 0
156 177 0
152 172 0
156 176 0
155 178 0
159 180 0
152 174 0
148 169 0
158 180 0
154 175 0
157 179 0
156 178 0
155 178 0
161 182 0
158 180 0
154 175 0
155 176 0
153 174 0
156 177 0
154 175 0
157 179 0
156 177 0
158 180 0
158 179 0
159 180 0
152 173 0
147 168 0
151 172 0
159 181 0
157 177 0
159 181 0
158 181 0
155 176 0
155 177 0
148 169 0
151 173 0
151 172 0
151 173 0
149 171 0
157 179 0
160 182 0
158 180 0
157 178 0
158 179 0
161 182 0
152 175 0
162 185 0
152 172 0
155 178 0
149 171 0
155 177 0
144 166 0
157 180 0
156 178 0
155 177 0
158 180 0
153 175 0
152 175 0
153 175 0
152 174 0
156 178 0
146 168 0
155 177 0
150 171 0
151 173 0
151 172 0
149 171 0
152 175 0
153 176 0
152 174 0
150 171 0
150 173 0
155 176 0
161 183 0
157 179 0
146 167 0
156 177 0
153 175 0
151 173 0
150 173 0
158 182 0
149 172 0
152 176 0
153 175 0
149 170 0
155 177 0
152 175 0
154 176 0
158 180 0
157 180 0
155 177 0
158 180 0
149 170 0
153 176 0
150 174 0
155 177 0
158 180 0
153 177 0
148 171 0
156 178 0
147 169 0
153 176 0
148 170 0
156 179 0
146 169 0
158 181 0
146 168 0
154 177 0
153 176 0
156 180 0
148 171 0
145 167 0
150 171 0
150 172 0
152 175 0
156 179 0
150 172 0
159 181 0
149 171 0
147 170 0
149 172 0
150 171 0
158 180 0
151 174 0
149 171 0
153 176 0
145 167 0
160 184 0
154 177 0
157 179 0
156 178 0
156 178 0
157 180 0
155 178 0
155 178 0
157 180 0
157 180 0
155 178 0
153 175 0
156 178 0
148 169 0
152 175 0
161 184 0
144 166 0
158 181 0
154 176 0
148 171 0
155 178 0
157 179 0
157 180 0
157 179 0
159 183 0
150 174 0
157 179 0
150 171 0
161 184 0
152 174 0
152 175 0
147 169 0
151 173 0
152 174 0
159 182 0
153 176 0
148 171 0
150 172 0
157 179 0
154 176 0
155 179 0
157 179 0
154 176 0
152 175 0
151 174 0
152 176 0
157 180 0
155 177 0
154 176 0
152 175 0
154 177 0
155 179 0
157 180 0
152 175 0
157 179 0
156 178 0
155 178 0
150 172 0
153 175 0
156 180 0
153 176 0
163 185 0
164 187 0
157 179 0
161 184 0
164 187 0
154 177 0
152 176 0
158 182 0
155 178 0
155 178 0
152 175 0
150 172 0
157 179 0
156 179 0
159 182 0
161 184 0
154 176 0
154 176 0
154 177 0
158 181 0
164 186 0
160 183 0
157 180 0
161 184 0
161 183 0
161 183 0
162 186 0
159 181 0
152 175 0
164 186 0
156 179 0
165 188 0
161 184 0
163 186 0
161 184 0
157 179 0
160 183 0
160 183 0
162 184 0
169 191 0
157 180 0
157 179 0
160 182 0
156 179 0
162 185 0
163 186 0
156 179 0
163 185 0
161 184 0
163 187 0
160 182 0
161 183 0
164 187 0
164 187 0
164 187 0
159 181 0
164 186 0
156 179 0
154 177 0
162 185 0
163 185 0
164 186 0
160 182 0
164 187 0
165 188 0
164 187 0
166 188 0
165 187 0
167 190 0
161 184 0
160 183 0
165 188 0
164 187 0
168 191 0
164 187 0
167 190 0
167 189 0
162 185 0
165 188 0
167 189 0
161 184 0
166 188 0
161 184 0
169 192 0
168 191 0
164 187 0
165 187 0
165 187 0
163 187 0
164 186 0
167 190 0
163 187 0
166 189 0
167 190 0
170 192 0
164 187 0
169 191 0
165 188 0
161 184 0
161 185 0
167 190 0
168 191 0
165 187 0
169 192 0
166 189 0
169 191 0
167 190 0
165 188 0
171 194 0
162 186 0
167 191 0
169 192 0
168 191 0
164 187 0
168 192 0
171 194 0
167 189 0
164 187 0
169 192 0
168 192 0
170 193 0
165 188 0
165 188 0
168 191 0
169 192 0
169 192 0
170 192 0
171 194 0
169 192 0
168 192 0
170 193 0
164 188 0
168 191 0
172 195 0
170 194 0
173 196 0
170 194 0
171 194 0
170 193 0
170 193 0
172 195 0
166 189 0
169 192 0
169 192 0
169 193 0
170 193 0
171 194 0
169 191 0
173 196 0
170 194 0
171 194 0
172 195 0
170 192 0
173 197 0
172 195 0
170 194 0
167 190 0
170 194 0
172 195 0
170 193 0
169 191 0
169 192 0
160 181 0
163 183 0
157 177 0
163 184 0
161 181 0
158 179 0
157 177 0
163 183 0
160 181 0
163 184 0
159 180 0
160 181 0
163 183 0
160 180 0
159 180 0
156 177 0
156 177 0
160 181 0
163 184 0
152 173 0
156 177 0
155 175 0
161 182 0
160 181 0
157 177 0
155 176 0
159 179 0
155 176 0
155 175 0
157 177 0
161 181 0
157 178 0
154 175 0
158 179 0
159 180 0
160 180 0
159 180 0
162 183 0
157 178 0
156 177 0
166 186 0
160 181 0
160 180 0
161 183 0
153 174 0
160 182 0
151 172 0
159 180 0
158 179 0
159 180 0
151 172 0
153 174 0
151 172 0
161 182 0
155 176 0
149 170 0
151 172 0
157 179 0
156 177 0
158 179 0
158 180 0
153 175 0
158 180 0
162 185 0
160 182 0
157 178 0
151 173 0
157 179 0
155 176 0
158 180 0
152 172 0
157 180 0
154 176 0
158 179 0
156 178 0
148 170 0
153 175 0
150 172 0
155 177 0
163 185 0
158 180 0
158 180 0
155 176 0
148 170 0
151 175 0
157 178 0
154 175 0
155 176 0
158 180 0
154 175 0
144 165 0
158 180 0
153 175 0
157 179 0
158 181 0
153 176 0
154 176 0
153 173 0
155 176 0
150 171 0
150 173 0
153 176 0
152 174 0
152 173 0
157 180 0
154 176 0
155 177 0
158 179 0
155 177 0
156 178 0
148 171 0
151 173 0
155 178 0
159 181 0
161 183 0
154 177 0
156 178 0
156 179 0
147 169 0
151 173 0
142 164 0
159 182 0
155 177 0
151 173 0
157 180 0
151 174 0
157 179 0
156 179 0
154 175 0
152 173 0
158 181 0
155 178 0
155 177 0
154 176 0
155 178 0
155 177 0
152 174 0
149 172 0
158 181 0
156 180 0
157 179 0
156 179 0
156 178 0
156 178 0
158 180 0
150 172 0
151 174 0
156 178 0
147 169 0
153 176 0
155 178 0
154 176 0
145 167 0
153 175 0
153 176 0
157 178 0
155 178 0
155 177 0
152 175 0
158 180 0
152 174 0
150 173 0
146 168 0
152 175 0
155 178 0
145 168 0
153 176 0
154 177 0
155 177 0
151 173 0
154 178 0
151 174 0
159 181 0
147 170 0
151 174 0
146 168 0
156 178 0
152 175 0
151 174 0
154 177 0
154 176 0
151 172 0
149 172 0
144 166 0
151 174 0
153 176 0
154 176 0
154 177 0
155 177 0
148 171 0
154 177 0
150 173 0
153 175 0
151 174 0
154 177 0
160 183 0
144 167 0
152 174 0
157 179 0
148 169 0
160 183 0
154 176 0
155 177 0
155 178 0
154 176 0
148 172 0
154 177 0
154 176 0
154 176 0
156 177 0
157 179 0
150 173 0
154 175 0
151 174 0
156 178 0
156 178 0
152 175 0
153 176 0
159 181 0
156 178 0
151 173 0
153 175 0
156 178 0
160 181 0
158 181 0
157 179 0
151 174 0
150 172 0
157 179 0
152 174 0
160 182 0
154 176 0
153 175 0
158 182 0
157 180 0
163 186 0
151 173 0
156 177 0
156 178 0
151 173 0
158 181 0
154 176 0
158 180 0
165 188 0
156 178 0
153 175 0
161 183 0
153 177 0
165 187 0
161 184 0
156 179 0
158 181 0
157 179 0
159 181 0
160 183 0
153 176 0
160 182 0
159 180 0
160 183 0
151 173 0
162 184 0
161 184 0
158 181 0
159 182 0
157 180 0
158 181 0
154 176 0
158 180 0
158 181 0
165 187 0
160 182 0
162 184 0
148 170 0
156 179 0
160 183 0
161 185 0
156 178 0
164 185 0
161 183 0
161 183 0
162 185 0
157 180 0
160 183 0
156 179 0
162 185 0
163 186 0
163 186 0
163 185 0
157 180 0
158 180 0
164 187 0
159 182 0
160 184 0
160 184 0
163 186 0
163 185 0
166 187 0
164 188 0
163 186 0
163 185 0
156 179 0
163 185 0
166 189 0
166 189 0
165 189 0
155 177 0
165 187 0
161 184 0
165 187 0
166 189 0
164 186 0
166 188 0
165 188 0
163 186 0
160 183 0
163 186 0
165 187 0
167 190 0
159 183 0
171 194 0
163 185 0
165 188 0
162 184 0
168 190 0
163 185 0
162 185 0
163 186 0
165 188 0
163 186 0
163 186 0
158 181 0
162 185 0
165 188 0
164 187 0
160 183 0
169 191 0
167 189 0
165 188 0
169 192 0
164 187 0
167 190 0
164 188 0
169 191 0
161 184 0
165 188 0
166 189 0
167 191 0
166 188 0
167 190 0
164 186 0
167 189 0
165 188 0
168 191 0
166 189 0
166 189 0
169 192 0
169 192 0
167 190 0
169 193 0
171 193 0
168 192 0
170 193 0
169 192 0
169 192 0
170 193 0
169 192 0
168 191 0
166 190 0
171 194 0
171 194 0
166 190 0
172 195 0
169 193 0
165 188 0
166 190 0
170 193 0
168 191 0
168 192 0
171 194 0
173 196 0
167 190 0
167 190 0
169 192 0
170 193 0
172 196 0
171 195 0
171 194 0
172 195 0
169 192 0
172 195 0
175 198 0
169 192 0
172 195 0
173 196 0
172 196 0
169 193 0
168 191 0
171 195 0
173 196 0
174 197 0
166 186 0
162 182 0
154 175 0
157 178 0
165 185 0
160 179 0
160 181 0
160 181 0
155 177 0
161 181 0
160 183 0
158 177 0
158 179 0
163 184 0
158 179 0
161 182 0
160 181 0
164 185 0
157 178 0
158 180 0
160 182 0
159 179 0
160 180 0
151 172 0
160 181 0
157 179 0
162 182 0
157 178 0
160 181 0
157 178 0
161 182 0
154 175 0
155 176 0
157 179 0
161 182 0
158 180 0
156 178 0
155 177 0
159 180 0
159 181 0
158 180 0
157 179 0
154 176 0
152 172 0
149 170 0
157 178 0
156 178 0
158 179 0
156 176 0
157 179 0
164 185 0
160 181 0
156 177 0
157 178 0
156 176 0
161 183 0
160 181 0
158 180 0
156 177 0
155 176 0
159 181 0
157 178 0
154 176 0
156 177 0
154 176 0
156 178 0
157 178 0
153 174 0
157 178 0
156 177 0
159 180 0
157 179 0
155 178 0
155 178 0
149 171 0
152 174 0
155 176 0
156 178 0
159 181 0
154 176 0
159 180 0
155 178 0
151 172 0
158 180 0
158 180 0
156 177 0
147 168 0
159 181 0
157 179 0
160 182 0
161 184 0
156 179 0
157 178 0
153 175 0
158 180 0
148 170 0
152 174 0
161 183 0
154 176 0
155 177 0
156 179 0
158 180 0
155 177 0
158 179 0
157 178 0
156 178 0
155 177 0
160 182 0
152 174 0
157 180 0
159 180 0
158 180 0
154 177 0
152 175 0
159 181 0
155 178 0
159 182 0
155 179 0
144 166 0
155 178 0
152 175 0
150 172 0
149 170 0
156 179 0
153 176 0
155 177 0
155 176 0
148 171 0
145 169 0
149 171 0
156 179 0
152 174 0
156 178 0
155 177 0
149 171 0
155 177 0
149 171 0
156 179 0
149 171 0
150 173 0
157 179 0
153 174 0
154 175 0
153 176 0
154 176 0
153 175 0
153 175 0
151 173 0
156 178 0
150 173 0
150 173 0
151 174 0
151 173 0
160 182 0
155 178 0
151 173 0
150 173 0
156 178 0
155 177 0
144 165 0
154 177 0
151 173 0
152 174 0
152 175 0
149 172 0
149 172 0
150 171 0
154 177 0
154 175 0
151 174 0
155 177 0
151 175 0
152 174 0
148 170 0
147 170 0
158 181 0
155 178 0
156 179 0
153 175 0
145 167 0
157 179 0
151 173 0
160 181 0
151 173 0
150 172 0
153 176 0
156 178 0
151 174 0
151 173 0
156 179 0
153 175 0
149 171 0
158 181 0
149 171 0
159 181 0
150 173 0
157 179 0
153 175 0
154 176 0
155 177 0
157 179 0
160 183 0
149 171 0
153 176 0
149 170 0
162 184 0
159 182 0
153 177 0
153 175 0
152 174 0
156 179 0
152 174 0
156 179 0
159 181 0
157 179 0
150 172 0
154 177 0
155 177 0
160 184 0
153 176 0
153 176 0
158 181 0
159 181 0
157 180 0
156 179 0
156 179 0
150 172 0
152 175 0
160 183 0
153 176 0
159 182 0
155 178 0
155 178 0
157 179 0
156 179 0
157 179 0
151 173 0
152 174 0
149 172 0
158 181 0
156 179 0
154 176 0
157 180 0
163 186 0
153 176 0
154 177 0
160 183 0
154 176 0
157 179 0
160 182 0
162 185 0
158 180 0
162 185 0
154 177 0
157 180 0
159 182 0
158 182 0
159 182 0
153 175 0
160 183 0
162 185 0
161 184 0
157 180 0
162 185 0
154 176 0
158 182 0
164 186 0
159 182 0
160 183 0
159 181 0
158 180 0
163 186 0
157 180 0
162 185 0
154 176 0
163 186 0
157 180 0
165 187 0
161 184 0
161 183 0
164 186 0
164 186 0
160 182 0
157 179 0
154 176 0
167 189 0
161 183 0
162 184 0
152 174 0
161 183 0
165 187 0
163 186 0
164 186 0
165 188 0
165 188 0
158 180 0
162 186 0
162 185 0
161 184 0
163 185 0
156 179 0
160 183 0
162 185 0
160 183 0
169 192 0
163 186 0
161 184 0
165 187 0
165 188 0
159 182 0
166 188 0
163 186 0
167 190 0
166 189 0
162 185 0
167 189 0
163 186 0
162 185 0
168 191 0
163 186 0
164 188 0
159 182 0
162 184 0
170 192 0
162 185 0
168 191 0
168 191 0
156 180 0
166 188 0
160 183 0
165 188 0
163 186 0
168 191 0
164 187 0
169 192 0
163 185 0
166 189 0
164 187 0
164 187 0
167 190 0
166 189 0
167 190 0
169 191 0
166 189 0
166 190 0
169 192 0
168 191 0
162 185 0
162 185 0
168 190 0
167 191 0
166 189 0
166 189 0
170 193 0
166 189 0
169 191 0
169 193 0
165 188 0
169 191 0
171 194 0
172 195 0
170 194 0
167 190 0
173 196 0
172 194 0
170 193 0
165 188 0
170 193 0
170 193 0
171 194 0
170 192 0
167 191 0
170 194 0
167 191 0
166 189 0
167 191 0
171 193 0
171 194 0
169 192 0
173 196 0
169 192 0
171 194 0
170 193 0
169 192 0
170 193 0
174 197 0
172 195 0
168 191 0
170 193 0
169 192 0
172 196 0
173 196 0
173 196 0
175 197 0
173 196 0
174 197 0
171 194 0
171 194 0
171 194 0
167 190 0
158 179 0
160 181 0
159 180 0
158 179 0
157 177 0
159 180 0
158 178 0
163 183 0
162 182 0
162 183 0
162 182 0
157 177 0
156 177 0
162 183 0
158 179 0
159 181 0
157 178 0
156 178 0
160 180 0
159 179 0
158 180 0
156 177 0
164 185 0
161 182 0
159 180 0
160 181 0
163 184 0
155 176 0
157 177 0
153 175 0
159 180 0
161 182 0
159 179 0
158 179 0
160 181 0
155 177 0
156 178 0
155 176 0
158 178 0
164 186 0
159 181 0
159 179 0
157 179 0
157 178 0
160 181 0
162 183 0
157 179 0
159 180 0
154 176 0
160 182 0
155 177 0
156 178 0
155 176 0
156 178 0
156 177 0
149 171 0
161 183 0
154 176 0
151 172 0
156 178 0
157 179 0
154 177 0
161 182 0
160 180 0
151 175 0
157 179 0
164 185 0
154 176 0
149 171 0
161 182 0
151 172 0
159 181 0
159 182 0
153 175 0
159 179 0
160 181 0
155 176 0
158 180 0
154 175 0
156 178 0
158 180 0
153 175 0
155 177 0
156 178 0
160 182 0
154 175 0
150 172 0
152 175 0
149 172 0
155 176 0
158 179 0
159 181 0
154 176 0
147 169 0
156 179 0
156 178 0
152 173 0
154 176 0
151 172 0
158 180 0
155 177 0
160 183 0
149 171 0
157 179 0
157 179 0
157 178 0
149 171 0
162 185 0
158 180 0
153 176 0
153 175 0
151 174 0
155 177 0
157 179 0
152 174 0
157 179 0
157 180 0
154 177 0
156 179 0
155 177 0
152 175 0
154 176 0
158 180 0
153 175 0
156 178 0
156 178 0
162 184 0
150 172 0
157 181 0
160 182 0
154 177 0
156 179 0
150 172 0
159 181 0
157 179 0
150 172 0
158 179 0
150 172 0
158 181 0
151 173 0
157 179 0
152 175 0
153 175 0
154 177 0
151 174 0
153 175 0
156 179 0
153 175 0
155 177 0
150 172 0
146 168 0
150 173 0
152 175 0
153 176 0
152 174 0
153 176 0
156 177 0
155 178 0
149 172 0
153 176 0
156 179 0
160 182 0
151 174 0
153 175 0
155 177 0
155 178 0
156 179 0
150 173 0
144 166 0
152 175 0
148 171 0
157 180 0
161 184 0
155 177 0
151 174 0
153 175 0
157 179 0
153 175 0
151 173 0
152 174 0
150 174 0
153 176 0
160 182 0
159 181 0
155 178 0
153 175 0
150 172 0
156 179 0
155 177 0
158 181 0
156 178 0
155 177 0
150 173 0
152 174 0
155 177 0
152 175 0
157 180 0
161 184 0
155 178 0
157 179 0
156 178 0
150 172 0
157 179 0
152 174 0
156 178 0
148 171 0
159 181 0
153 176 0
150 172 0
158 182 0
157 180 0
161 183 0
155 178 0
154 177 0
156 179 0
154 177 0
159 181 0
157 179 0
161 184 0
157 180 0
154 177 0
157 181 0
149 170 0
155 176 0
154 178 0
158 181 0
158 181 0
157 179 0
156 178 0
149 172 0
157 179 0
160 183 0
155 177 0
154 177 0
155 177 0
156 178 0
159 181 0
157 180 0
153 176 0
153 176 0
156 179 0
159 181 0
154 176 0
157 179 0
160 182 0
158 181 0
155 178 0
164 186 0
166 189 0
156 178 0
158 180 0
159 182 0
158 180 0
162 185 0
154 176 0
157 180 0
152 175 0
152 175 0
159 182 0
163 185 0
159 182 0
150 171 0
163 186 0
162 185 0
156 179 0
161 183 0
162 185 0
159 182 0
162 185 0
158 181 0
157 180 0
158 180 0
163 186 0
163 186 0
160 182 0
157 180 0
161 184 0
159 183 0
159 181 0
159 183 0
167 190 0
155 179 0
160 183 0
166 188 0
166 189 0
160 183 0
162 184 0
160 183 0
156 179 0
165 187 0
161 184 0
169 191 0
161 184 0
161 184 0
162 185 0
161 184 0
160 183 0
163 185 0
164 186 0
164 187 0
161 184 0
159 182 0
160 184 0
159 182 0
166 188 0
164 186 0
168 191 0
164 187 0
167 190 0
159 182 0
169 191 0
164 187 0
166 189 0
158 180 0
165 187 0
168 191 0
159 183 0
162 185 0
163 185 0
167 190 0
158 181 0
166 189 0
161 185 0
162 185 0
165 188 0
168 191 0
167 189 0
170 192 0
165 189 0
167 190 0
163 186 0
164 187 0
167 190 0
166 190 0
164 187 0
169 192 0
169 192 0
168 191 0
162 185 0
165 189 0
166 189 0
166 189 0
172 195 0
167 189 0
170 193 0
170 192 0
167 190 0
166 189 0
168 191 0
166 189 0
161 185 0
168 191 0
169 191 0
167 190 0
165 188 0
168 192 0
165 188 0
167 191 0
169 192 0
165 188 0
169 192 0
169 192 0
170 192 0
168 192 0
172 195 0
170 193 0
168 192 0
171 193 0
172 195 0
170 193 0
169 192 0
172 195 0
168 190 0
172 195 0
171 194 0
170 193 0
170 193 0
171 194 0
171 194 0
170 192 0
171 195 0
168 191 0
166 190 0
169 192 0
174 196 0
168 191 0
172 195 0
168 191 0
173 197 0
168 190 0
169 193 0
171 194 0
173 196 0
173 196 0
174 197 0
173 196 0
170 194 0
171 195 0
169 192 0
174 197 0
157 178 0
166 186 0
160 180 0
161 182 0
162 183 0
157 178 0
160 181 0
162 182 0
163 184 0
162 183 0
156 177 0
160 182 0
159 181 0
163 184 0
160 180 0
158 179 0
159 180 0
159 180 0
159 180 0
162 184 0
152 172 0
156 176 0
156 178 0
158 179 0
156 176 0
153 175 0
161 182 0
163 184 0
159 180 0
159 180 0
159 181 0
163 185 0
157 178 0
164 186 0
157 178 0
160 181 0
161 182 0
155 176 0
154 175 0
160 182 0
156 178 0
154 176 0
155 176 0
157 178 0
153 175 0
156 176 0
163 183 0
160 182 0
158 180 0
157 179 0
155 177 0
157 178 0
156 178 0
158 178 0
156 178 0
163 185 0
158 180 0
157 179 0
155 177 0
162 184 0
156 178 0
161 185 0
157 178 0
157 180 0
156 179 0
155 176 0
158 179 0
143 165 0
160 183 0
153 174 0
159 180 0
156 178 0
155 178 0
156 178 0
164 185 0
154 176 0
157 179 0
156 178 0
158 180 0
157 179 0
154 176 0
158 179 0
158 180 0
159 181 0
155 178 0
157 179 0
155 178 0
148 170 0
159 180 0
153 175 0
152 173 0
154 175 0
153 174 0
152 175 0
142 162 0
158 181 0
154 176 0
150 173 0
154 176 0
158 179 0
160 181 0
149 171 0
158 180 0
155 176 0
158 181 0
158 180 0
153 175 0
161 183 0
154 176 0
157 178 0
148 170 0
159 181 0
156 178 0
155 177 0
153 175 0
158 181 0
159 182 0
160 182 0
156 178 0
153 176 0
152 174 0
149 173 0
154 176 0
153 176 0
156 178 0
153 176 0
151 174 0
149 170 0
154 176 0
155 177 0
152 175 0
159 183 0
157 179 0
154 176 0
149 171 0
160 182 0
154 177 0
149 171 0
152 174 0
152 174 0
155 177 0
156 178 0
154 176 0
161 184 0
158 181 0
155 177 0
162 183 0
155 177 0
158 180 0
148 170 0
156 179 0
158 180 0
156 178 0
160 182 0
154 176 0
156 178 0
152 175 0
151 173 0
146 169 0
155 177 0
150 173 0
149 173 0
153 176 0
152 175 0
157 180 0
153 176 0
157 180 0
151 174 0
151 174 0
148 171 0
154 177 0
155 178 0
155 178 0
150 172 0
157 180 0
152 174 0
148 170 0
151 174 0
162 184 0
155 178 0
150 172 0
154 177 0
155 177 0
156 180 0
149 171 0
155 177 0
154 177 0
154 176 0
158 180 0
145 167 0
157 180 0
155 178 0
152 174 0
152 175 0
149 172 0
146 169 0
155 177 0
155 178 0
151 174 0
153 175 0
153 176 0
150 172 0
157 178 0
152 175 0
153 177 0
155 178 0
159 183 0
158 181 0
144 167 0
152 173 0
155 178 0
162 184 0
161 184 0
155 177 0
154 175 0
150 173 0
157 179 0
151 173 0
162 185 0
152 174 0
157 180 0
157 179 0
150 172 0
148 170 0
156 178 0
157 180 0
154 177 0
155 178 0
149 172 0
158 180 0
163 186 0
156 178 0
159 182 0
160 182 0
159 182 0
156 179 0
153 177 0
159 182 0
148 170 0
155 177 0
156 180 0
158 180 0
158 180 0
160 183 0
153 175 0
161 184 0
149 170 0
157 180 0
158 180 0
157 180 0
160 182 0
155 178 0
156 178 0
154 178 0
163 185 0
158 182 0
157 179 0
162 184 0
161 183 0
161 184 0
154 177 0
152 174 0
163 185 0
164 187 0
158 181 0
161 184 0
161 183 0
165 188 0
163 186 0
157 179 0
159 181 0
160 182 0
162 185 0
160 183 0
156 179 0
160 182 0
163 186 0
160 183 0
156 179 0
160 183 0
160 182 0
159 182 0
158 181 0
163 186 0
164 187 0
164 187 0
160 183 0
163 185 0
160 183 0
163 186 0
161 183 0
171 193 0
163 186 0
161 184 0
159 182 0
164 187 0
165 188 0
158 181 0
167 189 0
160 183 0
164 186 0
168 190 0
168 191 0
154 177 0
160 183 0
164 188 0
166 189 0
161 184 0
165 187 0
167 190 0
171 193 0
166 190 0
165 188 0
167 190 0
166 190 0
164 188 0
167 189 0
163 187 0
164 186 0
165 189 0
164 187 0
160 183 0
166 189 0
165 188 0
166 188 0
171 194 0
167 189 0
168 191 0
164 186 0
170 193 0
168 190 0
167 191 0
168 191 0
168 192 0
167 189 0
165 188 0
165 188 0
172 195 0
167 190 0
163 186 0
164 186 0
169 192 0
174 196 0
167 190 0
162 185 0
168 191 0
168 191 0
164 187 0
168 191 0
165 188 0
165 188 0
172 195 0
168 191 0
170 193 0
167 190 0
167 191 0
165 188 0
167 189 0
161 185 0
172 195 0
172 196 0
164 187 0
169 193 0
167 191 0
170 193 0
172 195 0
166 188 0
167 190 0
166 190 0
170 193 0
168 191 0
171 194 0
167 190 0
165 189 0
164 187 0
168 191 0
161 184 0
170 193 0
173 195 0
168 191 0
168 191 0
170 193 0
171 193 0
170 193 0
172 196 0
171 194 0
169 193 0
175 198 0
172 195 0
173 196 0
170 192 0
173 196 0
171 194 0
170 193 0
169 193 0
170 194 0
169 193 0
163 186 0
171 194 0
171 194 0
160 181 0
160 181 0
159 180 0
163 184 0
162 183 0
162 182 0
156 176 0
158 179 0
162 184 0
152 171 0
158 178 0
161 183 0
158 179 0
160 181 0
161 181 0
156 177 0
162 184 0
160 181 0
160 181 0
163 184 0
161 183 0
158 180 0
158 179 0
158 178 0
161 182 0
154 174 0
162 183 0
160 181 0
157 179 0
158 179 0
159 180 0
157 179 0
157 179 0
158 180 0
159 180 0
161 183 0
163 185 0
158 179 0
153 174 0
157 179 0
158 179 0
154 175 0
160 182 0
156 177 0
158 180 0
158 179 0
155 178 0
156 178 0
154 175 0
155 178 0
163 184 0
164 186 0
157 179 0
159 181 0
158 180 0
155 178 0
159 180 0
156 178 0
155 176 0
162 184 0
161 182 0
161 184 0
159 180 0
154 176 0
157 178 0
150 171 0
156 178 0
154 176 0
155 176 0
160 181 0
152 172 0
157 179 0
158 180 0
150 172 0
154 176 0
160 181 0
153 176 0
158 180 0
152 174 0
157 180 0
153 176 0
152 174 0
155 177 0
156 178 0
159 182 0
150 173 0
155 177 0
157 178 0
160 181 0
148 170 0
155 176 0
153 176 0
156 178 0
158 181 0
155 177 0
161 183 0
156 179 0
158 181 0
150 172 0
154 175 0
159 182 0
156 178 0
156 178 0
152 174 0
156 179 0
161 183 0
159 181 0
155 178 0
155 178 0
162 185 0
159 181 0
161 183 0
156 179 0
156 178 0
150 172 0
158 182 0
153 176 0
157 178 0
161 182 0
149 172 0
155 178 0
160 183 0
148 170 0
159 181 0
151 174 0
154 176 0
150 172 0
158 180 0
151 173 0
155 178 0
153 176 0
153 176 0
157 179 0
150 172 0
160 182 0
155 177 0
157 179 0
151 174 0
151 172 0
156 179 0
156 179 0
159 181 0
155 178 0
154 177 0
158 181 0
150 172 0
153 176 0
151 174 0
154 175 0
157 179 0
153 176 0
162 185 0
152 174 0
155 177 0
150 172 0
156 178 0
149 173 0
153 176 0
151 173 0
158 181 0
150 173 0
154 177 0
153 176 0
160 182 0
154 176 0
157 179 0
148 171 0
154 177 0
158 181 0
153 175 0
159 181 0
161 183 0
156 178 0
160 182 0
148 171 0
155 178 0
152 173 0
150 173 0
156 179 0
156 178 0
154 177 0
158 180 0
154 176 0
154 177 0
146 169 0
154 175 0
153 176 0
152 175 0
150 171 0
152 175 0
153 176 0
155 177 0
151 173 0
148 170 0
158 181 0
154 176 0
152 175 0
154 177 0
152 174 0
151 173 0
162 186 0
159 181 0
148 170 0
155 178 0
157 180 0
152 175 0
154 177 0
147 169 0
151 174 0
160 184 0
154 177 0
157 180 0
150 173 0
161 184 0
155 178 0
150 172 0
158 180 0
156 179 0
153 176 0
151 173 0
151 174 0
163 185 0
155 178 0
154 177 0
155 177 0
152 175 0
156 178 0
153 176 0
154 176 0
151 175 0
148 171 0
157 179 0
161 183 0
148 170 0
162 184 0
152 174 0
153 175 0
161 184 0
157 180 0
158 181 0
159 181 0
159 182 0
153 175 0
150 172 0
159 182 0
156 180 0
157 180 0
156 179 0
162 184 0
156 179 0
159 182 0
161 183 0
155 179 0
155 178 0
161 183 0
163 186 0
157 179 0
155 178 0
161 184 0
158 180 0
159 182 0
158 181 0
155 179 0
156 178 0
159 181 0
161 183 0
160 183 0
155 178 0
166 189 0
159 181 0
166 187 0
154 177 0
158 182 0
160 182 0
160 182 0
163 186 0
161 184 0
157 179 0
158 181 0
160 183 0
159 182 0
157 180 0
165 187 0
158 181 0
161 185 0
158 180 0
161 183 0
161 185 0
164 187 0
165 189 0
165 188 0
161 183 0
163 185 0
159 182 0
159 182 0
168 190 0
160 183 0
159 182 0
163 186 0
168 190 0
166 189 0
163 187 0
167 190 0
159 183 0
164 187 0
161 184 0
158 180 0
160 182 0
160 183 0
160 183 0
166 189 0
164 187 0
165 188 0
165 187 0
162 185 0
161 184 0
162 184 0
173 195 0
166 189 0
165 187 0
167 189 0
165 187 0
162 185 0
167 190 0
166 189 0
167 190 0
167 189 0
167 190 0
167 190 0
162 185 0
167 189 0
166 189 0
165 189 0
166 189 0
166 189 0
163 186 0
166 189 0
163 186 0
164 187 0
168 191 0
166 189 0
162 185 0
164 187 0
168 191 0
168 190 0
165 188 0
171 193 0
167 190 0
165 187 0
159 182 0
171 194 0
167 190 0
164 187 0
171 195 0
162 184 0
167 189 0
166 190 0
169 192 0
164 187 0
170 193 0
166 188 0
167 190 0
165 188 0
170 192 0
167 190 0
169 193 0
171 194 0
170 193 0
171 194 0
170 192 0
170 193 0
169 192 0
171 194 0
169 193 0
167 190 0
166 189 0
169 192 0
174 197 0
170 193 0
169 192 0
168 191 0
170 193 0
172 195 0
171 194 0
170 192 0
172 195 0
171 194 0
169 192 0
169 192 0
169 192 0
172 195 0
169 192 0
172 196 0
172 195 0
171 194 0
171 194 0
173 196 0
171 194 0
169 192 0
169 193 0
158 179 0
162 184 0
160 181 0
162 183 0
160 180 0
156 177 0
157 178 0
159 179 0
159 180 0
156 178 0
163 184 0
157 178 0
162 183 0
158 179 0
162 183 0
156 177 0
159 181 0
160 181 0
159 181 0
155 176 0
159 180 0
162 183 0
160 183 0
158 179 0
156 177 0
160 182 0
156 178 0
162 183 0
155 177 0
155 176 0
156 177 0
157 179 0
161 181 0
154 177 0
156 177 0
164 185 0
157 178 0
160 182 0
157 177 0
153 174 0
158 180 0
154 175 0
157 178 0
155 176 0
158 180 0
160 181 0
152 175 0
159 181 0
157 178 0
157 178 0
160 183 0
158 179 0
152 174 0
158 179 0
152 174 0
157 179 0
160 182 0
159 180 0
156 177 0
155 176 0
155 177 0
157 179 0
157 180 0
157 178 0
154 175 0
157 179 0
160 181 0
154 176 0
156 177 0
159 181 0
163 185 0
160 182 0
157 179 0
156 178 0
159 181 0
152 174 0
159 180 0
155 177 0
160 182 0
154 176 0
164 186 0
155 177 0
156 178 0
151 173 0
154 177 0
151 174 0
158 181 0
154 175 0
156 178 0
157 179 0
155 178 0
153 176 0
153 176 0
163 185 0
154 177 0
159 181 0
158 180 0
155 177 0
151 173 0
155 178 0
162 185 0
154 177 0
155 177 0
157 179 0
154 175 0
156 179 0
153 176 0
163 185 0
156 179 0
159 181 0
155 177 0
150 172 0
157 180 0
154 177 0
155 177 0
155 177 0
148 171 0
149 172 0
155 178 0
149 172 0
153 176 0
155 177 0
156 179 0
154 177 0
155 176 0
154 176 0
159 181 0
158 181 0
157 180 0
154 176 0
155 177 0
155 177 0
154 177 0
158 181 0
151 172 0
156 178 0
154 176 0
154 176 0
157 180 0
155 178 0
158 180 0
159 182 0
156 178 0
147 169 0
158 180 0
149 172 0
155 179 0
149 172 0
151 174 0
151 174 0
154 177 0
157 180 0
153 174 0
158 181 0
152 174 0
160 183 0
154 178 0
154 176 0
147 169 0
149 171 0
152 174 0
156 178 0
154 176 0
150 172 0
157 180 0
155 178 0
149 172 0
159 182 0
147 170 0
153 176 0
151 172 0
154 177 0
150 173 0
151 174 0
155 178 0
151 174 0
153 176 0
154 178 0
152 175 0
155 178 0
151 174 0
148 170 0
151 173 0
148 170 0
160 182 0
159 182 0
155 177 0
153 176 0
162 184 0
159 181 0
159 182 0
160 183 0
148 171 0
157 181 0
150 173 0
157 179 0
151 173 0
155 178 0
163 185 0
153 174 0
157 179 0
151 174 0
152 174 0
151 174 0
154 176 0
159 182 0
155 177 0
157 181 0
156 180 0
155 177 0
159 182 0
155 178 0
156 179 0
165 187 0
159 183 0
148 170 0
157 178 0
155 178 0
153 176 0
155 177 0
155 178 0
152 174 0
152 174 0
148 170 0
160 182 0
155 178 0
152 174 0
159 181 0
152 175 0
154 176 0
162 184 0
158 181 0
158 181 0
156 179 0
159 182 0
158 181 0
156 178 0
163 186 0
158 181 0
159 181 0
157 179 0
157 180 0
156 178 0
163 185 0
159 181 0
158 179 0
152 174 0
153 176 0
154 177 0
157 180 0
153 176 0
165 188 0
150 172 0
156 178 0
158 180 0
162 185 0
163 186 0
158 181 0
161 183 0
159 181 0
162 185 0
160 183 0
158 182 0
156 179 0
158 181 0
164 187 0
157 181 0
163 186 0
156 178 0
156 179 0
165 188 0
161 184 0
166 188 0
158 181 0
166 188 0
151 173 0
161 185 0
160 182 0
163 187 0
161 184 0
161 183 0
164 187 0
157 180 0
165 188 0
155 178 0
156 179 0
162 185 0
161 184 0
159 181 0
158 181 0
169 191 0
164 186 0
162 185 0
159 181 0
163 185 0
162 185 0
160 184 0
168 190 0
163 185 0
169 192 0
163 185 0
164 186 0
168 191 0
164 187 0
160 184 0
167 190 0
165 187 0
165 188 0
164 186 0
163 186 0
161 183 0
167 189 0
167 190 0
159 182 0
167 189 0
165 187 0
162 186 0
165 189 0
164 187 0
164 187 0
169 192 0
167 190 0
166 188 0
162 185 0
165 187 0
165 187 0
164 187 0
168 191 0
164 187 0
165 188 0
165 189 0
164 187 0
168 192 0
165 189 0
161 184 0
168 190 0
170 192 0
171 194 0
170 193 0
166 190 0
171 193 0
163 186 0
163 186 0
161 185 0
170 193 0
170 193 0
166 189 0
168 191 0
169 192 0
169 192 0
170 192 0
167 190 0
169 192 0
168 190 0
168 190 0
168 192 0
169 192 0
171 194 0
165 188 0
170 193 0
166 188 0
170 194 0
173 195 0
171 194 0
167 190 0
167 190 0
173 196 0
168 191 0
169 193 0
170 193 0
171 194 0
171 194 0
165 188 0
167 190 0
167 190 0
168 191 0
169 193 0
170 193 0
171 193 0
172 195 0
166 189 0
173 196 0
172 195 0
169 191 0
169 193 0
170 194 0
173 196 0
169 193 0
171 194 0
170 193 0
171 195 0
172 195 0
171 194 0
171 195 0
168 191 0
170 193 0
172 195 0
168 191 0
173 196 0
171 195 0
